; generated by PrusaSlicer 2.5.0+linux-x64-GTK3 on 2023-10-09 at 21:13:33 UTC

; 

; external perimeters extrusion width = 1.00mm
; perimeters extrusion width = 1.00mm
; infill extrusion width = 1.00mm
; solid infill extrusion width = 1.00mm
; top infill extrusion width = 1.00mm
; support material extrusion width = 1.00mm
; first layer extrusion width = 1.00mm

M107
;TYPE:Custom
M190 S70 ;Heat up bed
M140 S0 ;Stop bed heater
G28 ;Home
G29 ;Autolevel
G1 X0 Y0 Z5 F6000.000
M140 S70 ;Turn bed back on
M106 S255 ;Turn on fans
M109 S225  ;Set extruder temp
G21 ; set units to millimeters
G90 ; use absolute coordinates
M82 ; use absolute distances for extrusion
G92 E0
; Filament gcode
M106 S255
;LAYER_CHANGE
;Z:0.3
;HEIGHT:0.3
G1 E-2 F1800
G92 E0
G1 Z.1 F9000
G1 X117.605 Y113.432
G1 E2 F1800
;TYPE:Skirt/Brim
;WIDTH:1
G1 F900
G1 X120.031 Y111.542 E2.23685
G1 X122.862 Y110.34 E2.4737
G1 X126.05 Y109.903 E2.72156
G1 X188.95 Y109.903 E7.56606
G1 X191.999 Y110.302 E7.80291
G1 X194.844 Y111.47 E8.03976
G1 X197.293 Y113.33 E8.27661
G1 X199.182 Y115.756 E8.51346
G1 X200.385 Y118.586 E8.75031
G1 X200.821 Y121.775 E8.99818
G1 X200.783 Y182.66 E13.68745
G1 X200.581 Y184.403 E13.82259
G1 X200.197 Y186.115 E13.95776
G1 X199.44 Y188.252 E14.13236
G1 X198.906 Y189.374 E14.22806
G1 X198.012 Y190.884 E14.36322
G1 X196.631 Y192.682 E14.53784
G1 X195.404 Y193.937 E14.67303
G1 X194.204 Y194.944 E14.79367
G1 X193.003 Y195.778 E14.90629
G1 X190.846 Y196.93 E15.09462
G1 X189.168 Y197.568 E15.23291
G1 X187.757 Y197.953 E15.34557
G1 X186.317 Y198.214 E15.45823
G1 X184.136 Y198.37 E15.62667
G1 X129.765 Y198.325 E19.81428
G1 X128.167 Y198.135 E19.93818
G1 X126.505 Y197.766 E20.06935
G1 X125.368 Y197.411 E20.16108
G1 X123.878 Y196.803 E20.28502
G1 X121.972 Y195.76 E20.45234
G1 X120.615 Y194.803 E20.58023
G1 X119.704 Y194.036 E20.67196
G1 X118.534 Y192.87 E20.79917
G1 X117.291 Y191.325 E20.95195
G1 X116.422 Y189.971 E21.07587
G1 X115.686 Y188.539 E21.19979
G1 X115.091 Y187.044 E21.32374
G1 X114.642 Y185.499 E21.44765
G1 X114.344 Y183.918 E21.57157
G1 X114.18 Y181.686 E21.74398
G1 X114.179 Y121.775 E26.35827
G1 X114.577 Y118.726 E26.59512
G1 X115.745 Y115.881 E26.83197
G1 X117.532 Y113.527 E27.05958
G1 X118.289 Y114.135 F9000
G1 F900
G1 X118.526 Y113.839 E27.08878
G1 X120.922 Y112.116 E27.31607
G1 X123.691 Y111.097 E27.54335
G1 X126.05 Y110.839 E27.72611
G1 X188.95 Y110.839 E32.57061
G1 X191.874 Y111.237 E32.79789
G1 X194.585 Y112.403 E33.02518
G1 X196.886 Y114.251 E33.25246
G1 X198.609 Y116.647 E33.47975
G1 X199.628 Y119.416 E33.70703
G1 X199.886 Y121.775 E33.8898
G1 X199.85 Y182.586 E38.57342
G1 X199.661 Y184.232 E38.70102
G1 X199.3 Y185.849 E38.82865
G1 X198.576 Y187.894 E38.9957
G1 X198.083 Y188.927 E39.08386
G1 X197.241 Y190.354 E39.21148
G1 X195.92 Y192.075 E39.37856
G1 X194.76 Y193.258 E39.5062
G1 X193.628 Y194.207 E39.61993
G1 X192.493 Y194.993 E39.72627
G1 X190.477 Y196.07 E39.90234
G1 X188.871 Y196.681 E40.03467
G1 X187.538 Y197.043 E40.14104
G1 X186.179 Y197.289 E40.24741
G1 X184.136 Y197.435 E40.40517
G1 X129.818 Y197.391 E44.5887
G1 X128.31 Y197.21 E44.70568
G1 X126.739 Y196.861 E44.82963
G1 X125.692 Y196.533 E44.91412
G1 X124.284 Y195.96 E45.03115
G1 X122.461 Y194.962 E45.19125
G1 X121.181 Y194.059 E45.31191
G1 X120.342 Y193.352 E45.39641
G1 X119.235 Y192.25 E45.5167
G1 X118.045 Y190.771 E45.66289
G1 X117.226 Y189.492 E45.77989
G1 X116.532 Y188.14 E45.8969
G1 X115.972 Y186.728 E46.01393
G1 X115.549 Y185.269 E46.13093
G1 X115.269 Y183.776 E46.24793
G1 X115.115 Y181.686 E46.40935
G1 X115.114 Y121.775 E51.02363
G1 X115.513 Y118.851 E51.25092
G1 X116.678 Y116.14 E51.4782
G1 X118.213 Y114.228 E51.66704
;WIPE_START
G1 F7200
G1 X118.526 Y113.839 E51.54848
G1 X120.922 Y112.116 E50.84762
G1 X123.691 Y111.097 E50.14675
G1 X125.28 Y110.923 E49.76704
;WIPE_END
G1 E49.66704 F1800
G92 E0
G1 X184.832 Y177.356 F9000
G1 E2 F1800
;TYPE:Perimeter
;WIDTH:1
G1 F750
G1 X185.048 Y176.965 E2.03437
G1 X185.319 Y176.377 E2.08427
G1 X185.575 Y175.726 E2.13808
G1 X185.915 Y174.643 E2.22552
G1 X185.969 Y174.324 E2.25046
;WIDTH:0.959911
G1 X186.023 Y174.005 E2.27434
;WIDTH:0.919823
G1 X186.033 Y173.817 E2.28754
;WIDTH:0.879118
G1 X186.042 Y173.63 E2.30012
;WIDTH:0.838413
G1 X186.051 Y173.443 E2.31207
;WIDTH:0.797707
G1 X186.06 Y173.255 E2.32339
;WIDTH:0.757003
G1 X186.069 Y173.068 E2.33409
;WIDTH:0.763614
G1 X186.1 Y173.004 E2.33815
;WIDTH:0.81093
G1 X186.13 Y172.941 E2.34248
;WIDTH:0.858247
G1 X186.161 Y172.877 E2.34709
;WIDTH:0.905563
G1 X186.191 Y172.814 E2.35198
;WIDTH:0.95288
G1 X186.222 Y172.75 E2.35714
;WIDTH:1.0002
G1 X186.252 Y172.686 E2.36258
;WIDTH:1.04751
G1 X186.283 Y172.623 E2.36829
;WIDTH:1.09483
G1 X186.313 Y172.559 E2.37427
;WIDTH:1.14215
G1 X186.344 Y172.496 E2.38053
;WIDTH:1.18946
G1 X186.374 Y172.432 E2.38706
;WIDTH:1.23678
G1 X186.405 Y172.368 E2.39387
;WIDTH:1.28409
G1 X186.435 Y172.305 E2.40096
G1 X186.449 Y172.344 E2.40514
;WIDTH:1.2567
G1 X186.463 Y172.383 E2.40923
;WIDTH:1.2293
G1 X186.486 Y172.449 E2.41589
;WIDTH:1.18267
G1 X186.509 Y172.514 E2.42229
;WIDTH:1.13603
G1 X186.533 Y172.58 E2.42842
;WIDTH:1.08939
G1 X186.556 Y172.645 E2.43429
;WIDTH:1.04276
G1 X186.579 Y172.711 E2.43988
;WIDTH:0.996118
G1 X186.603 Y172.776 E2.44521
;WIDTH:0.949482
G1 X186.626 Y172.842 E2.45028
;WIDTH:0.902845
G1 X186.649 Y172.907 E2.45508
;WIDTH:0.856208
G1 X186.673 Y172.973 E2.45961
;WIDTH:0.809571
G1 X186.696 Y173.038 E2.46387
;WIDTH:0.762934
G1 X186.719 Y173.104 E2.46787
;WIDTH:0.74904
G1 X186.703 Y173.534 E2.49213
;WIDTH:0.792078
G1 X186.681 Y173.666 E2.50016
;WIDTH:0.835116
G1 X186.66 Y173.799 E2.50867
;WIDTH:0.878154
G1 X186.638 Y173.931 E2.51766
;WIDTH:0.921192
G1 X186.617 Y174.063 E2.52712
;WIDTH:0.964231
G1 X186.595 Y174.196 E2.53706
;WIDTH:1
G1 X186.577 Y174.722 E2.57758
G1 X186.563 Y181.816 E3.12395
G1 X186.463 Y182.332 E3.16447
G1 X186.259 Y182.818 E3.20504
G1 X185.944 Y183.265 E3.2472
G1 X185.577 Y183.594 E3.28519
G1 X185.128 Y183.869 E3.32574
G1 X184.531 Y184.073 E3.37431
G1 X184.012 Y184.128 E3.41449
G1 X177.567 Y184.128 E3.91092
G1 X177.348 Y184.149 E3.9278
;WIDTH:0.957801
G1 X177.13 Y184.17 E3.94391
;WIDTH:0.915603
G1 X176.912 Y184.191 E3.95927
;WIDTH:0.873404
G1 X176.694 Y184.212 E3.97387
;WIDTH:0.831206
G1 X176.476 Y184.234 E3.9877
;WIDTH:0.789008
G1 X175.983 Y184.254 E4.01715
;WIDTH:0.748892
G1 X175.489 Y184.274 E4.04497
;WIDTH:0.708776
G1 X174.54 Y184.294 E4.09534
;WIDTH:0.66792
G1 X173.95 Y184.298 E4.12463
;WIDTH:0.660806
G1 X141.049 Y184.298 E5.73998
;WIDTH:0.661758
G1 X140.952 Y184.298 E5.74475
;WIDTH:0.684904
G1 X139.97 Y184.286 E5.79494
;WIDTH:0.71656
G1 X139.47 Y184.27 E5.82176
;WIDTH:0.748215
G1 X138.971 Y184.254 E5.84988
;WIDTH:0.79018
G1 X138.825 Y184.233 E5.85869
;WIDTH:0.832144
G1 X138.679 Y184.212 E5.86801
;WIDTH:0.874108
G1 X138.533 Y184.191 E5.87783
;WIDTH:0.916072
G1 X138.387 Y184.17 E5.88817
;WIDTH:0.958036
G1 X138.242 Y184.149 E5.89901
;WIDTH:1
G1 X138.096 Y184.128 E5.91037
G1 X131.031 Y184.129 E6.4545
G1 X130.477 Y184.07 E6.49735
G1 X130.166 Y183.99 E6.52214
G1 X129.568 Y183.711 E6.57298
G1 X129.132 Y183.342 E6.61698
G1 X128.853 Y182.994 E6.65127
G1 X128.624 Y182.564 E6.68885
G1 X128.481 Y182.097 E6.72642
G1 X128.422 Y181.557 E6.76828
G1 X128.422 Y174.674 E7.29839
G1 X128.398 Y174.476 E7.31374
;WIDTH:0.951214
G1 X128.373 Y174.278 E7.3283
;WIDTH:0.902428
G1 X128.349 Y174.08 E7.34205
;WIDTH:0.853643
G1 X128.324 Y173.883 E7.35501
;WIDTH:0.804857
G1 X128.3 Y173.685 E7.36716
;WIDTH:0.756072
G1 X128.282 Y173.144 E7.39799
;WIDTH:0.767098
G1 X128.305 Y173.077 E7.40208
;WIDTH:0.81476
G1 X128.329 Y173.01 E7.40645
;WIDTH:0.862422
G1 X128.353 Y172.944 E7.41109
;WIDTH:0.910084
G1 X128.377 Y172.877 E7.41601
;WIDTH:0.957746
G1 X128.401 Y172.811 E7.42121
;WIDTH:1.00541
G1 X128.425 Y172.744 E7.42669
;WIDTH:1.05307
G1 X128.448 Y172.678 E7.43244
;WIDTH:1.10073
G1 X128.472 Y172.611 E7.43848
;WIDTH:1.14839
G1 X128.496 Y172.544 E7.44479
;WIDTH:1.19605
G1 X128.52 Y172.478 E7.45137
;WIDTH:1.24372
G1 X128.544 Y172.411 E7.45824
;WIDTH:1.29138
G1 X128.568 Y172.345 E7.46538
G1 X128.586 Y172.39 E7.47033
;WIDTH:1.2579
G1 X128.605 Y172.435 E7.47514
;WIDTH:1.22442
G1 X128.624 Y172.481 E7.47982
;WIDTH:1.19095
G1 X128.655 Y172.543 E7.48625
;WIDTH:1.1438
G1 X128.686 Y172.605 E7.49241
;WIDTH:1.09665
G1 X128.717 Y172.667 E7.4983
;WIDTH:1.04949
G1 X128.748 Y172.729 E7.50393
;WIDTH:1.00234
G1 X128.779 Y172.791 E7.50928
;WIDTH:0.955192
G1 X128.81 Y172.853 E7.51437
;WIDTH:0.908041
G1 X128.841 Y172.915 E7.51918
;WIDTH:0.86089
G1 X128.872 Y172.977 E7.52373
;WIDTH:0.813739
G1 X128.903 Y173.039 E7.52801
;WIDTH:0.766588
G1 X128.934 Y173.101 E7.53201
;WIDTH:0.755252
G1 X128.961 Y173.413 E7.54984
;WIDTH:0.791067
G1 X128.989 Y173.725 E7.5686
;WIDTH:0.832853
G1 X129.006 Y173.901 E7.57975
;WIDTH:0.87464
G1 X129.023 Y174.076 E7.59151
;WIDTH:0.916426
G1 X129.041 Y174.252 E7.60387
;WIDTH:0.958213
G1 X129.058 Y174.427 E7.61684
;WIDTH:1
G1 X129.076 Y174.602 E7.63042
G1 X129.129 Y174.8 E7.64614
G1 X129.462 Y175.826 E7.72928
G1 X129.888 Y176.829 E7.81317
G1 X130.444 Y177.865 E7.90376
G1 X131.039 Y178.766 E7.9869
G1 X131.711 Y179.611 E8.07002
G1 X132.543 Y180.475 E8.16242
G1 X133.261 Y181.109 E8.23619
G1 X134.128 Y181.751 E8.3193
G1 X135.048 Y182.316 E8.40243
G1 X136.014 Y182.798 E8.48557
G1 X137.027 Y183.197 E8.56945
G1 X138.156 Y183.526 E8.66004
G1 X138.334 Y183.538 E8.67375
;WIDTH:0.955227
G1 X138.511 Y183.55 E8.68679
;WIDTH:0.910454
G1 X138.689 Y183.562 E8.69919
;WIDTH:0.865681
G1 X138.866 Y183.574 E8.71092
;WIDTH:0.820908
G1 X139.044 Y183.586 E8.722
;WIDTH:0.776135
G1 X139.221 Y183.598 E8.73243
;WIDTH:0.731363
G1 X139.699 Y183.638 E8.75876
;WIDTH:0.704293
G1 X140.177 Y183.677 E8.78402
;WIDTH:0.677224
G1 X141.049 Y183.702 E8.82803
;WIDTH:0.660806
G1 X173.95 Y183.702 E10.44337
;WIDTH:0.661054
G1 X174.007 Y183.701 E10.44616
;WIDTH:0.672694
G1 X174.674 Y183.685 E10.47957
;WIDTH:0.721763
G1 X175.632 Y183.615 E10.53153
;WIDTH:0.762677
G1 X175.955 Y183.577 E10.55025
;WIDTH:0.803591
G1 X176.279 Y183.54 E10.57008
;WIDTH:0.844506
G1 X176.602 Y183.502 E10.59099
;WIDTH:0.883379
G1 X176.865 Y183.452 E10.60904
;WIDTH:0.922253
G1 X177.128 Y183.402 E10.62794
;WIDTH:0.961126
G1 X177.391 Y183.352 E10.6477
;WIDTH:1
G1 X177.654 Y183.302 E10.66831
G1 X178.569 Y182.975 E10.74311
G1 X179.464 Y182.572 E10.81872
G1 X180.399 Y182.056 E10.90102
G1 X181.216 Y181.511 E10.97663
G1 X182.068 Y180.832 E11.06051
G1 X182.891 Y180.05 E11.14798
G1 X183.326 Y179.57 E11.19789
G1 X183.736 Y179.068 E11.24778
G1 X184.118 Y178.545 E11.29766
G1 X184.499 Y177.959 E11.3515
G1 X184.774 Y177.461 E11.39534
G1 X184.014 Y176.906 F9000
G1 F750
G1 X184.2 Y176.57 E11.42492
G1 X184.451 Y176.026 E11.47106
G1 X184.684 Y175.441 E11.51953
G1 X185.005 Y174.425 E11.60163
G1 X185.143 Y173.842 E11.64779
G1 X185.28 Y172.982 E11.71485
G1 X185.366 Y172.156 E11.7788
G1 X185.386 Y171.5 E11.8293
G1 X185.386 Y123.21 E15.54856
G1 X187.514 Y123.21 E15.71251
G1 X187.513 Y180.958 E20.16016
G1 X187.496 Y181.889 E20.23189
G1 X187.417 Y182.408 E20.27235
G1 X187.238 Y182.938 E20.31542
G1 X187.002 Y183.409 E20.35598
G1 X186.687 Y183.837 E20.39691
G1 X186.316 Y184.216 E20.43775
G1 X185.803 Y184.582 E20.4863
G1 X185.293 Y184.828 E20.52995
G1 X184.71 Y184.995 E20.57663
G1 X184.061 Y185.064 E20.62689
G1 X131.894 Y185.064 E24.64472
G1 X130.703 Y185.035 E24.7365
G1 X130.084 Y184.948 E24.78463
G1 X129.57 Y184.753 E24.82699
G1 X129.018 Y184.471 E24.87475
G1 X128.458 Y183.998 E24.93119
G1 X128.068 Y183.511 E24.97921
G1 X127.755 Y182.923 E25.0305
G1 X127.561 Y182.287 E25.08179
G1 X127.486 Y181.608 E25.13437
G1 X127.486 Y123.21 E29.6321
G1 X129.614 Y123.21 E29.79605
G1 X129.614 Y171.501 E33.51532
G1 X129.654 Y172.436 E33.5874
G1 X129.8 Y173.546 E33.67362
G1 X130.021 Y174.518 E33.75046
G1 X130.326 Y175.468 E33.82731
G1 X130.716 Y176.393 E33.90461
G1 X131.229 Y177.356 E33.98861
G1 X131.777 Y178.19 E34.06546
G1 X132.395 Y178.973 E34.1423
G1 X133.169 Y179.779 E34.22842
G1 X133.824 Y180.362 E34.29591
G1 X134.624 Y180.958 E34.37274
G1 X135.473 Y181.482 E34.44958
G1 X136.364 Y181.93 E34.52644
G1 X137.297 Y182.301 E34.60372
G1 X138.343 Y182.609 E34.68772
G1 X139.316 Y182.802 E34.7641
G1 X140.208 Y182.904 E34.83324
G1 X141.049 Y182.936 E34.89811
G1 X173.95 Y182.936 E37.43212
G1 X174.603 Y182.916 E37.48245
G1 X175.497 Y182.83 E37.55157
G1 X176.388 Y182.672 E37.62125
G1 X177.346 Y182.419 E37.69757
G1 X178.192 Y182.119 E37.76671
G1 X179.018 Y181.75 E37.83636
G1 X179.886 Y181.273 E37.91268
G1 X180.64 Y180.773 E37.98233
G1 X181.427 Y180.151 E38.05962
G1 X182.201 Y179.418 E38.14174
G1 X182.604 Y178.975 E38.18788
G1 X182.984 Y178.511 E38.234
G1 X183.338 Y178.029 E38.2801
G1 X183.682 Y177.502 E38.32861
G1 X183.955 Y177.01 E38.37188
G1 X183.197 Y176.452 F9000
;TYPE:External perimeter
G1 F375
G1 X183.352 Y176.174 E38.39639
G1 X183.584 Y175.676 E38.43875
G1 X183.792 Y175.156 E38.48188
G1 X184.095 Y174.206 E38.55864
G1 X184.223 Y173.671 E38.60103
G1 X184.35 Y172.88 E38.66275
G1 X184.431 Y172.127 E38.72105
G1 X184.45 Y171.5 E38.76935
G1 X184.45 Y122.275 E42.56066
G1 X188.45 Y122.275 E42.86874
G1 X188.448 Y181.551 E47.43412
G1 X188.412 Y182.174 E47.48222
G1 X188.258 Y182.864 E47.53663
G1 X188.021 Y183.494 E47.58849
G1 X187.68 Y184.075 E47.64038
G1 X187.367 Y184.481 E47.67983
G1 X186.913 Y184.94 E47.72957
G1 X186.282 Y185.39 E47.7893
G1 X185.627 Y185.706 E47.84524
G1 X184.889 Y185.917 E47.90438
G1 X184.11 Y185.999 E47.96472
G1 X130.933 Y186 E52.0604
G1 X130.282 Y185.931 E52.11079
G1 X129.637 Y185.798 E52.1615
G1 X129.041 Y185.545 E52.21135
G1 X128.468 Y185.231 E52.26171
G1 X127.785 Y184.653 E52.33061
G1 X127.283 Y184.028 E52.39234
G1 X126.887 Y183.283 E52.45736
G1 X126.64 Y182.476 E52.52237
G1 X126.551 Y181.659 E52.58566
G1 X126.55 Y122.275 E57.15938
G1 X130.55 Y122.275 E57.46746
G1 X130.55 Y171.501 E61.25879
G1 X130.592 Y172.435 E61.33086
G1 X130.713 Y173.343 E61.40139
G1 X130.913 Y174.237 E61.47194
G1 X131.191 Y175.11 E61.54251
G1 X131.544 Y175.958 E61.61321
G1 X132.013 Y176.846 E61.69062
G1 X132.514 Y177.614 E61.76119
G1 X133.079 Y178.334 E61.83174
G1 X133.795 Y179.084 E61.91158
G1 X134.387 Y179.615 E61.97279
G1 X135.12 Y180.164 E62.04334
G1 X135.897 Y180.648 E62.1139
G1 X136.715 Y181.063 E62.18447
G1 X137.566 Y181.405 E62.25516
G1 X138.529 Y181.693 E62.33257
G1 X139.426 Y181.873 E62.40298
G1 X140.244 Y181.969 E62.46647
G1 X141.049 Y182 E62.52851
G1 X173.95 Y182 E65.06252
G1 X174.518 Y181.984 E65.10625
G1 X175.338 Y181.907 E65.16972
G1 X176.153 Y181.766 E65.23343
G1 X177.037 Y181.536 E65.30377
G1 X177.815 Y181.262 E65.36726
G1 X178.571 Y180.928 E65.43094
G1 X179.373 Y180.491 E65.5013
G1 X180.064 Y180.036 E65.56498
G1 X180.786 Y179.469 E65.63567
G1 X181.511 Y178.785 E65.71246
G1 X181.882 Y178.379 E65.75482
G1 X182.232 Y177.955 E65.79717
G1 X182.558 Y177.513 E65.8395
G1 X182.866 Y177.045 E65.88266
G1 X183.138 Y176.557 E65.92567
G1 X183.515 Y176.451 F9000
;WIPE_START
G1 F7200
G1 X183.352 Y176.174 E65.8216
G1 X183.584 Y175.676 E65.69097
G1 X183.792 Y175.156 E65.55797
G1 X184.095 Y174.206 E65.32128
G1 X184.223 Y173.671 E65.19057
G1 X184.35 Y172.88 E65.00024
G1 X184.431 Y172.127 E64.82048
G1 X184.45 Y171.5 E64.67154
G1 X184.45 Y168.781 E64.02567
;WIPE_END
G1 E63.92567 F1800
G92 E0
G1 X128.55 Y124.275 F9000
G1 E2 F1800
;TYPE:Perimeter
;WIDTH:1.25749
G1 F750
G1 X128.55 Y171.501 E6.63832
;WIDTH:1.29138
G1 X128.568 Y172.345 E6.7236
;WIPE_START
G1 F7200
G1 X128.55 Y171.501 E6.52308
G1 X128.55 Y164.345 E4.8236
;WIPE_END
G1 E4.7236 F1800
G92 E0
G1 X186.45 Y124.275 F9000
G1 E2 F1800
;WIDTH:1.25745
G1 F750
G1 X186.449 Y171.5 E6.63815
;WIDTH:1.27599
G1 X186.439 Y172.189 E6.7068
;WIDTH:1.28409
G1 X186.435 Y172.305 E6.71846
;WIPE_START
G1 F7200
G1 X186.439 Y172.189 E6.69087
G1 X186.449 Y171.5 E6.5274
G1 X186.449 Y164.305 E4.81846
;WIPE_END
G1 E4.71846 F1800
G92 E0
G1 X186.343 Y178.561 F9000
G1 E2 F1800
;TYPE:Solid infill
;WIDTH:1.00753
G1 F750
G1 X185.42 Y177.638 E2.10133
G1 X184.94 Y178.491 E2.17735
G1 X185.922 Y179.473 E2.28524
G1 X185.922 Y180.807 E2.38879
G1 X184.393 Y179.278 E2.55671
G1 X183.8 Y180.019 E2.63038
G1 X185.849 Y182.068 E2.85535
G1 X185.811 Y182.229 E2.86817
