; generated by PrusaSlicer 2.5.0+linux-x64-GTK3 on 2023-10-08 at 01:34:07 UTC

; 

; external perimeters extrusion width = 1.00mm
; perimeters extrusion width = 1.00mm
; infill extrusion width = 1.00mm
; solid infill extrusion width = 1.00mm
; top infill extrusion width = 1.00mm
; support material extrusion width = 1.00mm
; first layer extrusion width = 1.00mm

M107
;TYPE:Custom
M190 S70 ;Heat up bed
M140 S0 ;Stop bed heater
G28 ;Home
G29 ;Autolevel
G1 X0 Y0 Z5 F6000.000
M140 S70 ;Turn bed back on
M106 S255 ;Turn on fans
M109 S225  ;Set extruder temp
G21 ; set units to millimeters
G90 ; use absolute coordinates
M82 ; use absolute distances for extrusion
G92 E0
; Filament gcode
M106 S255
;LAYER_CHANGE
;Z:0.3
;HEIGHT:0.3
G1 E-2 F1800
G92 E0
G1 Z.1 F9000
G1 X129.57 Y121.34
G1 E2 F1800
;TYPE:Skirt/Brim
;WIDTH:1
G1 F900
G1 X132.558 Y118.705 E2.30685
G1 X135.734 Y116.418 E2.60832
G1 X139.169 Y114.426 E2.91412
G1 X142.766 Y112.792 E3.21837
G1 X146.294 Y111.582 E3.50564
G1 X150.169 Y110.659 E3.81248
G1 X154.08 Y110.128 E4.1164
G1 X158.016 Y109.985 E4.41978
G1 X161.992 Y110.235 E4.72661
G1 X165.856 Y110.863 E5.02811
G1 X169.693 Y111.884 E5.33391
G1 X173.422 Y113.285 E5.64076
G1 X176.933 Y115.016 E5.94225
G1 X180.135 Y116.998 E6.23227
G1 X183.275 Y119.388 E6.53619
G1 X186.16 Y122.07 E6.83956
G1 X188.795 Y125.058 E7.1464
G1 X191.082 Y128.234 E7.44788
G1 X193.074 Y131.669 E7.75367
G1 X194.708 Y135.266 E8.05792
G1 X195.918 Y138.794 E8.34519
G1 X196.841 Y142.669 E8.65204
G1 X197.372 Y146.579 E8.95595
G1 X197.515 Y150.516 E9.25934
G1 X197.265 Y154.492 E9.56617
G1 X196.637 Y158.356 E9.86766
G1 X195.616 Y162.193 E10.17347
G1 X194.215 Y165.922 E10.48031
G1 X192.484 Y169.433 E10.7818
G1 X190.502 Y172.635 E11.07182
G1 X188.112 Y175.775 E11.37574
G1 X185.43 Y178.66 E11.67911
G1 X182.442 Y181.295 E11.98596
G1 X179.266 Y183.582 E12.28743
G1 X175.831 Y185.574 E12.59323
G1 X172.234 Y187.208 E12.89748
G1 X168.706 Y188.418 E13.18475
G1 X164.831 Y189.341 E13.4916
G1 X160.92 Y189.872 E13.79551
G1 X156.984 Y190.015 E14.09889
G1 X153.008 Y189.765 E14.40572
G1 X149.144 Y189.137 E14.70722
G1 X145.307 Y188.116 E15.01302
G1 X141.578 Y186.715 E15.31987
G1 X138.067 Y184.984 E15.62136
G1 X134.865 Y183.002 E15.91138
G1 X131.725 Y180.612 E16.2153
G1 X128.84 Y177.93 E16.51867
G1 X126.205 Y174.942 E16.82551
G1 X123.918 Y171.766 E17.12699
G1 X121.926 Y168.331 E17.43279
G1 X120.292 Y164.734 E17.73703
G1 X119.082 Y161.206 E18.0243
G1 X118.159 Y157.331 E18.33115
G1 X117.628 Y153.42 E18.63507
G1 X117.485 Y149.484 E18.93845
G1 X117.735 Y145.508 E19.24528
G1 X118.363 Y141.644 E19.54677
G1 X119.384 Y137.807 E19.85258
G1 X120.785 Y134.078 E20.15942
G1 X122.516 Y130.567 E20.46091
G1 X124.498 Y127.365 E20.75093
G1 X126.888 Y124.225 E21.05486
G1 X129.488 Y121.428 E21.34898
G1 X130.172 Y122.063 F9000
G1 F900
G1 X133.128 Y119.447 E21.65296
G1 X136.23 Y117.211 E21.94752
G1 X139.584 Y115.265 E22.2462
G1 X143.096 Y113.668 E22.54332
G1 X146.541 Y112.485 E22.82389
G1 X150.324 Y111.582 E23.1234
G1 X154.142 Y111.062 E23.42021
G1 X157.989 Y110.92 E23.71667
G1 X161.87 Y111.162 E24.01616
G1 X165.645 Y111.775 E24.31074
G1 X169.393 Y112.77 E24.60943
G1 X173.034 Y114.137 E24.90894
G1 X176.465 Y115.827 E25.20352
G1 X179.592 Y117.76 E25.48662
G1 X182.659 Y120.092 E25.78344
G1 X185.479 Y122.712 E26.07987
G1 X188.053 Y125.628 E26.37938
G1 X190.289 Y128.73 E26.67395
G1 X192.235 Y132.084 E26.97262
G1 X193.832 Y135.596 E27.26974
G1 X195.015 Y139.041 E27.55031
G1 X195.918 Y142.824 E27.84983
G1 X196.438 Y146.642 E28.14663
G1 X196.58 Y150.489 E28.44309
G1 X196.338 Y154.37 E28.74259
G1 X195.725 Y158.145 E29.03716
G1 X194.73 Y161.893 E29.33585
G1 X193.363 Y165.534 E29.63536
G1 X191.673 Y168.965 E29.92993
G1 X189.74 Y172.092 E30.21305
G1 X187.408 Y175.159 E30.50986
G1 X184.788 Y177.979 E30.8063
G1 X181.872 Y180.553 E31.10581
G1 X178.77 Y182.789 E31.40038
G1 X175.416 Y184.735 E31.69905
G1 X171.904 Y186.332 E31.99617
G1 X168.459 Y187.515 E32.27674
G1 X164.676 Y188.418 E32.57625
G1 X160.858 Y188.938 E32.87307
G1 X157.011 Y189.08 E33.16952
G1 X153.13 Y188.838 E33.46901
G1 X149.355 Y188.225 E33.76359
G1 X145.607 Y187.23 E34.06228
G1 X141.966 Y185.863 E34.36179
G1 X138.535 Y184.173 E34.65637
G1 X135.408 Y182.24 E34.93947
G1 X132.341 Y179.908 E35.23629
G1 X129.521 Y177.288 E35.53273
G1 X126.947 Y174.372 E35.83224
G1 X124.711 Y171.27 E36.1268
G1 X122.765 Y167.916 E36.42548
G1 X121.168 Y164.404 E36.7226
G1 X119.985 Y160.959 E37.00317
G1 X119.082 Y157.176 E37.30268
G1 X118.562 Y153.358 E37.59949
G1 X118.42 Y149.511 E37.89594
G1 X118.662 Y145.63 E38.19544
G1 X119.275 Y141.855 E38.49001
G1 X120.27 Y138.107 E38.78871
G1 X121.637 Y134.466 E39.08821
G1 X123.327 Y131.035 E39.38278
G1 X125.26 Y127.908 E39.6659
G1 X127.592 Y124.841 E39.96272
G1 X130.09 Y122.151 E40.24542
;WIPE_START
G1 F7200
G1 X133.128 Y119.447 E39.27968
G1 X136.23 Y117.211 E38.37134
G1 X136.325 Y117.157 E38.34542
;WIPE_END
G1 E38.24542 F1800
G92 E0
G1 X152.03 Y124.818 F9000
G1 E2 F1800
;TYPE:Perimeter
;WIDTH:1
G1 F750
G1 X152.581 Y124.696 E2.0435
G1 X153.916 Y124.472 E2.14771
G1 X155.094 Y124.335 E2.23904
G1 X155.701 Y124.294 E2.2859
;WIDTH:1.04807
G1 X155.835 Y124.31 E2.29688
;WIDTH:1.09615
G1 X155.97 Y124.327 E2.30839
;WIDTH:1.14422
G1 X156.104 Y124.343 E2.32045
;WIDTH:1.1923
G1 X156.239 Y124.359 E2.33304
;WIDTH:1.24037
G1 X156.374 Y124.376 E2.34616
;WIDTH:1.28845
G1 X156.508 Y124.392 E2.35983
;WIDTH:1.33652
G1 X156.643 Y124.409 E2.37402
G1 X157.377 Y124.385 E2.45092
;WIDTH:1.32716
G1 X158.11 Y124.399 E2.52716
;WIDTH:1.37267
G1 X158.82 Y124.443 E2.60373
G1 X158.907 Y124.432 E2.6132
;WIDTH:1.33734
G1 X158.994 Y124.421 E2.62243
;WIDTH:1.302
G1 X159.082 Y124.409 E2.63139
;WIDTH:1.26666
G1 X159.2 Y124.396 E2.64321
;WIDTH:1.22222
G1 X159.319 Y124.384 E2.6546
;WIDTH:1.17778
G1 X159.438 Y124.371 E2.66555
;WIDTH:1.13333
G1 X159.557 Y124.358 E2.67606
;WIDTH:1.08889
G1 X159.675 Y124.345 E2.68613
;WIDTH:1.04444
G1 X159.794 Y124.332 E2.69577
;WIDTH:1
G1 X160.194 Y124.363 E2.72671
G1 X161.536 Y124.54 E2.83092
G1 X162.706 Y124.753 E2.92248
G1 X163.885 Y125.025 E3.01571
G1 X165.19 Y125.396 E3.1202
G1 X166.314 Y125.775 E3.21153
G1 X167.572 Y126.271 E3.31573
G1 X168.803 Y126.832 E3.41993
G1 X169.86 Y127.378 E3.5115
G1 X170.911 Y127.986 E3.60504
G1 X171.912 Y128.627 E3.6966
G1 X173.016 Y129.415 E3.80107
G1 X173.791 Y130.027 E3.87712
;WIDTH:1.00434
G1 X174.176 Y130.354 E3.91616
;WIDTH:1.05027
G1 X174.235 Y130.435 E3.92434
;WIDTH:1.0962
G1 X174.293 Y130.517 E3.93291
;WIDTH:1.14213
G1 X174.352 Y130.599 E3.94186
;WIDTH:1.18806
G1 X174.411 Y130.681 E3.95119
;WIDTH:1.23399
G1 X174.47 Y130.763 E3.96091
;WIDTH:1.27992
G1 X174.529 Y130.845 E3.971
;WIDTH:1.32585
G1 X174.588 Y130.927 E3.98147
;WIDTH:1.37178
G1 X174.647 Y131.009 E3.99233
G1 X175.201 Y131.494 E4.07162
;WIDTH:1.32558
G1 X175.878 Y132.158 E4.17006
;WIDTH:1.35175
G1 X176.247 Y132.579 E4.22938
;WIDTH:1.38319
G1 X176.617 Y132.999 E4.29014
G1 X176.69 Y133.053 E4.30002
;WIDTH:1.34044
G1 X176.764 Y133.106 E4.30959
;WIDTH:1.29769
G1 X176.838 Y133.159 E4.31884
;WIDTH:1.25494
G1 X176.912 Y133.213 E4.32776
;WIDTH:1.21218
G1 X176.985 Y133.266 E4.33636
;WIDTH:1.16943
G1 X177.059 Y133.32 E4.34465
;WIDTH:1.12668
G1 X177.217 Y133.472 E4.36386
;WIDTH:1.08445
G1 X177.375 Y133.625 E4.38231
;WIDTH:1.04223
G1 X177.533 Y133.777 E4.39999
;WIDTH:1
G1 X178.357 Y134.851 E4.50419
G1 X179.033 Y135.829 E4.59575
G1 X179.674 Y136.855 E4.68898
G1 X180.335 Y138.04 E4.79346
G1 X180.861 Y139.103 E4.88479
G1 X181.402 Y140.347 E4.98926
G1 X181.822 Y141.459 E5.08084
G1 X182.197 Y142.614 E5.17435
G1 X182.511 Y143.76 E5.26592
G1 X182.804 Y145.081 E5.37013
G1 X182.998 Y146.237 E5.46037
G1 X183.167 Y147.617 E5.56749
;WIDTH:1.02604
G1 X183.175 Y147.935 E5.59264
;WIDTH:1.05208
G1 X183.183 Y148.252 E5.61846
;WIDTH:1.10157
G1 X183.166 Y148.367 E5.62833
;WIDTH:1.15106
G1 X183.149 Y148.481 E5.63867
;WIDTH:1.20055
G1 X183.132 Y148.595 E5.64948
;WIDTH:1.25004
G1 X183.115 Y148.71 E5.66076
;WIDTH:1.29953
G1 X183.098 Y148.824 E5.67252
;WIDTH:1.34902
G1 X183.081 Y148.938 E5.68474
G1 X183.092 Y149.212 E5.71368
;WIDTH:1.3372
G1 X183.12 Y150.171 E5.81423
;WIDTH:1.32931
G1 X183.096 Y150.743 E5.87383
;WIDTH:1.35665
G1 X183.067 Y151.124 E5.91446
;WIDTH:1.384
G1 X183.038 Y151.505 E5.95594
G1 X183.053 Y151.613 E5.9678
;WIDTH:1.336
G1 X183.069 Y151.721 E5.97923
;WIDTH:1.288
G1 X183.085 Y151.829 E5.99023
;WIDTH:1.24
G1 X183.1 Y151.937 E6.0008
;WIDTH:1.192
G1 X183.116 Y152.045 E6.01093
;WIDTH:1.144
G1 X183.131 Y152.153 E6.02063
;WIDTH:1.096
G1 X183.147 Y152.261 E6.02991
;WIDTH:1.048
G1 X183.162 Y152.369 E6.03875
;WIDTH:1
G1 X183.137 Y152.694 E6.06389
G1 X182.96 Y154.036 E6.1681
G1 X182.747 Y155.205 E6.25966
G1 X182.475 Y156.385 E6.35289
G1 X182.104 Y157.69 E6.45738
G1 X181.725 Y158.814 E6.54871
G1 X181.229 Y160.072 E6.65291
G1 X180.668 Y161.303 E6.75711
G1 X180.122 Y162.359 E6.84868
G1 X179.514 Y163.411 E6.94222
G1 X178.873 Y164.412 E7.03378
G1 X178.085 Y165.516 E7.13825
G1 X177.163 Y166.66 E7.25137
;WIDTH:1.04647
G1 X177.079 Y166.721 E7.25976
;WIDTH:1.09295
G1 X176.995 Y166.781 E7.26854
;WIDTH:1.13942
G1 X176.911 Y166.842 E7.27772
;WIDTH:1.18589
G1 X176.827 Y166.903 E7.2873
;WIDTH:1.23237
G1 X176.743 Y166.964 E7.29727
;WIDTH:1.27884
G1 X176.659 Y167.025 E7.30764
;WIDTH:1.32531
G1 X176.575 Y167.086 E7.31841
;WIDTH:1.37179
G1 X176.491 Y167.146 E7.32958
G1 X176.006 Y167.701 E7.40887
;WIDTH:1.32558
G1 X175.338 Y168.381 E7.50788
;WIDTH:1.3523
G1 X174.916 Y168.751 E7.56739
;WIDTH:1.38401
G1 X174.494 Y169.122 E7.62836
G1 X174.429 Y169.209 E7.64022
;WIDTH:1.33601
G1 X174.363 Y169.297 E7.65165
;WIDTH:1.28801
G1 X174.298 Y169.384 E7.66264
;WIDTH:1.24001
G1 X174.232 Y169.472 E7.67321
;WIDTH:1.19201
G1 X174.167 Y169.559 E7.68334
;WIDTH:1.144
G1 X174.102 Y169.646 E7.69304
;WIDTH:1.096
G1 X174.036 Y169.734 E7.70231
;WIDTH:1.048
G1 X173.971 Y169.821 E7.71115
;WIDTH:1
G1 X173.723 Y170.033 E7.73631
G1 X172.649 Y170.857 E7.84051
G1 X171.671 Y171.533 E7.93207
G1 X170.645 Y172.175 E8.0253
G1 X169.46 Y172.835 E8.12979
G1 X168.397 Y173.361 E8.22111
G1 X167.153 Y173.902 E8.32558
G1 X166.041 Y174.322 E8.41716
G1 X164.886 Y174.697 E8.51067
G1 X163.74 Y175.011 E8.60224
G1 X162.419 Y175.304 E8.70644
G1 X161.084 Y175.528 E8.81066
G1 X160.005 Y175.654 E8.89435
;WIDTH:1.04189
G1 X159.752 Y175.652 E8.9147
;WIDTH:1.08377
G1 X159.499 Y175.651 E8.93592
;WIDTH:1.13203
G1 X159.395 Y175.633 E8.94519
;WIDTH:1.18029
G1 X159.291 Y175.616 E8.95489
;WIDTH:1.22855
G1 X159.187 Y175.599 E8.965
;WIDTH:1.27681
G1 X159.083 Y175.582 E8.97553
;WIDTH:1.32506
G1 X158.979 Y175.565 E8.98648
;WIDTH:1.37332
G1 X158.874 Y175.548 E8.99785
G1 X158.357 Y175.591 E9.05379
;WIDTH:1.33652
G1 X157.781 Y175.613 E9.11416
;WIDTH:1.31346
G1 X157.175 Y175.616 E9.17648
;WIDTH:1.3347
G1 X156.661 Y175.59 E9.23033
;WIDTH:1.37486
G1 X156.14 Y175.554 E9.28666
G1 X156.047 Y175.568 E9.29678
;WIDTH:1.33184
G1 X155.954 Y175.582 E9.30656
;WIDTH:1.28881
G1 X155.862 Y175.597 E9.31602
;WIDTH:1.24578
G1 X155.769 Y175.611 E9.32514
;WIDTH:1.20276
G1 X155.676 Y175.625 E9.33393
;WIDTH:1.15973
G1 X155.584 Y175.639 E9.34239
;WIDTH:1.1167
G1 X155.491 Y175.654 E9.35051
;WIDTH:1.07368
G1 X155.148 Y175.645 E9.37899
;WIDTH:1.03684
G1 X154.806 Y175.637 E9.40643
;WIDTH:1
G1 X153.464 Y175.46 E9.51064
G1 X152.294 Y175.247 E9.60221
G1 X151.115 Y174.975 E9.69544
G1 X149.81 Y174.604 E9.79992
G1 X148.686 Y174.225 E9.89126
G1 X147.428 Y173.729 E9.99545
G1 X146.197 Y173.168 E10.09966
G1 X145.14 Y172.622 E10.19123
G1 X144.089 Y172.014 E10.28476
G1 X143.088 Y171.373 E10.37632
G1 X141.984 Y170.585 E10.48079
G1 X141.132 Y169.911 E10.56447
;WIDTH:1.04908
G1 X141.02 Y169.783 E10.57823
;WIDTH:1.09817
G1 X140.908 Y169.655 E10.59267
;WIDTH:1.14725
G1 X140.797 Y169.528 E10.6078
;WIDTH:1.19443
G1 X140.739 Y169.445 E10.61715
;WIDTH:1.24161
G1 X140.681 Y169.363 E10.6269
;WIDTH:1.28879
G1 X140.623 Y169.281 E10.63703
;WIDTH:1.33598
G1 X140.565 Y169.199 E10.64756
;WIDTH:1.38316
G1 X140.506 Y169.117 E10.65847
G1 X140.407 Y169.037 E10.67235
;WIDTH:1.37332
G1 X140.01 Y168.702 E10.72829
;WIDTH:1.33652
G1 X139.592 Y168.314 E10.78803
;WIDTH:1.3132
G1 X139.163 Y167.89 E10.85
;WIDTH:1.334
G1 X138.821 Y167.512 E10.90327
;WIDTH:1.37469
G1 X138.472 Y167.111 E10.96068
G1 X138.388 Y167.049 E10.97197
;WIDTH:1.32785
G1 X138.304 Y166.986 E10.98285
;WIDTH:1.28101
G1 X138.22 Y166.924 E10.99333
;WIDTH:1.23418
G1 X138.136 Y166.861 E11.00341
;WIDTH:1.18734
G1 X138.052 Y166.799 E11.01308
;WIDTH:1.14051
G1 X137.968 Y166.737 E11.02235
;WIDTH:1.09367
G1 X137.883 Y166.674 E11.03122
;WIDTH:1.04684
G1 X137.799 Y166.612 E11.03969
;WIDTH:1
G1 X137.467 Y166.223 E11.07914
G1 X136.643 Y165.149 E11.18334
G1 X135.967 Y164.171 E11.2749
G1 X135.325 Y163.145 E11.36814
G1 X134.665 Y161.96 E11.47262
G1 X134.139 Y160.897 E11.56395
G1 X133.598 Y159.653 E11.66842
G1 X133.178 Y158.541 E11.76
G1 X132.803 Y157.386 E11.85351
G1 X132.489 Y156.24 E11.94507
G1 X132.196 Y154.919 E12.04928
G1 X131.972 Y153.584 E12.15349
G1 X131.838 Y152.43 E12.24297
;WIDTH:1.04027
G1 X131.85 Y152.319 E12.25196
;WIDTH:1.08055
G1 X131.862 Y152.208 E12.26132
;WIDTH:1.12082
G1 X131.874 Y152.097 E12.27105
;WIDTH:1.16439
G1 X131.889 Y151.992 E12.28059
;WIDTH:1.20795
G1 X131.904 Y151.888 E12.29051
;WIDTH:1.25152
G1 X131.919 Y151.784 E12.30081
;WIDTH:1.29508
G1 X131.934 Y151.679 E12.31149
;WIDTH:1.33865
G1 X131.949 Y151.575 E12.32254
;WIDTH:1.38222
G1 X131.963 Y151.471 E12.33397
G1 X131.91 Y150.899 E12.39627
;WIDTH:1.33853
G1 X131.889 Y150.377 E12.45105
;WIDTH:1.31491
G1 X131.879 Y149.844 E12.50598
;WIDTH:1.31338
G1 X131.88 Y149.829 E12.50747
;WIDTH:1.32931
G1 X131.904 Y149.257 E12.56708
;WIDTH:1.3725
G1 X131.944 Y148.648 E12.6328
G1 X131.93 Y148.555 E12.64292
;WIDTH:1.32967
G1 X131.916 Y148.462 E12.6527
;WIDTH:1.28685
G1 X131.902 Y148.369 E12.66215
;WIDTH:1.24402
G1 X131.888 Y148.277 E12.67127
;WIDTH:1.2012
G1 X131.874 Y148.184 E12.68006
;WIDTH:1.15837
G1 X131.859 Y148.091 E12.68852
;WIDTH:1.11555
G1 X131.861 Y147.829 E12.71118
;WIDTH:1.07703
G1 X131.862 Y147.567 E12.733
;WIDTH:1.03852
G1 X131.863 Y147.306 E12.75399
;WIDTH:1
G1 X132.04 Y145.964 E12.8582
G1 X132.253 Y144.795 E12.94976
G1 X132.525 Y143.615 E13.043
G1 X132.896 Y142.31 E13.14749
G1 X133.275 Y141.187 E13.23882
G1 X133.771 Y139.928 E13.34302
G1 X134.332 Y138.697 E13.44722
G1 X134.878 Y137.641 E13.53878
G1 X135.486 Y136.589 E13.63232
G1 X136.127 Y135.588 E13.72388
G1 X136.915 Y134.484 E13.82835
G1 X137.635 Y133.572 E13.91784
;WIDTH:1.03649
G1 X137.716 Y133.507 E13.92615
;WIDTH:1.07298
G1 X137.797 Y133.442 E13.93478
;WIDTH:1.10947
G1 X137.878 Y133.376 E13.94372
;WIDTH:1.15493
G1 X137.965 Y133.311 E13.95354
;WIDTH:1.20039
G1 X138.053 Y133.245 E13.96376
;WIDTH:1.24585
G1 X138.14 Y133.18 E13.9744
;WIDTH:1.29131
G1 X138.228 Y133.114 E13.98544
;WIDTH:1.33677
G1 X138.315 Y133.048 E13.99689
;WIDTH:1.38223
G1 X138.403 Y132.983 E14.00876
G1 X138.769 Y132.541 E14.07099
;WIDTH:1.3386
G1 X139.138 Y132.142 E14.12801
;WIDTH:1.31495
G1 X139.611 Y131.662 E14.19734
;WIDTH:1.34683
G1 X140.093 Y131.23 E14.26571
;WIDTH:1.37899
G1 X140.378 Y130.996 E14.30558
;WIDTH:1.41115
G1 X140.662 Y130.762 E14.34642
G1 X140.731 Y130.674 E14.35881
;WIDTH:1.36546
G1 X140.799 Y130.586 E14.37077
;WIDTH:1.31978
G1 X140.867 Y130.497 E14.38232
;WIDTH:1.2741
G1 X140.936 Y130.409 E14.39345
;WIDTH:1.22842
G1 X141.004 Y130.32 E14.40416
;WIDTH:1.18273
G1 X141.072 Y130.232 E14.41444
;WIDTH:1.13705
G1 X141.141 Y130.144 E14.42431
;WIDTH:1.09137
G1 X141.209 Y130.055 E14.43376
;WIDTH:1.04568
G1 X141.277 Y129.967 E14.44278
;WIDTH:1
G1 X142.351 Y129.143 E14.54698
G1 X143.329 Y128.467 E14.63855
G1 X144.355 Y127.825 E14.73178
G1 X145.54 Y127.165 E14.83626
G1 X146.603 Y126.639 E14.92759
G1 X147.847 Y126.098 E15.03206
G1 X148.959 Y125.678 E15.12364
G1 X150.114 Y125.303 E15.21715
G1 X151.26 Y124.989 E15.30872
G1 X151.913 Y124.844 E15.36018
G1 X151.827 Y123.904 F9000
G1 F750
G1 X152.403 Y123.777 E15.40556
G1 X153.784 Y123.546 E15.51345
G1 X155.008 Y123.403 E15.60833
G1 X156.407 Y123.309 E15.71637
G1 X157.663 Y123.287 E15.81307
G1 X158.896 Y123.323 E15.90811
G1 X160.292 Y123.432 E16.01597
G1 X161.681 Y123.615 E16.12385
