; generated by PrusaSlicer 2.5.0+linux-x64-GTK3 on 2023-10-09 at 21:14:05 UTC

; 

; external perimeters extrusion width = 1.00mm
; perimeters extrusion width = 1.00mm
; infill extrusion width = 1.00mm
; solid infill extrusion width = 1.00mm
; top infill extrusion width = 1.00mm
; support material extrusion width = 1.00mm
; first layer extrusion width = 1.00mm

M107
;TYPE:Custom
M190 S70 ;Heat up bed
M140 S0 ;Stop bed heater
G28 ;Home
G29 ;Autolevel
G1 X0 Y0 Z5 F6000.000
M140 S70 ;Turn bed back on
M106 S255 ;Turn on fans
M109 S225  ;Set extruder temp
G21 ; set units to millimeters
G90 ; use absolute coordinates
M82 ; use absolute distances for extrusion
G92 E0
; Filament gcode
M106 S255
;LAYER_CHANGE
;Z:0.3
;HEIGHT:0.3
G1 E-2 F1800
G92 E0
G1 Z.1 F9000
G1 X126.955 Y122.077
G1 E2 F1800
;TYPE:Skirt/Brim
;WIDTH:1
G1 F900
G1 X132.019 Y117.013 E2.55156
G1 X135.349 Y114.67 E2.86517
G1 X140.531 Y112.237 E3.30603
G1 X143.176 Y111.157 E3.52609
G1 X144.854 Y110.576 E3.66284
G1 X148.438 Y109.607 E3.94879
G1 X151.128 Y109.092 E4.15976
G1 X154.767 Y108.688 E4.44174
G1 X158.256 Y108.609 E4.71051
G1 X161.671 Y108.808 E4.97399
G1 X165.175 Y109.301 E5.24652
G1 X167.716 Y109.877 E5.44721
G1 X169.85 Y110.485 E5.61809
G1 X173.824 Y111.924 E5.94361
G1 X177.675 Y113.849 E6.2752
G1 X179.938 Y115.206 E6.47844
G1 X181.452 Y116.226 E6.61906
G1 X184.517 Y118.634 E6.91926
G1 X186.316 Y120.281 E7.10714
G1 X188.01 Y122.016 E7.29387
G1 X190.656 Y125.207 E7.61315
G1 X191.882 Y126.935 E7.77632
G1 X193.094 Y128.851 E7.9509
G1 X194.974 Y132.376 E8.25862
G1 X196.549 Y136.224 E8.57888
G1 X197.757 Y140.227 E8.90092
G1 X198.413 Y143.672 E9.17098
G1 X198.757 Y146.492 E9.38981
G1 X198.867 Y148.3 E9.52932
G1 X198.869 Y152.293 E9.83686
G1 X198.361 Y158.396 E10.30853
G1 X197.409 Y162.115 E10.60419
G1 X195.241 Y167.021 E11.0173
G1 X193.622 Y170.211 E11.29281
G1 X192.644 Y171.884 E11.44208
G1 X191.517 Y173.598 E11.60006
G1 X189.138 Y176.716 E11.90211
G1 X187.961 Y178.007 E12.03668
G1 X182.902 Y183.066 E12.58768
G1 X179.491 Y185.446 E12.90804
G1 X174.023 Y187.954 E13.37141
G1 X170.146 Y189.424 E13.69071
G1 X166.507 Y190.401 E13.98095
G1 X163.649 Y190.934 E14.20483
G1 X160.183 Y191.316 E14.47343
G1 X156.865 Y191.396 E14.72902
G1 X153.47 Y191.204 E14.99092
G1 X149.799 Y190.693 E15.27639
G1 X147.284 Y190.123 E15.47501
G1 X145.15 Y189.515 E15.6459
G1 X141.178 Y188.05 E15.972
G1 X139.211 Y187.144 E16.13877
G1 X137.325 Y186.151 E16.30292
G1 X134.179 Y184.21 E16.58762
G1 X132.458 Y182.971 E16.75099
G1 X130.746 Y181.591 E16.92033
G1 X127.859 Y178.907 E17.22396
G1 X126.596 Y177.552 E17.36659
G1 X125.109 Y175.786 E17.54438
G1 X122.969 Y172.844 E17.82461
G1 X121.737 Y170.857 E18.00467
G1 X120.749 Y169.063 E18.16242
G1 X119.659 Y166.797 E18.35606
G1 X119.018 Y165.271 E18.48358
G1 X118.172 Y162.942 E18.6744
G1 X117.669 Y161.275 E18.80852
G1 X116.829 Y157.747 E19.08781
G1 X116.424 Y155.168 E19.28892
G1 X116.242 Y153.454 E19.42167
G1 X116.104 Y149.375 E19.73598
G1 X116.355 Y145.419 E20.0413
G1 X116.96 Y141.593 E20.3396
G1 X118.182 Y136.111 E20.77223
G1 X119.672 Y132.454 E21.07639
G1 X123.088 Y126.979 E21.57339
G1 X124.97 Y124.388 E21.82004
G1 X126.877 Y122.168 E22.04546
G1 X127.585 Y122.775 F9000
G1 F900
G1 X132.681 Y117.674 E22.60075
G1 X135.749 Y115.516 E22.88965
G1 X140.915 Y113.09 E23.32925
G1 X143.527 Y112.024 E23.54652
G1 X145.131 Y111.469 E23.67725
G1 X148.664 Y110.515 E23.95912
G1 X151.27 Y110.017 E24.16348
G1 X154.82 Y109.622 E24.43855
G1 X158.228 Y109.544 E24.70114
G1 X161.585 Y109.74 E24.96012
G1 X164.976 Y110.215 E25.22384
G1 X167.493 Y110.786 E25.42265
G1 X169.582 Y111.381 E25.58991
G1 X173.427 Y112.772 E25.90486
G1 X177.226 Y114.67 E26.23193
G1 X180.505 Y116.704 E26.52911
G1 X183.604 Y119.086 E26.83014
G1 X186.465 Y121.74 E27.13069
G1 X187.712 Y123.077 E27.27149
G1 X189.156 Y124.793 E27.44423
G1 X191.325 Y127.786 E27.72892
G1 X192.294 Y129.336 E27.86971
G1 X193.419 Y131.365 E28.04844
G1 X194.12 Y132.76 E28.16865
G1 X194.977 Y134.733 E28.33429
G1 X195.877 Y137.144 E28.53257
G1 X196.575 Y139.385 E28.71328
G1 X197.251 Y142.419 E28.95272
G1 X197.826 Y146.586 E29.27667
G1 X197.965 Y150.423 E29.57239
G1 X197.893 Y153.057 E29.77539
G1 X197.429 Y158.314 E30.1818
G1 X196.552 Y161.74 E30.45416
G1 X194.176 Y167.074 E30.90394
G1 X192.789 Y169.785 E31.13844
G1 X191.859 Y171.375 E31.28037
G1 X190.757 Y173.053 E31.43491
G1 X188.925 Y175.511 E31.67105
G1 X187.299 Y177.345 E31.85984
G1 X182.241 Y182.404 E32.41083
G1 X179.099 Y184.597 E32.70595
G1 X174.085 Y186.911 E33.13122
G1 X171.46 Y187.976 E33.34938
G1 X169.869 Y188.531 E33.47919
G1 X166.285 Y189.492 E33.76496
G1 X163.525 Y190.007 E33.98121
G1 X160.113 Y190.383 E34.24557
G1 X156.895 Y190.461 E34.49352
G1 X153.544 Y190.271 E34.75198
G1 X149.998 Y189.779 E35.02778
G1 X147.506 Y189.214 E35.22452
G1 X145.418 Y188.619 E35.3918
G1 X141.555 Y187.193 E35.70894
G1 X139.632 Y186.309 E35.87193
G1 X137.774 Y185.33 E36.03371
G1 X134.699 Y183.432 E36.31198
G1 X133.03 Y182.231 E36.47033
G1 X131.344 Y180.872 E36.63712
G1 X128.535 Y178.26 E36.93261
G1 X127.288 Y176.923 E37.07335
G1 X125.844 Y175.207 E37.24611
G1 X123.75 Y172.329 E37.52024
G1 X122.552 Y170.399 E37.69518
G1 X121.58 Y168.635 E37.85032
G1 X119.893 Y164.939 E38.16321
G1 X119.058 Y162.641 E38.35152
G1 X118.567 Y161.011 E38.48263
G1 X117.749 Y157.581 E38.75424
G1 X117.35 Y155.038 E38.95251
G1 X117.175 Y153.384 E39.08056
G1 X117.039 Y149.406 E39.38719
G1 X117.282 Y145.54 E39.68548
G1 X117.874 Y141.792 E39.97775
G1 X119.095 Y136.315 E40.40994
G1 X120.468 Y132.946 E40.69014
G1 X123.87 Y127.492 E41.18524
G1 X125.7 Y124.973 E41.42497
G1 X127.507 Y122.866 E41.6388
;WIPE_START
G1 F7200
G1 X132.681 Y117.674 E39.89805
G1 X133.229 Y117.288 E39.7388
;WIPE_END
G1 E39.6388 F1800
G92 E0
G1 X140.413 Y125.407 F9000
G1 E2 F1800
;TYPE:Support material interface
G1 F900
G1 X135.212 Y130.625 E2.56747
G1 X134.712 Y131.215 E2.62701
G1 X133.762 Y132.432 E2.74594
G1 X133.016 Y133.487 E2.8455
G1 X132.593 Y134.132 E2.90489
G1 X131.962 Y135.181 E2.99912
G1 X142.688 Y124.455 E4.16741
G1 X143.637 Y123.924 E4.25118
G1 X144.323 Y123.571 E4.31055
G1 X145.406 Y123.06 E4.40281
G1 X129.768 Y138.699 E6.10616
;WIPE_START
G1 F7200
G1 X135.425 Y133.042 E4.20616
;WIPE_END
G1 E4.10616 F1800
G92 E0
G1 X174.508 Y174.672 F9000
G1 E2 F1800
G1 F900
G1 X179.567 Y169.613 E2.551
G1 X180.279 Y168.814 E2.63343
G1 X181.084 Y167.775 E2.73468
G1 X181.874 Y166.674 E2.83901
G1 X182.682 Y165.428 E2.95339
G1 X183.054 Y164.802 E3.00948
G1 X172.311 Y175.545 E4.1796
G1 X171.363 Y176.076 E4.26334
G1 X170.677 Y176.429 E4.32272
G1 X169.593 Y176.94 E4.41499
G1 X184.441 Y162.092 E6.03224
G1 X184.875 Y161.142 E6.11263
G1 X185.327 Y159.883 E6.21568
G1 X167.38 Y177.83 E8.17045
G1 X165.888 Y178.316 E8.29135
G1 X165.446 Y178.441 E8.32667
G1 X170.956 Y172.931 E8.92677
G1 X169.968 Y173.489 E9.01418
G1 X168.756 Y174.093 E9.11845
G1 X168.249 Y174.315 E9.16105
G1 X163.697 Y178.867 E9.65686
G1 X163.072 Y179.002 E9.7061
G1 X162.073 Y179.168 E9.78413
G1 X166.068 Y175.173 E10.21925
G1 X164.852 Y175.556 E10.31747
G1 X164.181 Y175.737 E10.37098
G1 X160.545 Y179.372 E10.76697
G1 X159.108 Y179.487 E10.87802
G1 X162.473 Y176.122 E11.24452
G1 X161.22 Y176.331 E11.34233
G1 X160.903 Y176.369 E11.36695
G1 X157.747 Y179.524 E11.7107
G1 X157.242 Y179.531 E11.74954
G1 X156.442 Y179.506 E11.81119
G1 X159.432 Y176.516 E12.13686
G1 X158.447 Y176.576 E12.21286
G1 X158.044 Y176.58 E12.2439
G1 X155.192 Y179.432 E12.55454
G1 X154.413 Y179.37 E12.61478
G1 X153.986 Y179.316 E12.64791
G1 X156.726 Y176.576 E12.94633
G1 X155.467 Y176.511 E13.04341
G1 X152.824 Y179.154 E13.33127
G1 X152.582 Y179.111 E13.35025
G1 X152.318 Y179.092 E13.37063
G1 X151.698 Y178.958 E13.41951
G1 X154.261 Y176.395 E13.69868
G1 X153.109 Y176.223 E13.78836
G1 X150.616 Y178.716 E14.05992
G1 X149.565 Y178.444 E14.14353
G1 X151.999 Y176.01 E14.4087
G1 X151.499 Y175.907 E14.44802
G1 X150.927 Y175.759 E14.49355
G1 X148.546 Y178.14 E14.75289
G1 X147.561 Y177.802 E14.83311
G1 X149.888 Y175.474 E15.08663
G1 X148.882 Y175.157 E15.16787
G1 X146.601 Y177.439 E15.41639
G1 X145.663 Y177.053 E15.49448
G1 X147.918 Y174.799 E15.74006
G1 X146.975 Y174.418 E15.81834
G1 X144.755 Y176.638 E16.06019
G1 X143.871 Y176.199 E16.13622
G1 X146.065 Y174.005 E16.37517
G1 X145.186 Y173.56 E16.451
G1 X143.015 Y175.732 E16.6875
G1 X142.179 Y175.244 E16.76202
G1 X144.329 Y173.095 E16.99614
G1 X143.496 Y172.604 E17.07057
G1 X141.366 Y174.735 E17.30259
G1 X140.579 Y174.199 E17.37594
G1 X142.696 Y172.081 E17.60655
G1 X141.913 Y171.541 E17.67982
G1 X139.809 Y173.645 E17.90894
G1 X139.725 Y173.584 E17.91691
G1 X139.062 Y173.069 E17.9816
G1 X141.16 Y170.971 E18.21006
G1 X140.423 Y170.385 E18.28259
G1 X138.34 Y172.468 E18.50943
G1 X137.636 Y171.848 E18.58163
G1 X139.72 Y169.765 E18.80861
G1 X139.035 Y169.126 E18.88072
G1 X136.958 Y171.204 E19.10699
G1 X136.291 Y170.548 E19.17906
G1 X138.368 Y168.47 E19.40533
G1 X137.73 Y167.785 E19.47743
G1 X135.651 Y169.865 E19.70392
G1 X135.034 Y169.158 E19.77615
G1 X137.12 Y167.072 E20.00337
G1 X136.529 Y166.34 E20.07584
G1 X134.432 Y168.437 E20.30426
G1 X133.855 Y167.69 E20.37692
G1 X135.957 Y165.589 E20.60578
G1 X135.418 Y164.805 E20.67907
G1 X133.29 Y166.932 E20.91077
G1 X132.768 Y166.131 E20.98441
G1 X134.897 Y164.003 E21.21626
G1 X134.407 Y163.169 E21.2907
G1 X132.259 Y165.318 E21.5247
G1 X131.771 Y164.482 E21.59922
G1 X133.936 Y162.317 E21.83499
G1 X133.496 Y161.434 E21.91098
G1 X131.302 Y163.627 E22.14987
G1 X131.071 Y163.177 E22.18886
G1 X130.862 Y162.745 E22.22585
G1 X133.086 Y160.521 E22.4681
G1 X132.701 Y159.582 E22.54621
G1 X130.445 Y161.838 E22.79193
G1 X130.119 Y161.065 E22.85659
G1 X130.058 Y160.903 E22.86993
G1 X132.343 Y158.618 E23.11885
G1 X132.026 Y157.612 E23.20009
G1 X129.694 Y159.943 E23.45405
G1 X129.36 Y158.954 E23.53445
G1 X131.736 Y156.578 E23.79324
G1 X131.49 Y155.501 E23.87835
G1 X129.06 Y157.931 E24.14306
G1 X128.784 Y156.884 E24.22648
G1 X131.28 Y154.387 E24.49842
G1 X131.169 Y153.72 E24.55053
G1 X131.112 Y153.232 E24.58834
G1 X128.545 Y155.8 E24.86799
G1 X128.343 Y154.679 E24.95573
G1 X130.99 Y152.031 E25.24413
G1 X130.922 Y150.777 E25.34088
G1 X128.18 Y153.518 E25.63951
G1 X128.061 Y152.314 E25.73271
G1 X130.914 Y149.461 E26.04348
G1 X130.978 Y148.074 E26.15046
G1 X127.987 Y151.065 E26.47624
G1 X127.969 Y149.76 E26.57676
G1 X131.129 Y146.6 E26.9209
G1 X131.308 Y145.401 E27.01426
G1 X131.384 Y145.021 E27.04409
G1 X128.013 Y148.392 E27.41122
G1 X128.126 Y146.956 E27.52214
G1 X131.771 Y143.311 E27.91916
G1 X131.943 Y142.652 E27.97167
G1 X132.327 Y141.432 E28.07015
G1 X128.325 Y145.434 E28.5061
G1 X128.416 Y144.872 E28.55
G1 X128.626 Y143.81 E28.63338
G1 X133.172 Y139.264 E29.1285
G1 X133.608 Y138.322 E29.20845
G1 X134.232 Y137.124 E29.31247
G1 X134.578 Y136.535 E29.36515
G1 X129.059 Y142.054 E29.96635
G1 X129.334 Y141.122 E30.04118
G1 X129.682 Y140.108 E30.12379
G1 X147.629 Y122.161 E32.07859
G1 X149.11 Y121.685 E32.19845
G1 X149.548 Y121.565 E32.23335
G1 X144.044 Y127.069 E32.83283
G1 X145.032 Y126.511 E32.92027
G1 X146.244 Y125.907 E33.02455
G1 X146.751 Y125.685 E33.06712
G1 X151.31 Y121.126 E33.56378
G1 X151.865 Y121.01 E33.60742
G1 X152.934 Y120.825 E33.69096
G1 X148.932 Y124.827 E34.12685
G1 X150.148 Y124.444 E34.22508
G1 X150.819 Y124.263 E34.27858
G1 X154.453 Y120.629 E34.67438
G1 X155.892 Y120.514 E34.78553
G1 X152.527 Y123.878 E35.15197
G1 X153.78 Y123.669 E35.24979
G1 X154.097 Y123.632 E35.27439
G1 X157.272 Y120.456 E35.62023
G1 X158.558 Y120.494 E35.71929
G1 X155.568 Y123.484 E36.045
G1 X156.553 Y123.424 E36.12101
G1 X156.956 Y123.42 E36.15204
G1 X159.816 Y120.559 E36.46364
G1 X161.014 Y120.684 E36.55641
G1 X158.274 Y123.424 E36.85489
G1 X159.533 Y123.489 E36.95197
G1 X162.178 Y120.843 E37.24012
G1 X162.656 Y120.902 E37.27718
G1 X163.302 Y121.042 E37.32813
G1 X160.739 Y123.605 E37.60731
G1 X161.891 Y123.777 E37.69698
G1 X164.384 Y121.284 E37.96855
G1 X165.435 Y121.556 E38.05216
G1 X163.001 Y123.99 E38.31732
G1 X163.501 Y124.093 E38.35666
G1 X164.073 Y124.241 E38.40217
G1 X166.454 Y121.86 E38.66152
G1 X167.439 Y122.198 E38.74174
G1 X165.112 Y124.526 E38.99526
G1 X166.118 Y124.843 E39.0765
G1 X168.399 Y122.561 E39.32502
G1 X168.798 Y122.68 E39.35708
G1 X169.347 Y122.937 E39.40374
G1 X167.082 Y125.201 E39.65038
G1 X168.025 Y125.582 E39.72865
G1 X170.249 Y123.357 E39.97097
G1 X171.129 Y123.801 E40.04685
G1 X168.935 Y125.995 E40.28581
G1 X169.814 Y126.439 E40.36164
G1 X171.985 Y124.268 E40.59814
G1 X172.821 Y124.756 E40.67266
G1 X170.671 Y126.905 E40.90678
G1 X171.504 Y127.396 E40.98121
G1 X173.634 Y125.265 E41.21323
G1 X174.427 Y125.795 E41.2867
G1 X172.304 Y127.919 E41.51797
G1 X173.087 Y128.459 E41.59123
G1 X175.19 Y126.355 E41.82033
G1 X175.933 Y126.936 E41.89293
G1 X173.84 Y129.029 E42.12091
G1 X174.577 Y129.615 E42.19343
G1 X176.659 Y127.533 E42.42023
G1 X177.362 Y128.153 E42.49243
G1 X175.28 Y130.235 E42.71921
G1 X175.965 Y130.873 E42.79131
G1 X178.043 Y128.795 E43.01771
G1 X178.565 Y129.302 E43.07378
G1 X178.709 Y129.452 E43.08978
G1 X176.632 Y131.53 E43.31605
G1 X177.27 Y132.215 E43.38816
G1 X179.349 Y130.135 E43.61464
G1 X179.617 Y130.43 E43.64529
G1 X179.966 Y130.842 E43.68688
G1 X177.88 Y132.928 E43.91411
G1 X178.471 Y133.66 E43.98658
G1 X180.568 Y131.563 E44.215
G1 X180.93 Y132.022 E44.26
G1 X181.144 Y132.31 E44.28766
G1 X179.043 Y134.411 E44.51652
G1 X179.582 Y135.195 E44.58981
G1 X181.697 Y133.081 E44.82012
G1 X182.234 Y133.867 E44.89344
G1 X180.103 Y135.997 E45.1255
G1 X180.593 Y136.831 E45.19995
G1 X182.744 Y134.679 E45.43427
G1 X183.229 Y135.518 E45.50885
G1 X181.064 Y137.683 E45.7447
G1 X181.504 Y138.566 E45.82068
G1 X183.698 Y136.372 E46.05958
G1 X184.147 Y137.246 E46.13524
G1 X181.914 Y139.479 E46.3785
G1 X182.299 Y140.418 E46.45661
G1 X184.558 Y138.159 E46.70267
G1 X184.942 Y139.097 E46.78079
G1 X182.657 Y141.382 E47.0297
G1 X182.974 Y142.388 E47.11094
G1 X185.306 Y140.057 E47.3649
G1 X185.446 Y140.427 E47.39539
G1 X185.64 Y141.046 E47.44534
G1 X183.264 Y143.422 E47.70412
G1 X183.51 Y144.499 E47.78923
G1 X185.954 Y142.055 E48.05538
G1 X186.131 Y142.627 E48.10144
G1 X186.166 Y142.9 E48.12268
G1 X186.216 Y143.116 E48.13975
G1 X183.72 Y145.613 E48.41169
G1 X183.831 Y146.28 E48.46381
G1 X183.888 Y146.767 E48.50161
G1 X186.455 Y144.2 E48.78126
G1 X186.657 Y145.321 E48.869
G1 X184.01 Y147.969 E49.15739
G1 X184.078 Y149.223 E49.25415
G1 X186.82 Y146.482 E49.55277
G1 X186.945 Y147.679 E49.64554
G1 X184.086 Y150.539 E49.95699
G1 X184.022 Y151.926 E50.06397
G1 X187.013 Y148.935 E50.38975
G1 X187.031 Y150.24 E50.49026
G1 X183.871 Y153.4 E50.8344
G1 X183.692 Y154.599 E50.92778
G1 X183.616 Y154.978 E50.95759
G1 X186.985 Y151.609 E51.32456
G1 X187 Y152.095 E51.36201
G1 X186.876 Y153.041 E51.4355
G1 X183.229 Y156.688 E51.83275
G1 X183.057 Y157.348 E51.88528
G1 X182.673 Y158.568 E51.98375
G1 X186.677 Y154.564 E52.41988
G1 X186.374 Y156.19 E52.54731
G1 X181.828 Y160.736 E53.04242
G1 X181.392 Y161.678 E53.12239
G1 X180.768 Y162.876 E53.22642
G1 X180.422 Y163.465 E53.27906
G1 X186.536 Y157.351 E53.94498
;WIPE_START
G1 F7200
G1 X180.879 Y163.008 E52.04498
;WIPE_END
G1 E51.94498 F1800
G92 E0
G1 X177.995 Y158.397 F9000
G1 E2 F1800
;TYPE:Perimeter
;WIDTH:1
G1 F750
G1 X177.547 Y159.426 E2.08643
G1 X177.023 Y160.47 E2.17641
G1 X176.49 Y161.408 E2.25951
G1 X175.865 Y162.389 E2.34912
G1 X175.236 Y163.274 E2.43269
G1 X174.67 Y163.998 E2.50346
G1 X173.964 Y164.822 E2.58704
G1 X173.165 Y165.665 E2.67651
G1 X172.322 Y166.464 E2.76598
G1 X171.503 Y167.166 E2.84908
G1 X170.578 Y167.88 E2.93904
G1 X169.827 Y168.406 E3.00966
G1 X168.911 Y168.988 E3.09322
G1 X167.9 Y169.56 E3.1827
G1 X166.861 Y170.078 E3.27216
G1 X165.872 Y170.51 E3.35527
G1 X164.779 Y170.923 E3.44524
G1 X163.907 Y171.206 E3.51584
G1 X162.861 Y171.495 E3.59942
G1 X161.727 Y171.746 E3.68889
G1 X160.581 Y171.938 E3.77836
G1 X159.503 Y172.062 E3.86192
G1 X158.586 Y172.126 E3.93271
G1 X157.5 Y172.153 E4.01642
G1 X156.414 Y172.126 E4.10012
G1 X155.497 Y172.062 E4.17091
G1 X154.419 Y171.938 E4.25448
G1 X153.273 Y171.746 E4.34395
G1 X152.139 Y171.495 E4.43342
G1 X151.093 Y171.206 E4.51699
