; generated by PrusaSlicer 2.5.0+linux-x64-GTK3 on 2023-09-28 at 17:59:55 UTC

; 

; external perimeters extrusion width = 1.00mm
; perimeters extrusion width = 1.00mm
; infill extrusion width = 1.00mm
; solid infill extrusion width = 1.00mm
; top infill extrusion width = 1.00mm
; support material extrusion width = 1.00mm
; first layer extrusion width = 1.00mm

M107
;TYPE:Custom
M190 S70 ;Heat up bed
M140 S0 ;Stop bed heater
G28 ;Home
G29 ;Autolevel
G1 X0 Y0 Z5 F6000.000
M140 S70 ;Turn bed back on
M106 S255 ;Turn on fans
M109 S225  ;Set extruder temp
G21 ; set units to millimeters
G90 ; use absolute coordinates
M82 ; use absolute distances for extrusion
G92 E0
; Filament gcode
M106 S255
;LAYER_CHANGE
;Z:0.3
;HEIGHT:0.3
G1 E-2 F1800
G92 E0
G1 Z.5 F9000
G1 X128.302 Y122.636
G1 E2 F1800
;TYPE:Skirt/Brim
;WIDTH:1
G1 F900
G1 X130.136 Y120.802 E2.19981
G1 X131.526 Y119.556 E2.34355
G1 X133.14 Y118.254 E2.50329
G1 X134.816 Y117.032 E2.66304
G1 X136.379 Y116.011 E2.80679
G1 X138.625 Y114.714 E3.00659
G1 X140.291 Y113.871 E3.15034
G1 X143.57 Y112.484 E3.42456
G1 X147.46 Y111.262 E3.73863
G1 X150.806 Y110.545 E4.00218
G1 X154.339 Y110.107 E4.2764
G1 X156.203 Y110.004 E4.42015
G1 X158.797 Y110.004 E4.61995
G1 X160.661 Y110.107 E4.7637
G1 X162.723 Y110.327 E4.92345
G1 X164.772 Y110.648 E5.08319
G1 X166.599 Y111.031 E5.22693
G1 X169.105 Y111.703 E5.42674
G1 X170.878 Y112.284 E5.57049
G1 X174.114 Y113.594 E5.83937
G1 X177.285 Y115.214 E6.1136
G1 X180.722 Y117.409 E6.42766
G1 X183.474 Y119.556 E6.69654
G1 X184.864 Y120.802 E6.84029
G1 X186.698 Y122.636 E7.04009
G1 X187.944 Y124.026 E7.18384
G1 X189.246 Y125.64 E7.34358
G1 X190.468 Y127.316 E7.50333
G1 X191.489 Y128.879 E7.64708
G1 X192.786 Y131.125 E7.84688
G1 X193.629 Y132.791 E7.99063
G1 X195.016 Y136.07 E8.26485
G1 X196.238 Y139.96 E8.57892
G1 X196.955 Y143.306 E8.84247
G1 X197.393 Y146.839 E9.11669
G1 X197.496 Y148.703 E9.26044
G1 X197.496 Y151.297 E9.46024
G1 X197.393 Y153.161 E9.60399
G1 X197.173 Y155.223 E9.76374
G1 X196.852 Y157.272 E9.92348
G1 X196.469 Y159.099 E10.06722
G1 X195.797 Y161.605 E10.26703
G1 X195.216 Y163.378 E10.41078
G1 X193.906 Y166.614 E10.67966
G1 X192.286 Y169.785 E10.95389
G1 X190.091 Y173.222 E11.26795
G1 X187.944 Y175.974 E11.53683
G1 X186.698 Y177.364 E11.68058
G1 X184.864 Y179.198 E11.88038
G1 X183.474 Y180.444 E12.02413
G1 X181.86 Y181.746 E12.18387
G1 X180.184 Y182.968 E12.34362
G1 X178.621 Y183.989 E12.48737
G1 X176.375 Y185.286 E12.68717
G1 X174.709 Y186.129 E12.83092
G1 X171.43 Y187.516 E13.10514
G1 X167.54 Y188.738 E13.41921
G1 X164.194 Y189.455 E13.68276
G1 X160.661 Y189.893 E13.95698
G1 X158.797 Y189.996 E14.10073
G1 X156.203 Y189.996 E14.30053
G1 X154.339 Y189.893 E14.44428
G1 X152.277 Y189.673 E14.60403
G1 X150.228 Y189.352 E14.76377
G1 X148.401 Y188.969 E14.90751
G1 X145.895 Y188.297 E15.10732
G1 X144.122 Y187.716 E15.25107
G1 X140.886 Y186.406 E15.51995
G1 X137.715 Y184.786 E15.79418
G1 X134.278 Y182.591 E16.10824
G1 X131.526 Y180.444 E16.37712
G1 X130.136 Y179.198 E16.52087
G1 X128.302 Y177.364 E16.72067
G1 X127.056 Y175.974 E16.86442
G1 X125.754 Y174.36 E17.02416
G1 X124.532 Y172.684 E17.18391
G1 X123.511 Y171.121 E17.32766
G1 X122.214 Y168.875 E17.52746
G1 X121.371 Y167.209 E17.67121
G1 X119.984 Y163.93 E17.94543
G1 X118.762 Y160.04 E18.2595
G1 X118.045 Y156.694 E18.52305
G1 X117.607 Y153.161 E18.79727
G1 X117.504 Y151.297 E18.94102
G1 X117.504 Y148.703 E19.14082
G1 X117.607 Y146.839 E19.28457
G1 X117.827 Y144.777 E19.44432
G1 X118.148 Y142.728 E19.60406
G1 X118.531 Y140.901 E19.7478
G1 X119.203 Y138.395 E19.94761
G1 X119.784 Y136.622 E20.09136
G1 X121.094 Y133.386 E20.36024
G1 X122.714 Y130.215 E20.63447
G1 X124.909 Y126.778 E20.94853
G1 X127.056 Y124.026 E21.21741
G1 X128.221 Y122.725 E21.35192
G1 X128.918 Y123.349 F9000
G1 F900
G1 X130.783 Y121.477 E21.55539
G1 X133.698 Y119.005 E21.84978
G1 X136.864 Y116.811 E22.14647
G1 X139.075 Y115.534 E22.34313
G1 X140.709 Y114.708 E22.48415
G1 X143.909 Y113.356 E22.75167
G1 X147.093 Y112.329 E23.00936
G1 X150.948 Y111.469 E23.31358
G1 X154.395 Y111.041 E23.58109
G1 X156.223 Y110.94 E23.72212
G1 X158.777 Y110.94 E23.91878
G1 X162.616 Y111.256 E24.21547
G1 X166.376 Y111.94 E24.50985
G1 X168.843 Y112.601 E24.70651
G1 X170.582 Y113.172 E24.84754
G1 X173.742 Y114.452 E25.11014
G1 X176.835 Y116.034 E25.37765
G1 X180.164 Y118.16 E25.68187
G1 X182.853 Y120.256 E25.94447
G1 X184.217 Y121.477 E26.08549
G1 X186.023 Y123.283 E26.28215
G1 X188.495 Y126.198 E26.57653
G1 X190.689 Y129.364 E26.87323
G1 X191.966 Y131.575 E27.06988
G1 X192.792 Y133.209 E27.21091
G1 X194.144 Y136.409 E27.47843
G1 X195.171 Y139.593 E27.73611
G1 X196.031 Y143.448 E28.04033
G1 X196.459 Y146.895 E28.30785
G1 X196.56 Y148.723 E28.44887
G1 X196.56 Y151.277 E28.64553
G1 X196.244 Y155.116 E28.94223
G1 X195.56 Y158.876 E29.2366
G1 X194.899 Y161.343 E29.43327
G1 X194.328 Y163.082 E29.57429
G1 X193.048 Y166.242 E29.83689
G1 X191.466 Y169.335 E30.10441
G1 X189.34 Y172.664 E30.40863
G1 X187.244 Y175.353 E30.67122
G1 X186.023 Y176.717 E30.81225
G1 X184.217 Y178.523 E31.00891
G1 X181.302 Y180.995 E31.30329
G1 X178.136 Y183.189 E31.59998
G1 X175.925 Y184.466 E31.79664
G1 X174.291 Y185.292 E31.93767
G1 X171.091 Y186.644 E32.20518
G1 X167.907 Y187.671 E32.46287
G1 X164.052 Y188.531 E32.76709
G1 X160.605 Y188.959 E33.03461
G1 X158.777 Y189.06 E33.17563
G1 X156.223 Y189.06 E33.37229
G1 X152.384 Y188.744 E33.66898
G1 X148.624 Y188.06 E33.96336
G1 X146.157 Y187.399 E34.16003
G1 X144.418 Y186.828 E34.30105
G1 X141.258 Y185.548 E34.56365
G1 X138.165 Y183.966 E34.83117
G1 X134.836 Y181.84 E35.13538
G1 X132.147 Y179.744 E35.39798
G1 X130.783 Y178.523 E35.53901
G1 X128.977 Y176.717 E35.73567
G1 X126.505 Y173.802 E36.03005
G1 X124.311 Y170.636 E36.32674
G1 X123.034 Y168.425 E36.5234
G1 X122.208 Y166.791 E36.66443
G1 X120.856 Y163.591 E36.93194
G1 X119.829 Y160.407 E37.18963
G1 X118.969 Y156.552 E37.49385
G1 X118.541 Y153.105 E37.76136
G1 X118.44 Y151.277 E37.90239
G1 X118.44 Y148.723 E38.09905
G1 X118.756 Y144.884 E38.39574
G1 X119.44 Y141.124 E38.69012
G1 X120.101 Y138.657 E38.88678
G1 X120.672 Y136.918 E39.02781
G1 X121.952 Y133.758 E39.29041
G1 X123.534 Y130.665 E39.55792
G1 X125.66 Y127.336 E39.86214
G1 X127.756 Y124.647 E40.12474
G1 X128.838 Y123.438 E40.24969
;WIPE_START
G1 F7200
G1 X130.783 Y121.477 E39.59378
G1 X133.698 Y119.005 E38.68601
G1 X134.862 Y118.198 E38.34969
;WIPE_END
G1 E38.24969 F1800
G92 E0
G1 X170.514 Y172.249 F9000
G1 E2 F1800
;TYPE:Perimeter
;WIDTH:1
G1 F750
G1 X169.563 Y172.778 E2.08379
G1 X168.394 Y173.363 E2.18448
G1 X167.194 Y173.882 E2.28518
G1 X166.317 Y174.224 E2.35771
G1 X165.425 Y174.526 E2.43026
G1 X164.172 Y174.899 E2.53095
G1 X162.9 Y175.203 E2.63165
G1 X161.976 Y175.387 E2.70418
G1 X161.045 Y175.53 E2.77673
G1 X159.747 Y175.68 E2.87742
G1 X158.442 Y175.758 E2.97811
G1 X157.5 Y175.778 E3.05065
G1 X156.558 Y175.758 E3.12319
G1 X155.253 Y175.68 E3.22389
G1 X153.955 Y175.53 E3.32458
G1 X153.03 Y175.388 E3.39659
G1 X151.743 Y175.124 E3.49781
G1 X150.828 Y174.9 E3.57036
G1 X149.924 Y174.636 E3.64289
G1 X148.677 Y174.221 E3.74412
G1 X147.806 Y173.882 E3.81613
G1 X146.606 Y173.363 E3.91682
G1 X145.437 Y172.778 E4.01752
G1 X144.617 Y172.328 E4.08952
G1 X143.497 Y171.64 E4.19075
G1 X142.72 Y171.12 E4.26276
G1 X141.665 Y170.337 E4.36398
G1 X140.936 Y169.752 E4.43599
G1 X139.952 Y168.879 E4.53722
G1 X139.272 Y168.228 E4.60976
G1 X138.621 Y167.548 E4.68229
G1 X137.748 Y166.564 E4.78353
G1 X137.163 Y165.835 E4.85553
G1 X136.384 Y164.786 E4.95623
G1 X135.664 Y163.694 E5.05692
G1 X135.175 Y162.889 E5.12946
G1 X134.722 Y162.063 E5.202
G1 X134.137 Y160.894 E5.3027
G1 X133.618 Y159.694 E5.40339
G1 X133.276 Y158.817 E5.47593
G1 X132.974 Y157.925 E5.54847
G1 X132.601 Y156.672 E5.64916
G1 X132.297 Y155.4 E5.74986
G1 X132.113 Y154.476 E5.82239
G1 X131.97 Y153.545 E5.89494
G1 X131.82 Y152.247 E5.99563
G1 X131.742 Y150.942 E6.09633
G1 X131.722 Y150 E6.16886
G1 X131.742 Y149.058 E6.2414
G1 X131.82 Y147.753 E6.3421
G1 X131.97 Y146.455 E6.44279
G1 X132.112 Y145.53 E6.5148
G1 X132.376 Y144.243 E6.61602
G1 X132.6 Y143.328 E6.68857
G1 X132.864 Y142.424 E6.76111
G1 X133.279 Y141.177 E6.86234
G1 X133.618 Y140.306 E6.93434
G1 X134.137 Y139.106 E7.03503
G1 X134.722 Y137.937 E7.13573
G1 X135.172 Y137.117 E7.20773
G1 X135.86 Y135.997 E7.30896
G1 X136.38 Y135.22 E7.38097
G1 X137.163 Y134.165 E7.4822
G1 X137.748 Y133.436 E7.5542
G1 X138.621 Y132.452 E7.65543
G1 X139.272 Y131.772 E7.72797
G1 X139.952 Y131.121 E7.80051
G1 X140.936 Y130.248 E7.90174
G1 X141.665 Y129.663 E7.97375
G1 X142.714 Y128.884 E8.07444
G1 X143.806 Y128.164 E8.17513
G1 X144.611 Y127.675 E8.24767
G1 X145.437 Y127.222 E8.32021
G1 X146.606 Y126.637 E8.42091
G1 X147.806 Y126.118 E8.5216
G1 X148.683 Y125.776 E8.59414
G1 X149.575 Y125.474 E8.66668
G1 X150.828 Y125.101 E8.76737
G1 X152.1 Y124.797 E8.86807
G1 X153.024 Y124.613 E8.9406
G1 X153.955 Y124.47 E9.01315
G1 X155.253 Y124.32 E9.11384
G1 X156.558 Y124.242 E9.21454
G1 X157.5 Y124.222 E9.28708
G1 X158.442 Y124.242 E9.35961
G1 X159.747 Y124.32 E9.46031
G1 X161.045 Y124.47 E9.561
G1 X161.97 Y124.612 E9.63301
G1 X163.257 Y124.876 E9.73423
G1 X164.172 Y125.1 E9.80678
G1 X165.076 Y125.364 E9.87932
G1 X166.323 Y125.779 E9.98055
G1 X167.194 Y126.118 E10.05255
G1 X168.394 Y126.637 E10.15324
G1 X169.563 Y127.222 E10.25394
G1 X170.383 Y127.672 E10.32594
G1 X171.503 Y128.36 E10.42717
G1 X172.28 Y128.88 E10.49918
G1 X173.335 Y129.663 E10.60041
G1 X174.064 Y130.248 E10.67241
G1 X175.048 Y131.121 E10.77365
G1 X175.728 Y131.772 E10.84618
G1 X176.379 Y132.452 E10.91872
G1 X177.252 Y133.436 E11.01995
G1 X177.837 Y134.165 E11.09196
G1 X178.616 Y135.214 E11.19265
G1 X179.336 Y136.306 E11.29334
G1 X179.825 Y137.111 E11.36589
G1 X180.278 Y137.937 E11.43842
G1 X180.863 Y139.106 E11.53912
G1 X181.382 Y140.306 E11.63981
G1 X181.724 Y141.183 E11.71235
G1 X182.026 Y142.075 E11.78489
G1 X182.399 Y143.328 E11.88558
G1 X182.703 Y144.6 E11.98628
G1 X182.887 Y145.524 E12.05882
G1 X183.03 Y146.455 E12.13136
G1 X183.18 Y147.753 E12.23205
G1 X183.258 Y149.058 E12.33275
G1 X183.278 Y150 E12.40529
G1 X183.258 Y150.942 E12.47783
G1 X183.18 Y152.247 E12.57852
G1 X183.03 Y153.545 E12.67921
G1 X182.888 Y154.47 E12.75122
G1 X182.624 Y155.757 E12.85244
G1 X182.4 Y156.672 E12.92499
G1 X182.136 Y157.576 E12.99753
G1 X181.721 Y158.823 E13.09876
G1 X181.382 Y159.694 E13.17076
G1 X180.863 Y160.894 E13.27146
G1 X180.278 Y162.063 E13.37215
G1 X179.828 Y162.883 E13.44416
G1 X179.14 Y164.003 E13.54539
G1 X178.62 Y164.78 E13.61739
G1 X177.837 Y165.835 E13.71862
G1 X177.252 Y166.564 E13.79062
G1 X176.379 Y167.548 E13.89186
G1 X175.728 Y168.228 E13.96439
G1 X175.048 Y168.879 E14.03693
G1 X174.064 Y169.752 E14.13816
G1 X173.335 Y170.337 E14.21017
G1 X172.286 Y171.116 E14.31086
G1 X171.194 Y171.836 E14.41155
G1 X170.617 Y172.186 E14.46359
G1 X170.999 Y173.049 F9000
G1 F750
G1 X169.998 Y173.606 E14.55188
G1 X168.79 Y174.211 E14.65594
G1 X167.55 Y174.748 E14.75999
G1 X166.637 Y175.103 E14.83546
G1 X165.709 Y175.418 E14.91094
G1 X164.414 Y175.804 E15.01498
G1 X163.1 Y176.117 E15.11904
G1 X162.139 Y176.308 E15.19451
G1 X161.17 Y176.457 E15.26998
G1 X159.828 Y176.612 E15.37403
G1 X158.48 Y176.693 E15.47808
G1 X157.5 Y176.714 E15.55355
G1 X156.52 Y176.693 E15.62903
G1 X155.172 Y176.612 E15.73308
G1 X153.83 Y176.457 E15.83713
G1 X152.865 Y176.309 E15.91228
G1 X151.538 Y176.037 E16.01665
G1 X150.586 Y175.804 E16.09213
G1 X149.645 Y175.53 E16.1676
G1 X148.359 Y175.101 E16.27197
G1 X147.45 Y174.748 E16.34712
G1 X146.21 Y174.211 E16.45117
G1 X145.002 Y173.606 E16.55523
G1 X144.147 Y173.137 E16.63037
G1 X142.992 Y172.427 E16.73475
G1 X142.181 Y171.885 E16.8099
G1 X141.093 Y171.078 E16.91427
G1 X140.332 Y170.467 E16.98942
G1 X139.318 Y169.567 E17.0938
G1 X138.61 Y168.89 E17.16927
G1 X137.933 Y168.182 E17.24474
G1 X137.033 Y167.168 E17.34911
G1 X136.422 Y166.407 E17.42427
G1 X135.617 Y165.322 E17.52831
G1 X134.873 Y164.195 E17.63236
G1 X134.365 Y163.357 E17.70784
G1 X133.894 Y162.498 E17.78331
G1 X133.289 Y161.29 E17.88736
G1 X132.752 Y160.05 E17.99141
G1 X132.397 Y159.137 E18.06688
G1 X132.082 Y158.209 E18.14236
G1 X131.696 Y156.914 E18.24641
G1 X131.383 Y155.6 E18.35046
G1 X131.192 Y154.639 E18.42593
G1 X131.043 Y153.67 E18.50141
G1 X130.888 Y152.328 E18.60546
G1 X130.807 Y150.98 E18.7095
G1 X130.786 Y150 E18.78498
G1 X130.807 Y149.02 E18.86045
G1 X130.888 Y147.672 E18.9645
G1 X131.043 Y146.33 E19.06855
G1 X131.191 Y145.365 E19.14371
G1 X131.463 Y144.038 E19.24807
G1 X131.696 Y143.086 E19.32355
G1 X131.97 Y142.145 E19.39902
G1 X132.399 Y140.859 E19.5034
G1 X132.752 Y139.95 E19.57854
G1 X133.289 Y138.71 E19.68259
G1 X133.894 Y137.502 E19.78665
G1 X134.363 Y136.647 E19.86179
G1 X135.073 Y135.492 E19.96617
G1 X135.615 Y134.681 E20.04132
G1 X136.422 Y133.593 E20.14569
G1 X137.033 Y132.832 E20.22084
G1 X137.933 Y131.818 E20.32522
G1 X138.61 Y131.11 E20.40069
G1 X139.318 Y130.433 E20.47616
G1 X140.332 Y129.533 E20.58054
G1 X141.093 Y128.922 E20.65569
G1 X142.178 Y128.117 E20.75974
G1 X143.305 Y127.373 E20.86378
G1 X144.143 Y126.865 E20.93926
G1 X145.002 Y126.394 E21.01473
G1 X146.21 Y125.789 E21.11878
G1 X147.45 Y125.252 E21.22284
G1 X148.363 Y124.897 E21.2983
G1 X149.291 Y124.582 E21.37378
G1 X150.586 Y124.196 E21.47783
G1 X151.9 Y123.883 E21.58188
G1 X152.861 Y123.692 E21.65735
G1 X153.83 Y123.543 E21.73283
G1 X155.172 Y123.388 E21.83688
G1 X156.52 Y123.307 E21.94093
G1 X157.5 Y123.286 E22.0164
G1 X158.48 Y123.307 E22.09187
G1 X159.828 Y123.388 E22.19592
G1 X161.17 Y123.543 E22.29997
G1 X162.135 Y123.691 E22.37513
G1 X163.462 Y123.963 E22.47949
G1 X164.414 Y124.196 E22.55497
G1 X165.355 Y124.47 E22.63044
G1 X166.641 Y124.899 E22.73482
G1 X167.55 Y125.252 E22.80997
G1 X168.79 Y125.789 E22.91402
G1 X169.998 Y126.394 E23.01807
G1 X170.853 Y126.863 E23.09322
G1 X172.008 Y127.573 E23.19759
G1 X172.819 Y128.115 E23.27274
G1 X173.907 Y128.922 E23.37711
G1 X174.668 Y129.533 E23.45226
G1 X175.682 Y130.433 E23.55664
G1 X176.39 Y131.11 E23.63211
G1 X177.067 Y131.818 E23.70758
G1 X177.967 Y132.832 E23.81196
G1 X178.578 Y133.593 E23.88711
G1 X179.383 Y134.678 E23.99116
G1 X180.127 Y135.805 E24.0952
G1 X180.635 Y136.643 E24.17068
G1 X181.106 Y137.502 E24.24615
G1 X181.711 Y138.71 E24.35021
G1 X182.248 Y139.95 E24.45426
G1 X182.603 Y140.863 E24.52973
G1 X182.918 Y141.791 E24.60521
G1 X183.304 Y143.086 E24.70925
G1 X183.617 Y144.4 E24.8133
G1 X183.808 Y145.361 E24.88877
G1 X183.957 Y146.33 E24.96425
G1 X184.112 Y147.672 E25.0683
G1 X184.193 Y149.02 E25.17235
G1 X184.214 Y150 E25.24782
G1 X184.193 Y150.98 E25.3233
G1 X184.112 Y152.328 E25.42735
G1 X183.957 Y153.67 E25.5314
G1 X183.809 Y154.635 E25.60655
G1 X183.537 Y155.962 E25.71092
G1 X183.304 Y156.914 E25.78639
G1 X183.03 Y157.855 E25.86187
G1 X182.601 Y159.141 E25.96624
G1 X182.248 Y160.05 E26.04139
G1 X181.711 Y161.29 E26.14544
G1 X181.106 Y162.498 E26.24949
G1 X180.637 Y163.353 E26.32464
G1 X179.927 Y164.508 E26.42901
G1 X179.385 Y165.319 E26.50417
G1 X178.578 Y166.407 E26.60854
G1 X177.967 Y167.168 E26.68369
G1 X177.067 Y168.182 E26.78806
G1 X176.39 Y168.89 E26.86353
G1 X175.682 Y169.567 E26.93901
G1 X174.668 Y170.467 E27.04338
G1 X173.907 Y171.078 E27.11853
G1 X172.822 Y171.883 E27.22258
G1 X171.695 Y172.627 E27.32663
G1 X171.102 Y172.986 E27.38003
G1 X171.485 Y173.848 F9000
;TYPE:External perimeter
G1 F375
G1 X170.432 Y174.435 E27.47283
G1 X169.185 Y175.059 E27.58024
G1 X167.906 Y175.613 E27.68765
G1 X166.957 Y175.982 E27.76605
G1 X165.993 Y176.31 E27.84446
G1 X164.656 Y176.708 E27.95186
G1 X163.3 Y177.031 E28.05927
G1 X162.301 Y177.23 E28.13767
G1 X161.295 Y177.385 E28.21608
G1 X159.91 Y177.545 E28.32349
G1 X158.518 Y177.628 E28.43089
G1 X157.5 Y177.65 E28.5093
G1 X156.482 Y177.628 E28.58771
G1 X155.09 Y177.545 E28.69511
G1 X153.705 Y177.385 E28.80252
G1 X152.7 Y177.23 E28.88082
G1 X151.333 Y176.95 E28.98833
G1 X150.344 Y176.708 E29.06674
G1 X149.366 Y176.423 E29.14515
G1 X148.042 Y175.982 E29.25267
G1 X147.094 Y175.613 E29.33096
G1 X145.815 Y175.059 E29.43837
G1 X144.568 Y174.435 E29.54578
G1 X143.676 Y173.946 E29.62407
