; generated by PrusaSlicer 2.5.0+linux-x64-GTK3 on 2023-10-08 at 02:08:23 UTC

; 

; external perimeters extrusion width = 1.00mm
; perimeters extrusion width = 1.00mm
; infill extrusion width = 1.00mm
; solid infill extrusion width = 1.00mm
; top infill extrusion width = 1.00mm
; support material extrusion width = 1.00mm
; first layer extrusion width = 1.00mm

M107
;TYPE:Custom
M190 S70 ;Heat up bed
M140 S0 ;Stop bed heater
G28 ;Home
G29 ;Autolevel
G1 X0 Y0 Z5 F6000.000
M140 S70 ;Turn bed back on
M106 S255 ;Turn on fans
M109 S225  ;Set extruder temp
G21 ; set units to millimeters
G90 ; use absolute coordinates
M82 ; use absolute distances for extrusion
G92 E0
; Filament gcode
M106 S255
;LAYER_CHANGE
;Z:0.3
;HEIGHT:0.3
G1 E-2 F1800
G92 E0
G1 Z.1 F9000
G1 X135.787 Y127.848
G1 E2 F1800
;TYPE:Skirt/Brim
;WIDTH:1
G1 F900
G1 X138.106 Y125.792 E2.23869
G1 X140.511 Y124.047 E2.4675
G1 X143.213 Y122.468 E2.70855
G1 X146.032 Y121.179 E2.94727
G1 X148.841 Y120.214 E3.17605
G1 X151.887 Y119.493 E3.4171
G1 X154.959 Y119.086 E3.65581
G1 X157.928 Y118.984 E3.88461
G1 X161.051 Y119.185 E4.12565
G1 X164.063 Y119.683 E4.36074
G1 X166.866 Y120.429 E4.58414
G1 X169.77 Y121.511 E4.82285
G1 X172.439 Y122.815 E5.05165
G1 X175.081 Y124.444 E5.29071
G1 X177.352 Y126.165 E5.51014
G1 X179.652 Y128.287 E5.75119
G1 X181.708 Y130.606 E5.98988
G1 X183.453 Y133.011 E6.21869
G1 X185.032 Y135.713 E6.45974
G1 X186.321 Y138.532 E6.69846
G1 X187.286 Y141.341 E6.92724
G1 X188.007 Y144.387 E7.16829
G1 X188.411 Y147.412 E7.40339
G1 X188.518 Y150.285 E7.62479
G1 X188.361 Y153.129 E7.8442
G1 X187.888 Y156.223 E8.08527
G1 X187.13 Y159.18 E8.32034
G1 X186.097 Y162.015 E8.55276
G1 X184.741 Y164.836 E8.79383
G1 X183.151 Y167.442 E9.0289
G1 X181.335 Y169.852 E9.26134
G1 X179.213 Y172.152 E9.50239
G1 X176.894 Y174.208 E9.74108
G1 X174.489 Y175.953 E9.96988
G1 X171.787 Y177.532 E10.21094
G1 X168.968 Y178.821 E10.44965
G1 X166.159 Y179.786 E10.67844
G1 X163.113 Y180.507 E10.91949
G1 X160.088 Y180.911 E11.15458
G1 X157.215 Y181.018 E11.37599
G1 X154.371 Y180.861 E11.59541
G1 X151.277 Y180.388 E11.83647
G1 X148.32 Y179.63 E12.07155
G1 X145.485 Y178.597 E12.30396
G1 X142.664 Y177.241 E12.54503
G1 X140.058 Y175.651 E12.78011
G1 X137.648 Y173.835 E13.01254
G1 X135.348 Y171.713 E13.25359
G1 X133.292 Y169.394 E13.49228
G1 X131.547 Y166.989 E13.72109
G1 X129.968 Y164.287 E13.96214
G1 X128.679 Y161.468 E14.20085
G1 X127.714 Y158.659 E14.42964
G1 X126.993 Y155.613 E14.67069
G1 X126.589 Y152.588 E14.90579
G1 X126.482 Y149.715 E15.12719
G1 X126.639 Y146.871 E15.3466
G1 X127.112 Y143.777 E15.58767
G1 X127.87 Y140.82 E15.82274
G1 X128.903 Y137.985 E16.05516
G1 X130.259 Y135.164 E16.29623
G1 X131.849 Y132.558 E16.5313
G1 X133.665 Y130.148 E16.76374
G1 X135.706 Y127.936 E16.99554
G1 X136.392 Y128.569 F9000
G1 F900
G1 X138.679 Y126.531 E17.23143
G1 X141.012 Y124.837 E17.45345
G1 X143.63 Y123.305 E17.68712
G1 X146.364 Y122.054 E17.91863
G1 X149.089 Y121.116 E18.14063
G1 X152.041 Y120.416 E18.3743
G1 X155.021 Y120.019 E18.60581
G1 X157.901 Y119.919 E18.82783
G1 X160.929 Y120.113 E19.06148
G1 X163.852 Y120.595 E19.28965
G1 X166.569 Y121.316 E19.50615
G1 X169.386 Y122.365 E19.73765
G1 X171.977 Y123.629 E19.95967
G1 X174.539 Y125.207 E20.1915
G1 X176.742 Y126.875 E20.40433
G1 X178.974 Y128.931 E20.63799
G1 X180.969 Y131.179 E20.86948
G1 X182.663 Y133.512 E21.09151
G1 X184.195 Y136.13 E21.32518
G1 X185.446 Y138.864 E21.55669
G1 X186.384 Y141.589 E21.77869
G1 X187.084 Y144.541 E22.01236
G1 X187.478 Y147.478 E22.24054
G1 X187.582 Y150.262 E22.45518
G1 X187.431 Y153.021 E22.668
G1 X186.975 Y156.021 E22.90169
G1 X186.24 Y158.891 E23.12984
G1 X185.24 Y161.64 E23.35519
G1 X183.926 Y164.375 E23.58887
G1 X182.385 Y166.905 E23.81703
G1 X180.625 Y169.242 E24.04239
G1 X178.569 Y171.474 E24.27606
G1 X176.321 Y173.469 E24.50755
G1 X173.988 Y175.163 E24.72957
G1 X171.37 Y176.695 E24.96324
G1 X168.636 Y177.946 E25.19476
G1 X165.911 Y178.884 E25.41675
G1 X162.959 Y179.584 E25.65042
G1 X160.023 Y179.978 E25.8786
G1 X157.238 Y180.082 E26.09325
G1 X154.479 Y179.931 E26.30607
G1 X151.479 Y179.475 E26.53975
G1 X148.609 Y178.74 E26.76792
G1 X145.86 Y177.74 E26.99325
G1 X143.125 Y176.426 E27.22694
G1 X140.595 Y174.885 E27.4551
G1 X138.258 Y173.125 E27.68046
G1 X136.026 Y171.069 E27.91413
G1 X134.031 Y168.821 E28.14562
G1 X132.337 Y166.488 E28.36764
G1 X130.805 Y163.87 E28.60131
G1 X129.554 Y161.136 E28.83282
G1 X128.616 Y158.411 E29.05483
G1 X127.916 Y155.459 E29.28849
G1 X127.522 Y152.522 E29.51668
G1 X127.418 Y149.738 E29.73131
G1 X127.569 Y146.979 E29.94413
G1 X128.025 Y143.979 E30.17782
G1 X128.76 Y141.109 E30.40597
G1 X129.76 Y138.36 E30.63132
G1 X131.074 Y135.625 E30.865
G1 X132.615 Y133.095 E31.09317
G1 X134.375 Y130.758 E31.31853
G1 X136.311 Y128.657 E31.53853
;WIPE_START
G1 F7200
G1 X138.679 Y126.531 E30.78278
G1 X141.012 Y124.837 E30.09813
G1 X142.682 Y123.86 E29.63853
;WIPE_END
G1 E29.53853 F1800
G92 E0
G1 X145.606 Y161.778 F9000
G1 E2 F1800
;TYPE:Perimeter
;WIDTH:1.06344
G1 F750
G1 X145.46 Y161.632 E2.017
;WIDTH:1.08432
G1 X145.007 Y161.133 E2.07359
;WIDTH:1.13158
G1 X144.556 Y160.571 E2.13688
;WIDTH:1.18072
G1 X144.221 Y160.097 E2.19024
G1 X144.115 Y159.986 E2.20431
;WIDTH:1.14951
G1 X144.01 Y159.875 E2.21799
;WIDTH:1.1183
G1 X143.855 Y159.689 E2.23896
;WIDTH:1.07886
G1 X143.701 Y159.503 E2.25915
;WIDTH:1.03943
G1 X143.547 Y159.317 E2.27855
;WIDTH:1
G1 X143.12 Y158.644 E2.33996
G1 X142.686 Y157.877 E2.40783
G1 X142.293 Y157.088 E2.47567
G1 X141.975 Y156.362 E2.53675
G1 X141.661 Y155.533 E2.605
G1 X141.432 Y154.83 E2.66192
G1 X141.221 Y154.062 E2.72334
G1 X141.03 Y153.201 E2.79119
G1 X140.885 Y152.332 E2.85905
G1 X140.793 Y151.54 E2.92048
G1 X140.741 Y150.8 E2.97764
G1 X140.722 Y150 E3.03926
G1 X140.741 Y149.2 E3.10088
G1 X140.793 Y148.46 E3.15804
G1 X140.885 Y147.668 E3.21947
G1 X141.03 Y146.799 E3.28733
G1 X141.221 Y145.938 E3.35518
G1 X141.432 Y145.17 E3.4166
G1 X141.661 Y144.467 E3.47352
G1 X141.975 Y143.638 E3.54177
G1 X142.293 Y142.912 E3.60285
G1 X142.686 Y142.123 E3.6707
G1 X143.372 Y140.959 E3.77477
G1 X143.758 Y140.381 E3.82833
G1 X144.123 Y139.881 E3.876
;WIDTH:1.04365
G1 X144.348 Y139.628 E3.9033
;WIDTH:1.0873
G1 X144.573 Y139.375 E3.93182
;WIDTH:1.08871
G1 X145.386 Y138.447 E4.03576
;WIDTH:1.0649
G1 X145.788 Y138.035 E4.08325
;WIDTH:1.08107
G1 X146.312 Y137.552 E4.1429
;WIDTH:1.1072
G1 X146.611 Y137.313 E4.17571
;WIDTH:1.13332
G1 X146.909 Y137.074 E4.20934
;WIDTH:1.17059
G1 X147.325 Y136.774 E4.25603
G1 X147.471 Y136.637 E4.27431
;WIDTH:1.13102
G1 X147.617 Y136.499 E4.29194
;WIDTH:1.09145
G1 X147.9 Y136.273 E4.32255
;WIDTH:1.04572
G1 X148.183 Y136.047 E4.35181
;WIDTH:1
G1 X148.856 Y135.62 E4.41322
G1 X149.623 Y135.186 E4.48108
G1 X150.412 Y134.793 E4.54893
G1 X151.138 Y134.475 E4.61001
G1 X151.967 Y134.161 E4.67825
G1 X152.67 Y133.932 E4.73517
G1 X153.438 Y133.721 E4.7966
G1 X154.299 Y133.53 E4.86445
G1 X155.168 Y133.385 E4.93231
G1 X155.955 Y133.293 E4.99337
G1 X156.839 Y133.235 E5.06162
G1 X157.578 Y133.222 E5.11855
G1 X158.376 Y133.245 E5.17998
G1 X159.254 Y133.314 E5.24781
G1 X160.127 Y133.429 E5.31568
G1 X160.912 Y133.573 E5.3771
G1 X161.635 Y133.74 E5.43426
G1 X162.403 Y133.954 E5.49569
G1 X163.241 Y134.235 E5.56374
G1 X163.979 Y134.524 E5.6248
G1 X164.787 Y134.887 E5.69306
G1 X165.446 Y135.223 E5.74998
G1 X166.119 Y135.606 E5.80966
G1 X167.128 Y136.265 E5.90241
;WIDTH:1.02343
G1 X167.616 Y136.632 E5.95062
;WIDTH:1.05762
G1 X167.781 Y136.784 E5.96902
;WIDTH:1.09182
G1 X167.947 Y136.936 E5.98805
;WIDTH:1.12601
G1 X168.705 Y137.571 E6.07445
;WIDTH:1.08609
G1 X169.114 Y137.943 E6.12095
;WIDTH:1.06437
G1 X169.54 Y138.368 E6.17045
;WIDTH:1.08431
G1 X169.993 Y138.866 E6.22705
;WIDTH:1.13158
G1 X170.444 Y139.429 E6.29036
;WIDTH:1.18072
G1 X170.779 Y139.903 E6.34372
G1 X170.884 Y140.014 E6.35778
;WIDTH:1.15149
G1 X170.989 Y140.126 E6.37146
;WIDTH:1.12226
G1 X171.143 Y140.312 E6.39252
;WIDTH:1.0815
G1 X171.298 Y140.497 E6.41277
;WIDTH:1.04075
G1 X171.453 Y140.683 E6.4322
;WIDTH:1
G1 X171.88 Y141.356 E6.49361
G1 X172.314 Y142.123 E6.56148
G1 X172.707 Y142.912 E6.62932
G1 X173.025 Y143.638 E6.6904
G1 X173.339 Y144.467 E6.75865
G1 X173.568 Y145.17 E6.81557
G1 X173.779 Y145.938 E6.87699
G1 X173.97 Y146.799 E6.94484
G1 X174.115 Y147.668 E7.0127
G1 X174.207 Y148.46 E7.07413
G1 X174.259 Y149.2 E7.13129
G1 X174.278 Y150 E7.19291
G1 X174.259 Y150.8 E7.25453
G1 X174.207 Y151.54 E7.31169
G1 X174.115 Y152.332 E7.37312
G1 X173.97 Y153.201 E7.44098
G1 X173.779 Y154.062 E7.50883
G1 X173.568 Y154.83 E7.57025
G1 X173.339 Y155.533 E7.62717
G1 X173.025 Y156.362 E7.69542
G1 X172.707 Y157.088 E7.7565
G1 X172.314 Y157.877 E7.82434
G1 X171.88 Y158.644 E7.89221
G1 X171.607 Y159.075 E7.93152
;WIDTH:1.04173
G1 X171.181 Y159.669 E7.99035
;WIDTH:1.08603
G1 X171.038 Y159.826 E8.00823
;WIDTH:1.13033
G1 X170.894 Y159.983 E8.02689
;WIDTH:1.17463
G1 X170.75 Y160.14 E8.04632
G1 X170.549 Y160.418 E8.07771
;WIDTH:1.14593
G1 X170.347 Y160.696 E8.10828
;WIDTH:1.11723
G1 X169.93 Y161.206 E8.16538
;WIDTH:1.08363
G1 X169.54 Y161.632 E8.21387
;WIDTH:1.06344
G1 X169.132 Y162.04 E8.26127
;WIDTH:1.08431
G1 X168.634 Y162.493 E8.31787
;WIDTH:1.13158
G1 X168.071 Y162.944 E8.38119
;WIDTH:1.18072
G1 X167.597 Y163.279 E8.43454
G1 X167.486 Y163.384 E8.4486
;WIDTH:1.15149
G1 X167.374 Y163.489 E8.46229
;WIDTH:1.12226
G1 X167.188 Y163.643 E8.48334
;WIDTH:1.0815
G1 X167.003 Y163.798 E8.50359
;WIDTH:1.04075
G1 X166.817 Y163.953 E8.52302
;WIDTH:1
G1 X166.144 Y164.38 E8.58444
G1 X165.377 Y164.814 E8.6523
G1 X164.588 Y165.207 E8.72015
G1 X163.862 Y165.525 E8.78123
G1 X163.033 Y165.839 E8.84947
G1 X162.33 Y166.068 E8.90639
G1 X161.562 Y166.279 E8.96781
G1 X160.701 Y166.47 E9.03567
G1 X159.832 Y166.615 E9.10353
G1 X159.04 Y166.707 E9.16495
G1 X158.3 Y166.759 E9.22212
G1 X157.5 Y166.778 E9.28373
G1 X156.7 Y166.759 E9.34535
G1 X155.96 Y166.707 E9.40252
G1 X155.168 Y166.615 E9.46394
G1 X154.299 Y166.47 E9.5318
G1 X153.438 Y166.279 E9.59966
G1 X152.67 Y166.068 E9.66108
G1 X151.967 Y165.839 E9.718
G1 X151.138 Y165.525 E9.78624
G1 X150.412 Y165.207 E9.84732
G1 X149.623 Y164.814 E9.91517
G1 X148.856 Y164.38 E9.98303
G1 X148.425 Y164.107 E10.02234
;WIDTH:1.04893
G1 X147.833 Y163.678 E10.08161
;WIDTH:1.09083
G1 X147.675 Y163.536 E10.09956
;WIDTH:1.13273
G1 X147.518 Y163.393 E10.11825
;WIDTH:1.17463
G1 X147.36 Y163.25 E10.13767
G1 X147.036 Y163.013 E10.17437
;WIDTH:1.14029
G1 X146.713 Y162.776 E10.20993
;WIDTH:1.10595
G1 X146.294 Y162.43 E10.25645
;WIDTH:1.08363
G1 X145.868 Y162.04 E10.30495
;WIDTH:1.06344
G1 X145.691 Y161.863 E10.3255
G1 X144.972 Y162.523 F9000
;WIDTH:1
G1 F750
G1 X144.335 Y161.852 E10.39675
G1 X143.788 Y161.215 E10.46141
G1 X143.217 Y160.478 E10.53321
G1 X142.768 Y159.836 E10.59353
G1 X142.317 Y159.125 E10.6584
G1 X141.86 Y158.316 E10.72996
G1 X141.445 Y157.485 E10.8015
G1 X141.109 Y156.715 E10.86618
G1 X140.778 Y155.844 E10.93798
G1 X140.536 Y155.099 E10.99829
G1 X140.313 Y154.287 E11.06316
G1 X140.112 Y153.38 E11.13471
G1 X139.958 Y152.464 E11.20627
G1 X139.861 Y151.627 E11.27116
G1 X139.806 Y150.844 E11.33162
G1 X139.786 Y150 E11.39662
G1 X139.806 Y149.156 E11.46162
G1 X139.861 Y148.373 E11.52208
G1 X139.958 Y147.536 E11.58697
G1 X140.112 Y146.62 E11.65852
G1 X140.313 Y145.713 E11.73007
G1 X140.536 Y144.901 E11.79495
G1 X140.778 Y144.156 E11.85526
G1 X141.109 Y143.285 E11.92706
G1 X141.445 Y142.515 E11.99173
G1 X141.86 Y141.684 E12.06328
G1 X142.317 Y140.875 E12.13483
G1 X142.768 Y140.164 E12.1997
G1 X143.217 Y139.522 E12.26004
G1 X143.788 Y138.785 E12.33183
G1 X144.335 Y138.148 E12.39648
G1 X144.974 Y137.474 E12.46803
G1 X145.648 Y136.835 E12.53958
G1 X146.285 Y136.288 E12.60424
G1 X147.022 Y135.717 E12.67603
G1 X147.664 Y135.268 E12.73636
G1 X148.375 Y134.817 E12.80123
G1 X149.184 Y134.36 E12.87279
G1 X150.015 Y133.945 E12.94433
G1 X150.785 Y133.609 E13.00901
G1 X151.656 Y133.278 E13.08079
G1 X152.401 Y133.036 E13.14111
G1 X153.213 Y132.813 E13.20599
G1 X154.12 Y132.612 E13.27754
G1 X155.036 Y132.458 E13.3491
G1 X155.87 Y132.361 E13.41376
G1 X156.8 Y132.3 E13.48554
G1 X157.583 Y132.286 E13.54587
G1 X158.426 Y132.31 E13.61076
G1 X159.352 Y132.383 E13.68229
G1 X160.273 Y132.504 E13.75385
G1 X161.101 Y132.656 E13.81873
G1 X161.866 Y132.833 E13.87919
G1 X162.678 Y133.06 E13.94408
G1 X163.56 Y133.355 E14.01575
G1 X164.342 Y133.661 E14.08042
G1 X165.192 Y134.043 E14.15221
G1 X165.89 Y134.399 E14.21253
G1 X166.622 Y134.815 E14.27742
G1 X167.407 Y135.315 E14.34908
G1 X168.094 Y135.803 E14.41396
G1 X168.712 Y136.286 E14.47443
G1 X169.352 Y136.835 E14.53931
G1 X170.026 Y137.474 E14.61086
G1 X170.665 Y138.148 E14.68241
G1 X171.212 Y138.785 E14.74707
G1 X171.783 Y139.522 E14.81886
G1 X172.232 Y140.164 E14.87919
G1 X172.683 Y140.875 E14.94406
G1 X173.14 Y141.684 E15.01562
G1 X173.555 Y142.515 E15.08716
G1 X173.891 Y143.285 E15.15184
G1 X174.222 Y144.156 E15.22363
G1 X174.464 Y144.901 E15.28394
G1 X174.687 Y145.713 E15.34882
G1 X174.888 Y146.62 E15.42037
G1 X175.042 Y147.536 E15.49192
G1 X175.139 Y148.373 E15.55681
G1 X175.194 Y149.156 E15.61728
G1 X175.214 Y150 E15.68227
G1 X175.194 Y150.844 E15.74727
G1 X175.139 Y151.627 E15.80773
G1 X175.042 Y152.464 E15.87262
G1 X174.888 Y153.38 E15.94418
G1 X174.687 Y154.287 E16.01573
G1 X174.464 Y155.099 E16.08061
G1 X174.222 Y155.844 E16.14092
G1 X173.891 Y156.715 E16.21271
G1 X173.555 Y157.485 E16.27739
G1 X173.14 Y158.316 E16.34893
G1 X172.683 Y159.125 E16.42049
G1 X172.232 Y159.836 E16.48536
G1 X171.783 Y160.478 E16.54569
G1 X171.212 Y161.215 E16.61748
G1 X170.665 Y161.852 E16.68214
G1 X170.026 Y162.526 E16.75369
G1 X169.352 Y163.165 E16.82524
G1 X168.715 Y163.712 E16.88989
G1 X167.978 Y164.283 E16.96168
G1 X167.336 Y164.732 E17.02201
G1 X166.625 Y165.183 E17.08689
G1 X165.816 Y165.64 E17.15844
G1 X164.985 Y166.055 E17.22999
G1 X164.215 Y166.391 E17.29467
G1 X163.344 Y166.722 E17.36645
G1 X162.599 Y166.964 E17.42676
G1 X161.787 Y167.187 E17.49165
G1 X160.88 Y167.388 E17.5632
G1 X159.964 Y167.542 E17.63475
G1 X159.127 Y167.639 E17.69963
G1 X158.344 Y167.694 E17.7601
G1 X157.5 Y167.714 E17.8251
G1 X156.656 Y167.694 E17.8901
G1 X155.873 Y167.639 E17.95057
G1 X155.036 Y167.542 E18.01545
G1 X154.12 Y167.388 E18.08701
G1 X153.213 Y167.187 E18.15855
G1 X152.401 Y166.964 E18.22344
G1 X151.656 Y166.722 E18.28375
G1 X150.785 Y166.391 E18.35553
G1 X150.015 Y166.055 E18.42021
G1 X149.184 Y165.64 E18.49176
G1 X148.375 Y165.183 E18.56331
G1 X147.664 Y164.732 E18.62819
G1 X147.022 Y164.283 E18.68852
G1 X146.285 Y163.712 E18.76031
G1 X145.648 Y163.165 E18.82497
G1 X145.059 Y162.606 E18.88757
G1 X144.293 Y163.167 F9000
;TYPE:External perimeter
G1 F375
G1 X143.64 Y162.479 E18.96063
G1 X143.063 Y161.806 E19.02889
G1 X142.464 Y161.033 E19.10422
G1 X141.989 Y160.355 E19.16794
G1 X141.514 Y159.606 E19.23627
G1 X141.033 Y158.756 E19.31153
G1 X140.597 Y157.881 E19.38676
G1 X140.242 Y157.069 E19.45504
G1 X139.895 Y156.155 E19.53038
G1 X139.64 Y155.368 E19.59408
G1 X139.404 Y154.512 E19.66242
G1 X139.193 Y153.559 E19.73766
G1 X139.032 Y152.595 E19.81291
G1 X138.929 Y151.713 E19.88126
G1 X138.871 Y150.888 E19.94503
G1 X138.85 Y150 E20.01341
G1 X138.871 Y149.112 E20.08178
G1 X138.929 Y148.287 E20.14555
G1 X139.032 Y147.405 E20.2139
G1 X139.193 Y146.441 E20.28915
G1 X139.404 Y145.488 E20.36439
G1 X139.64 Y144.632 E20.43273
G1 X139.895 Y143.845 E20.49644
G1 X140.242 Y142.931 E20.57177
G1 X140.597 Y142.119 E20.64005
G1 X141.033 Y141.244 E20.71528
G1 X141.514 Y140.394 E20.79054
G1 X141.989 Y139.645 E20.85887
G1 X142.464 Y138.967 E20.9226
G1 X143.063 Y138.194 E20.99792
G1 X143.64 Y137.521 E21.06618
G1 X144.313 Y136.813 E21.14143
G1 X145.021 Y136.14 E21.21667
G1 X145.694 Y135.563 E21.28493
G1 X146.467 Y134.964 E21.36026
G1 X147.145 Y134.489 E21.42399
G1 X147.894 Y134.014 E21.49232
G1 X148.744 Y133.533 E21.56757
G1 X149.619 Y133.097 E21.64281
G1 X150.431 Y132.742 E21.71109
G1 X151.345 Y132.395 E21.78641
G1 X152.132 Y132.14 E21.85012
G1 X152.988 Y131.904 E21.91846
G1 X153.941 Y131.693 E21.99371
G1 X154.905 Y131.532 E22.06896
G1 X155.786 Y131.429 E22.13722
G1 X156.761 Y131.365 E22.21254
