; generated by PrusaSlicer 2.5.0+linux-x64-GTK3 on 2023-10-08 at 04:31:05 UTC

; 

; external perimeters extrusion width = 1.00mm
; perimeters extrusion width = 1.00mm
; infill extrusion width = 1.00mm
; solid infill extrusion width = 1.00mm
; top infill extrusion width = 1.00mm
; support material extrusion width = 1.00mm
; first layer extrusion width = 1.00mm

M107
;TYPE:Custom
M190 S70 ;Heat up bed
M140 S0 ;Stop bed heater
G28 ;Home
G29 ;Autolevel
G1 X0 Y0 Z5 F6000.000
M140 S70 ;Turn bed back on
M106 S255 ;Turn on fans
M109 S225  ;Set extruder temp
G21 ; set units to millimeters
G90 ; use absolute coordinates
M82 ; use absolute distances for extrusion
G92 E0
; Filament gcode
M106 S255
;LAYER_CHANGE
;Z:0.3
;HEIGHT:0.3
G1 E-2 F1800
G92 E0
G1 Z.1 F9000
G1 X135.787 Y127.848
G1 E2 F1800
;TYPE:Skirt/Brim
;WIDTH:1
G1 F900
G1 X138.106 Y125.792 E2.23869
G1 X140.511 Y124.047 E2.4675
G1 X143.213 Y122.468 E2.70855
G1 X146.032 Y121.179 E2.94727
G1 X148.841 Y120.214 E3.17605
G1 X151.887 Y119.493 E3.4171
G1 X154.959 Y119.086 E3.65581
G1 X157.928 Y118.984 E3.88461
G1 X161.051 Y119.185 E4.12565
G1 X164.063 Y119.683 E4.36074
G1 X166.866 Y120.429 E4.58414
G1 X169.77 Y121.511 E4.82285
G1 X172.439 Y122.815 E5.05165
G1 X175.081 Y124.444 E5.29071
G1 X177.352 Y126.165 E5.51014
G1 X179.652 Y128.287 E5.75119
G1 X181.708 Y130.606 E5.98988
G1 X183.453 Y133.011 E6.21869
G1 X185.032 Y135.713 E6.45974
G1 X186.321 Y138.532 E6.69846
G1 X187.286 Y141.341 E6.92724
G1 X188.007 Y144.387 E7.16829
G1 X188.411 Y147.412 E7.40339
G1 X188.518 Y150.285 E7.62479
G1 X188.361 Y153.129 E7.8442
G1 X187.888 Y156.223 E8.08527
G1 X187.13 Y159.18 E8.32034
G1 X186.097 Y162.015 E8.55276
G1 X184.741 Y164.836 E8.79383
G1 X183.151 Y167.442 E9.0289
G1 X181.335 Y169.852 E9.26134
G1 X179.213 Y172.152 E9.50239
G1 X176.894 Y174.208 E9.74108
G1 X174.489 Y175.953 E9.96988
G1 X171.787 Y177.532 E10.21094
G1 X168.968 Y178.821 E10.44965
G1 X166.159 Y179.786 E10.67844
G1 X163.113 Y180.507 E10.91949
G1 X160.088 Y180.911 E11.15458
G1 X157.215 Y181.018 E11.37599
G1 X154.371 Y180.861 E11.59541
G1 X151.277 Y180.388 E11.83647
G1 X148.32 Y179.63 E12.07155
G1 X145.485 Y178.597 E12.30396
G1 X142.664 Y177.241 E12.54503
G1 X140.058 Y175.651 E12.78011
G1 X137.648 Y173.835 E13.01254
G1 X135.348 Y171.713 E13.25359
G1 X133.292 Y169.394 E13.49228
G1 X131.547 Y166.989 E13.72109
G1 X129.968 Y164.287 E13.96214
G1 X128.679 Y161.468 E14.20085
G1 X127.714 Y158.659 E14.42964
G1 X126.993 Y155.613 E14.67069
G1 X126.589 Y152.588 E14.90579
G1 X126.482 Y149.715 E15.12719
G1 X126.639 Y146.871 E15.3466
G1 X127.112 Y143.777 E15.58767
G1 X127.87 Y140.82 E15.82274
G1 X128.903 Y137.985 E16.05516
G1 X130.259 Y135.164 E16.29623
G1 X131.849 Y132.558 E16.5313
G1 X133.665 Y130.148 E16.76374
G1 X135.706 Y127.936 E16.99554
G1 X136.392 Y128.569 F9000
G1 F900
G1 X138.679 Y126.531 E17.23143
G1 X141.012 Y124.837 E17.45345
G1 X143.63 Y123.305 E17.68712
G1 X146.364 Y122.054 E17.91863
G1 X149.089 Y121.116 E18.14063
G1 X152.041 Y120.416 E18.3743
G1 X155.021 Y120.019 E18.60581
G1 X157.901 Y119.919 E18.82783
G1 X160.929 Y120.113 E19.06148
G1 X163.852 Y120.595 E19.28965
G1 X166.569 Y121.316 E19.50615
G1 X169.386 Y122.365 E19.73765
G1 X171.977 Y123.629 E19.95967
G1 X174.539 Y125.207 E20.1915
G1 X176.742 Y126.875 E20.40433
G1 X178.974 Y128.931 E20.63799
G1 X180.969 Y131.179 E20.86948
G1 X182.663 Y133.512 E21.09151
G1 X184.195 Y136.13 E21.32518
G1 X185.446 Y138.864 E21.55669
G1 X186.384 Y141.589 E21.77869
G1 X187.084 Y144.541 E22.01236
G1 X187.478 Y147.478 E22.24054
G1 X187.582 Y150.262 E22.45518
G1 X187.431 Y153.021 E22.668
G1 X186.975 Y156.021 E22.90169
G1 X186.24 Y158.891 E23.12984
G1 X185.24 Y161.64 E23.35519
G1 X183.926 Y164.375 E23.58887
G1 X182.385 Y166.905 E23.81703
G1 X180.625 Y169.242 E24.04239
G1 X178.569 Y171.474 E24.27606
G1 X176.321 Y173.469 E24.50755
G1 X173.988 Y175.163 E24.72957
G1 X171.37 Y176.695 E24.96324
G1 X168.636 Y177.946 E25.19476
G1 X165.911 Y178.884 E25.41675
G1 X162.959 Y179.584 E25.65042
G1 X160.023 Y179.978 E25.8786
G1 X157.238 Y180.082 E26.09325
G1 X154.479 Y179.931 E26.30607
G1 X151.479 Y179.475 E26.53975
G1 X148.609 Y178.74 E26.76792
G1 X145.86 Y177.74 E26.99325
G1 X143.125 Y176.426 E27.22694
G1 X140.595 Y174.885 E27.4551
G1 X138.258 Y173.125 E27.68046
G1 X136.026 Y171.069 E27.91413
G1 X134.031 Y168.821 E28.14562
G1 X132.337 Y166.488 E28.36764
G1 X130.805 Y163.87 E28.60131
G1 X129.554 Y161.136 E28.83282
G1 X128.616 Y158.411 E29.05483
G1 X127.916 Y155.459 E29.28849
G1 X127.522 Y152.522 E29.51668
G1 X127.418 Y149.738 E29.73131
G1 X127.569 Y146.979 E29.94413
G1 X128.025 Y143.979 E30.17782
G1 X128.76 Y141.109 E30.40597
G1 X129.76 Y138.36 E30.63132
G1 X131.074 Y135.625 E30.865
G1 X132.615 Y133.095 E31.09317
G1 X134.375 Y130.758 E31.31853
G1 X136.311 Y128.657 E31.53853
;WIPE_START
G1 F7200
G1 X138.679 Y126.531 E30.78278
G1 X141.012 Y124.837 E30.09813
G1 X142.682 Y123.86 E29.63853
;WIPE_END
G1 E29.53853 F1800
G92 E0
G1 X174.115 Y147.668 F9000
G1 E2 F1800
;TYPE:Perimeter
;WIDTH:1
G1 F750
G1 X174.207 Y148.46 E2.06143
G1 X174.259 Y149.2 E2.11859
G1 X174.278 Y150 E2.18021
G1 X174.259 Y150.8 E2.24183
G1 X174.207 Y151.54 E2.29899
G1 X174.115 Y152.332 E2.36042
G1 X173.97 Y153.201 E2.42828
G1 X173.779 Y154.062 E2.49613
G1 X173.568 Y154.83 E2.55755
G1 X173.339 Y155.533 E2.61447
G1 X173.025 Y156.362 E2.68272
G1 X172.707 Y157.088 E2.7438
G1 X172.422 Y157.659 E2.79293
G1 X172.105 Y158.246 E2.84429
G1 X171.67 Y158.975 E2.90969
G1 X171.7 Y158.587 E2.93965
G1 X171.644 Y157.75 E3.00431
G1 X171.523 Y157.075 E3.05712
G1 X171.324 Y156.446 E3.10794
G1 X171.138 Y156.016 E3.14399
G1 X170.779 Y155.371 E3.20082
G1 X170.384 Y154.85 E3.25123
G1 X169.964 Y154.375 E3.30007
G1 X170.642 Y153.917 E3.36311
G1 X171.023 Y153.56 E3.4033
G1 X171.493 Y153.033 E3.45768
G1 X171.888 Y152.441 E3.51254
G1 X172.177 Y151.794 E3.56711
G1 X172.36 Y151.237 E3.61223
G1 X172.481 Y150.617 E3.66087
G1 X172.51 Y149.997 E3.70869
G1 X172.468 Y149.32 E3.7609
G1 X172.361 Y148.769 E3.80419
G1 X172.226 Y148.32 E3.84029
G1 X172.03 Y147.846 E3.87978
G1 X171.812 Y147.439 E3.91534
G1 X171.508 Y146.987 E3.95729
G1 X171.185 Y146.601 E3.99606
G1 X170.758 Y146.182 E4.04215
G1 X170.317 Y145.858 E4.08427
G1 X169.648 Y145.468 E4.14393
G1 X169.156 Y145.266 E4.18487
G1 X168.523 Y145.098 E4.23533
G1 X167.769 Y144.989 E4.29405
G1 X167.238 Y144.993 E4.33492
G1 X166.734 Y145.044 E4.37393
G1 X166.184 Y145.161 E4.41721
G1 X165.609 Y145.359 E4.46406
G1 X164.929 Y145.693 E4.5224
G1 X164.364 Y146.078 E4.57505
G1 X163.9 Y146.517 E4.62425
G1 X163.492 Y146.987 E4.67221
G1 X163.082 Y147.614 E4.72987
G1 X162.825 Y148.198 E4.77904
G1 X162.639 Y148.769 E4.82529
G1 X162.532 Y149.321 E4.86858
G1 X162.492 Y149.89 E4.91252
G1 X162.531 Y150.635 E4.96998
G1 X162.597 Y151.078 E5.00448
G1 X162.774 Y151.68 E5.05282
G1 X162.97 Y152.154 E5.09231
G1 X163.226 Y152.617 E5.13308
G1 X163.683 Y153.254 E5.19346
G1 X162.978 Y153.626 E5.25489
G1 X162.534 Y153.937 E5.29662
G1 X161.84 Y154.542 E5.36757
G1 X161.465 Y155.002 E5.41324
G1 X161.074 Y155.563 E5.46594
G1 X160.753 Y156.182 E5.51961
G1 X160.425 Y155.924 E5.55171
G1 X159.789 Y155.531 E5.60927
G1 X159.274 Y155.313 E5.6524
G1 X158.731 Y155.139 E5.69627
G1 X157.962 Y155 E5.75645
G1 X157.436 Y154.991 E5.79701
G1 X156.734 Y155.044 E5.8512
G1 X156.035 Y155.198 E5.90634
G1 X155.537 Y155.391 E5.94744
G1 X154.875 Y155.726 E6.00463
G1 X154.452 Y156.017 E6.04418
G1 X154.094 Y156.32 E6.08027
G1 X153.6 Y156.839 E6.13548
G1 X153.298 Y157.276 E6.17638
G1 X152.972 Y157.829 E6.22578
G1 X152.725 Y158.464 E6.27829
G1 X152.609 Y158.889 E6.31223
G1 X152.521 Y159.395 E6.35176
G1 X152.487 Y159.849 E6.38682
G1 X152.499 Y160.381 E6.42781
G1 X152.578 Y160.943 E6.4715
G1 X152.804 Y161.762 E6.53692
G1 X153.009 Y162.232 E6.57647
G1 X153.335 Y162.781 E6.62564
G1 X153.701 Y163.283 E6.6735
G1 X154.074 Y163.653 E6.71394
G1 X154.592 Y164.087 E6.766
G1 X155.087 Y164.401 E6.81111
G1 X155.679 Y164.665 E6.86104
G1 X156.371 Y164.886 E6.91699
G1 X156.896 Y164.979 E6.95806
G1 X157.48 Y165.01 E7.0031
G1 X158.139 Y164.98 E7.05392
G1 X158.75 Y164.854 E7.10197
G1 X159.262 Y164.696 E7.1432
G1 X159.732 Y164.491 E7.18275
G1 X160.141 Y164.262 E7.21885
G1 X160.602 Y163.94 E7.26215
G1 X161.04 Y163.546 E7.30752
G1 X161.586 Y162.908 E7.37222
G1 X161.874 Y162.457 E7.41345
G1 X162.242 Y162.798 E7.45215
G1 X162.697 Y163.161 E7.49696
G1 X163.191 Y163.462 E7.54153
G1 X163.87 Y163.8 E7.5999
G1 X164.487 Y163.991 E7.64963
G1 X165.214 Y164.148 E7.70698
G1 X165.861 Y164.199 E7.75693
G1 X166.472 Y164.172 E7.80401
G1 X166.144 Y164.38 E7.83393
G1 X165.377 Y164.814 E7.90179
G1 X164.588 Y165.207 E7.96963
G1 X163.862 Y165.525 E8.03071
G1 X163.033 Y165.839 E8.09896
G1 X162.33 Y166.068 E8.15588
G1 X161.562 Y166.279 E8.2173
G1 X160.701 Y166.47 E8.28515
G1 X159.832 Y166.615 E8.35301
G1 X159.04 Y166.707 E8.41444
G1 X158.3 Y166.759 E8.47161
G1 X157.5 Y166.778 E8.53322
G1 X156.7 Y166.759 E8.59484
G1 X155.96 Y166.707 E8.65201
G1 X155.168 Y166.615 E8.71343
G1 X154.299 Y166.47 E8.78129
G1 X153.438 Y166.279 E8.84914
G1 X152.67 Y166.068 E8.91057
G1 X151.967 Y165.839 E8.96749
G1 X151.138 Y165.525 E9.03573
G1 X150.412 Y165.207 E9.09681
G1 X149.623 Y164.814 E9.16466
G1 X148.856 Y164.38 E9.23252
G1 X148.183 Y163.953 E9.29393
G1 X147.577 Y163.529 E9.35087
G1 X146.877 Y162.986 E9.41912
G1 X146.275 Y162.47 E9.48017
G1 X145.636 Y161.864 E9.54803
G1 X145.03 Y161.225 E9.61588
G1 X144.514 Y160.623 E9.67694
G1 X143.971 Y159.923 E9.74519
G1 X143.547 Y159.317 E9.80213
G1 X143.12 Y158.644 E9.86354
G1 X142.686 Y157.877 E9.9314
G1 X142.293 Y157.088 E9.99925
G1 X141.975 Y156.362 E10.06032
G1 X141.661 Y155.533 E10.12858
G1 X141.432 Y154.83 E10.18549
G1 X141.221 Y154.062 E10.24691
G1 X141.03 Y153.201 E10.31477
G1 X140.885 Y152.332 E10.38262
G1 X140.793 Y151.54 E10.44406
G1 X140.741 Y150.8 E10.50122
G1 X140.722 Y150 E10.56283
G1 X140.741 Y149.2 E10.62445
G1 X140.793 Y148.46 E10.68161
G1 X140.885 Y147.668 E10.74304
G1 X141.03 Y146.799 E10.8109
G1 X141.221 Y145.938 E10.87876
G1 X141.432 Y145.17 E10.94017
G1 X141.661 Y144.467 E10.99709
G1 X141.975 Y143.638 E11.06535
G1 X142.293 Y142.912 E11.12642
G1 X142.686 Y142.123 E11.19427
G1 X143.33 Y141.025 E11.2923
G1 X143.304 Y141.739 E11.3473
G1 X143.354 Y142.256 E11.38733
G1 X143.457 Y142.84 E11.43301
G1 X143.659 Y143.506 E11.48658
G1 X143.839 Y143.938 E11.52264
G1 X144.251 Y144.682 E11.58814
G1 X144.58 Y145.105 E11.62939
G1 X145.038 Y145.625 E11.68279
G1 X144.286 Y146.142 E11.75304
G1 X143.842 Y146.58 E11.8011
G1 X143.413 Y147.092 E11.85257
G1 X143.099 Y147.587 E11.89768
G1 X142.835 Y148.179 E11.9476
G1 X142.614 Y148.871 E12.00356
G1 X142.521 Y149.396 E12.04462
G1 X142.49 Y149.98 E12.08966
G1 X142.52 Y150.639 E12.14048
G1 X142.646 Y151.25 E12.18853
G1 X142.815 Y151.787 E12.2319
G1 X143.112 Y152.44 E12.28715
G1 X143.504 Y153.022 E12.34125
G1 X143.866 Y153.457 E12.38479
G1 X144.592 Y154.086 E12.45878
G1 X145.025 Y154.362 E12.49832
G1 X145.437 Y154.571 E12.53389
G1 X145.946 Y154.768 E12.57591
G1 X146.443 Y154.901 E12.61554
G1 X147.231 Y155.011 E12.67681
G1 X147.751 Y155.005 E12.71687
G1 X148.29 Y154.952 E12.75863
G1 X148.823 Y154.837 E12.80058
G1 X149.262 Y154.696 E12.83614
G1 X149.732 Y154.491 E12.87564
G1 X150.136 Y154.266 E12.9112
G1 X150.583 Y153.955 E12.95315
G1 X150.938 Y153.651 E12.9892
G1 X151.415 Y153.144 E13.04276
G1 X151.727 Y152.687 E13.08542
G1 X152.071 Y152.063 E13.14027
G1 X152.322 Y151.398 E13.19504
G1 X152.433 Y150.877 E13.23605
G1 X152.511 Y150.194 E13.28903
G1 X152.501 Y149.632 E13.33232
G1 X152.446 Y149.166 E13.36841
G1 X152.335 Y148.665 E13.40796
G1 X152.196 Y148.238 E13.44249
G1 X151.991 Y147.768 E13.48204
G1 X151.732 Y147.315 E13.52224
G1 X151.319 Y146.744 E13.57649
G1 X151.95 Y146.418 E13.63125
G1 X152.341 Y146.16 E13.6673
G1 X152.792 Y145.794 E13.71205
G1 X153.222 Y145.381 E13.75793
G1 X153.66 Y144.841 E13.81151
G1 X153.918 Y144.45 E13.84756
G1 X154.247 Y143.818 E13.90246
G1 X154.592 Y144.087 E13.93614
G1 X155.025 Y144.362 E13.97564
G1 X155.437 Y144.571 E14.01121
G1 X156.231 Y144.858 E14.07625
G1 X156.852 Y144.974 E14.12488
G1 X157.414 Y145.009 E14.16827
G1 X158.043 Y144.991 E14.2167
G1 X158.644 Y144.877 E14.26385
G1 X159.262 Y144.696 E14.3134
G1 X159.907 Y144.407 E14.36789
G1 X160.473 Y144.03 E14.42028
G1 X160.957 Y143.634 E14.46841
G1 X161.435 Y143.119 E14.52256
G1 X161.766 Y142.621 E14.56862
G1 X162.039 Y142.146 E14.61076
G1 X162.275 Y141.536 E14.66116
G1 X162.391 Y141.111 E14.6951
G1 X162.495 Y140.494 E14.7433
G1 X162.504 Y139.75 E14.80061
G1 X162.446 Y139.166 E14.84577
G1 X162.335 Y138.665 E14.88532
G1 X162.196 Y138.238 E14.91986
G1 X161.991 Y137.767 E14.95946
G1 X161.721 Y137.298 E15.00115
G1 X161.385 Y136.819 E15.04623
G1 X160.967 Y136.389 E15.09239
G1 X160.425 Y135.924 E15.14738
G1 X159.654 Y135.471 E15.21626
G1 X159.18 Y135.274 E15.25579
G1 X158.731 Y135.139 E15.29189
G1 X158.179 Y135.032 E15.33518
G1 X157.713 Y134.989 E15.37128
G1 X157.2 Y134.993 E15.41077
G1 X156.734 Y135.044 E15.44687
G1 X156.236 Y135.15 E15.4861
G1 X155.713 Y135.315 E15.52832
G1 X155.06 Y135.612 E15.58359
G1 X154.467 Y136.007 E15.63848
G1 X154.094 Y136.32 E15.67597
G1 X153.703 Y136.724 E15.71927
G1 X153.413 Y137.092 E15.75536
G1 X153.128 Y137.541 E15.79628
G1 X152.748 Y137.198 E15.83572
G1 X152.306 Y136.837 E15.87964
G1 X151.788 Y136.531 E15.92599
G1 X151.146 Y136.205 E15.98144
G1 X150.502 Y136.005 E16.03337
G1 X149.88 Y135.866 E16.08249
G1 X149.223 Y135.804 E16.1333
G1 X148.522 Y135.832 E16.18731
G1 X148.856 Y135.62 E16.21777
G1 X149.623 Y135.186 E16.28563
G1 X150.412 Y134.793 E16.35347
G1 X151.138 Y134.475 E16.41455
G1 X151.967 Y134.161 E16.4828
G1 X152.67 Y133.932 E16.53972
G1 X153.438 Y133.721 E16.60114
G1 X154.299 Y133.53 E16.66899
G1 X155.168 Y133.385 E16.73685
G1 X155.955 Y133.293 E16.79792
G1 X156.839 Y133.235 E16.86616
G1 X157.578 Y133.222 E16.92309
G1 X158.376 Y133.245 E16.98452
G1 X159.254 Y133.314 E17.05236
G1 X160.127 Y133.429 E17.12022
G1 X160.912 Y133.573 E17.18164
G1 X161.635 Y133.74 E17.2388
G1 X162.403 Y133.954 E17.30023
G1 X163.241 Y134.235 E17.36828
G1 X163.979 Y134.524 E17.42935
G1 X164.787 Y134.887 E17.49761
G1 X165.446 Y135.223 E17.55453
G1 X166.139 Y135.617 E17.61596
G1 X166.884 Y136.092 E17.684
G1 X167.535 Y136.554 E17.74542
G1 X168.119 Y137.011 E17.80259
G1 X168.725 Y137.53 E17.86401
G1 X169.364 Y138.136 E17.93187
G1 X169.97 Y138.775 E17.99972
G1 X170.486 Y139.377 E18.06078
G1 X171.029 Y140.077 E18.12903
G1 X171.453 Y140.683 E18.18597
G1 X171.88 Y141.356 E18.24738
G1 X172.314 Y142.123 E18.31524
G1 X172.707 Y142.912 E18.38309
G1 X173.025 Y143.638 E18.44416
G1 X173.339 Y144.467 E18.51242
G1 X173.568 Y145.17 E18.56933
G1 X173.779 Y145.938 E18.63075
G1 X173.97 Y146.799 E18.69861
G1 X174.095 Y147.549 E18.75722
G1 X175.042 Y147.536 F9000
G1 F750
G1 X175.139 Y148.373 E18.82211
G1 X175.194 Y149.156 E18.88258
G1 X175.214 Y150 E18.94757
G1 X175.194 Y150.844 E19.01257
G1 X175.139 Y151.627 E19.07303
G1 X175.042 Y152.464 E19.13792
G1 X174.888 Y153.38 E19.20948
G1 X174.687 Y154.287 E19.28103
G1 X174.464 Y155.099 E19.3459
G1 X174.222 Y155.844 E19.40622
G1 X173.891 Y156.715 E19.47801
G1 X173.555 Y157.485 E19.54269
G1 X173.26 Y158.077 E19.59362
G1 X172.656 Y159.167 E19.68957
G1 X172.048 Y160.098 E19.77528
G1 X171.648 Y160.651 E19.82781
;WIDTH:1.02702
G1 X171.192 Y161.217 E19.88539
;WIDTH:1.02719
G1 X170.647 Y161.851 E19.95173
G1 X169.954 Y162.595 E20.03229
;WIDTH:1.03737
G1 X169.182 Y163.286 E20.11529
;WIDTH:1.07085
G1 X168.892 Y163.51 E20.14563
;WIDTH:1.10434
G1 X168.394 Y163.916 E20.20067
;WIDTH:1.06956
G1 X168.186 Y164.1 E20.22359
;WIDTH:1.03478
G1 X167.978 Y164.283 E20.24572
;WIDTH:1
G1 X167.336 Y164.732 E20.30605
G1 X166.625 Y165.183 E20.37092
G1 X165.816 Y165.64 E20.44248
G1 X164.985 Y166.055 E20.51402
G1 X164.215 Y166.391 E20.5787
G1 X163.344 Y166.722 E20.65048
G1 X162.599 Y166.964 E20.7108
G1 X161.787 Y167.187 E20.77568
G1 X160.88 Y167.388 E20.84723
G1 X159.964 Y167.542 E20.91879
G1 X159.127 Y167.639 E20.98367
G1 X158.344 Y167.694 E21.04414
G1 X157.5 Y167.714 E21.10914
G1 X156.656 Y167.694 E21.17414
G1 X155.873 Y167.639 E21.2346
G1 X155.036 Y167.542 E21.29949
