; generated by PrusaSlicer 2.5.0+linux-x64-GTK3 on 2023-10-08 at 04:08:41 UTC

; 

; external perimeters extrusion width = 1.00mm
; perimeters extrusion width = 1.00mm
; infill extrusion width = 1.00mm
; solid infill extrusion width = 1.00mm
; top infill extrusion width = 1.00mm
; support material extrusion width = 1.00mm
; first layer extrusion width = 1.00mm

M107
;TYPE:Custom
M190 S70 ;Heat up bed
M140 S0 ;Stop bed heater
G28 ;Home
G29 ;Autolevel
G1 X0 Y0 Z5 F6000.000
M140 S70 ;Turn bed back on
M106 S255 ;Turn on fans
M109 S225  ;Set extruder temp
G21 ; set units to millimeters
G90 ; use absolute coordinates
M82 ; use absolute distances for extrusion
G92 E0
; Filament gcode
M106 S255
;LAYER_CHANGE
;Z:0.3
;HEIGHT:0.3
G1 E-2 F1800
G92 E0
G1 Z.1 F9000
G1 X129.57 Y121.34
G1 E2 F1800
;TYPE:Skirt/Brim
;WIDTH:1
G1 F900
G1 X132.558 Y118.705 E2.30685
G1 X135.734 Y116.418 E2.60832
G1 X139.169 Y114.426 E2.91412
G1 X142.766 Y112.792 E3.21837
G1 X146.294 Y111.582 E3.50564
G1 X150.169 Y110.659 E3.81248
G1 X154.08 Y110.128 E4.1164
G1 X158.016 Y109.985 E4.41978
G1 X161.992 Y110.235 E4.72661
G1 X165.856 Y110.863 E5.02811
G1 X169.693 Y111.884 E5.33391
G1 X173.422 Y113.285 E5.64076
G1 X176.933 Y115.016 E5.94225
G1 X180.135 Y116.998 E6.23227
G1 X183.275 Y119.388 E6.53619
G1 X186.16 Y122.07 E6.83956
G1 X188.795 Y125.058 E7.1464
G1 X191.082 Y128.234 E7.44788
G1 X193.074 Y131.669 E7.75367
G1 X194.708 Y135.266 E8.05792
G1 X195.918 Y138.794 E8.34519
G1 X196.841 Y142.669 E8.65204
G1 X197.372 Y146.579 E8.95595
G1 X197.515 Y150.516 E9.25934
G1 X197.265 Y154.492 E9.56617
G1 X196.637 Y158.356 E9.86766
G1 X195.616 Y162.193 E10.17347
G1 X194.215 Y165.922 E10.48031
G1 X192.484 Y169.433 E10.7818
G1 X190.502 Y172.635 E11.07182
G1 X188.112 Y175.775 E11.37574
G1 X185.43 Y178.66 E11.67911
G1 X182.442 Y181.295 E11.98596
G1 X179.266 Y183.582 E12.28743
G1 X175.831 Y185.574 E12.59323
G1 X172.234 Y187.208 E12.89748
G1 X168.706 Y188.418 E13.18475
G1 X164.831 Y189.341 E13.4916
G1 X160.92 Y189.872 E13.79551
G1 X156.984 Y190.015 E14.09889
G1 X153.008 Y189.765 E14.40572
G1 X149.144 Y189.137 E14.70722
G1 X145.307 Y188.116 E15.01302
G1 X141.578 Y186.715 E15.31987
G1 X138.067 Y184.984 E15.62136
G1 X134.865 Y183.002 E15.91138
G1 X131.725 Y180.612 E16.2153
G1 X128.84 Y177.93 E16.51867
G1 X126.205 Y174.942 E16.82551
G1 X123.918 Y171.766 E17.12699
G1 X121.926 Y168.331 E17.43279
G1 X120.292 Y164.734 E17.73703
G1 X119.082 Y161.206 E18.0243
G1 X118.159 Y157.331 E18.33115
G1 X117.628 Y153.42 E18.63507
G1 X117.485 Y149.484 E18.93845
G1 X117.735 Y145.508 E19.24528
G1 X118.363 Y141.644 E19.54677
G1 X119.384 Y137.807 E19.85258
G1 X120.785 Y134.078 E20.15942
G1 X122.516 Y130.567 E20.46091
G1 X124.498 Y127.365 E20.75093
G1 X126.888 Y124.225 E21.05486
G1 X129.488 Y121.428 E21.34898
G1 X130.172 Y122.063 F9000
G1 F900
G1 X133.128 Y119.447 E21.65296
G1 X136.23 Y117.211 E21.94752
G1 X139.584 Y115.265 E22.2462
G1 X143.096 Y113.668 E22.54332
G1 X146.541 Y112.485 E22.82389
G1 X150.324 Y111.582 E23.1234
G1 X154.142 Y111.062 E23.42021
G1 X157.989 Y110.92 E23.71667
G1 X161.87 Y111.162 E24.01616
G1 X165.645 Y111.775 E24.31074
G1 X169.393 Y112.77 E24.60943
G1 X173.034 Y114.137 E24.90894
G1 X176.465 Y115.827 E25.20352
G1 X179.592 Y117.76 E25.48662
G1 X182.659 Y120.092 E25.78344
G1 X185.479 Y122.712 E26.07987
G1 X188.053 Y125.628 E26.37938
G1 X190.289 Y128.73 E26.67395
G1 X192.235 Y132.084 E26.97262
G1 X193.832 Y135.596 E27.26974
G1 X195.015 Y139.041 E27.55031
G1 X195.918 Y142.824 E27.84983
G1 X196.438 Y146.642 E28.14663
G1 X196.58 Y150.489 E28.44309
G1 X196.338 Y154.37 E28.74259
G1 X195.725 Y158.145 E29.03716
G1 X194.73 Y161.893 E29.33585
G1 X193.363 Y165.534 E29.63536
G1 X191.673 Y168.965 E29.92993
G1 X189.74 Y172.092 E30.21305
G1 X187.408 Y175.159 E30.50986
G1 X184.788 Y177.979 E30.8063
G1 X181.872 Y180.553 E31.10581
G1 X178.77 Y182.789 E31.40038
G1 X175.416 Y184.735 E31.69905
G1 X171.904 Y186.332 E31.99617
G1 X168.459 Y187.515 E32.27674
G1 X164.676 Y188.418 E32.57625
G1 X160.858 Y188.938 E32.87307
G1 X157.011 Y189.08 E33.16952
G1 X153.13 Y188.838 E33.46901
G1 X149.355 Y188.225 E33.76359
G1 X145.607 Y187.23 E34.06228
G1 X141.966 Y185.863 E34.36179
G1 X138.535 Y184.173 E34.65637
G1 X135.408 Y182.24 E34.93947
G1 X132.341 Y179.908 E35.23629
G1 X129.521 Y177.288 E35.53273
G1 X126.947 Y174.372 E35.83224
G1 X124.711 Y171.27 E36.1268
G1 X122.765 Y167.916 E36.42548
G1 X121.168 Y164.404 E36.7226
G1 X119.985 Y160.959 E37.00317
G1 X119.082 Y157.176 E37.30268
G1 X118.562 Y153.358 E37.59949
G1 X118.42 Y149.511 E37.89594
G1 X118.662 Y145.63 E38.19544
G1 X119.275 Y141.855 E38.49001
G1 X120.27 Y138.107 E38.78871
G1 X121.637 Y134.466 E39.08821
G1 X123.327 Y131.035 E39.38278
G1 X125.26 Y127.908 E39.6659
G1 X127.592 Y124.841 E39.96272
G1 X130.09 Y122.151 E40.24542
;WIPE_START
G1 F7200
G1 X133.128 Y119.447 E39.27968
G1 X136.23 Y117.211 E38.37134
G1 X136.325 Y117.157 E38.34542
;WIPE_END
G1 E38.24542 F1800
G92 E0
G1 X152.03 Y124.818 F9000
G1 E2 F1800
;TYPE:Perimeter
;WIDTH:1
G1 F750
G1 X152.581 Y124.696 E2.04349
G1 X153.916 Y124.472 E2.14771
G1 X155.068 Y124.338 E2.23707
;WIDTH:1.04579
G1 X155.188 Y124.352 E2.24683
;WIDTH:1.09157
G1 X155.308 Y124.367 E2.25705
;WIDTH:1.13736
G1 X155.428 Y124.381 E2.26772
;WIDTH:1.18176
G1 X155.508 Y124.398 E2.27524
;WIDTH:1.22617
G1 X155.588 Y124.415 E2.28305
;WIDTH:1.27057
G1 X155.668 Y124.432 E2.29116
;WIDTH:1.31497
G1 X155.748 Y124.449 E2.29957
;WIDTH:1.35937
G1 X155.828 Y124.465 E2.30827
;WIDTH:1.40378
G1 X155.908 Y124.482 E2.31728
;WIDTH:1.44818
G1 X155.988 Y124.499 E2.32658
G1 X156.094 Y124.488 E2.33883
;WIDTH:1.43972
G1 X156.643 Y124.44 E2.40121
;WIDTH:1.39926
G1 X157.225 Y124.418 E2.46515
;WIDTH:1.37558
G1 X157.808 Y124.415 E2.52814
;WIDTH:1.39635
G1 X158.322 Y124.44 E2.58454
;WIDTH:1.42267
G1 X158.67 Y124.468 E2.62361
;WIDTH:1.44898
G1 X159.019 Y124.496 E2.66344
G1 X159.114 Y124.478 E2.67448
;WIDTH:1.39909
G1 X159.209 Y124.461 E2.68512
;WIDTH:1.34921
G1 X159.304 Y124.443 E2.69536
;WIDTH:1.29932
G1 X159.4 Y124.426 E2.70521
;WIDTH:1.24943
G1 X159.495 Y124.408 E2.71465
;WIDTH:1.19955
G1 X159.59 Y124.391 E2.7237
;WIDTH:1.14966
G1 X159.685 Y124.373 E2.73236
;WIDTH:1.09977
G1 X159.781 Y124.356 E2.74061
;WIDTH:1.04989
G1 X159.876 Y124.338 E2.74847
;WIDTH:1
G1 X160.194 Y124.363 E2.77307
G1 X161.536 Y124.54 E2.87728
G1 X162.706 Y124.753 E2.96885
G1 X163.885 Y125.025 E3.06208
G1 X165.19 Y125.396 E3.16656
G1 X166.314 Y125.775 E3.2579
G1 X167.572 Y126.271 E3.3621
G1 X168.803 Y126.832 E3.4663
G1 X169.86 Y127.378 E3.55787
G1 X170.911 Y127.986 E3.6514
G1 X171.912 Y128.627 E3.74297
G1 X173.016 Y129.415 E3.84743
G1 X173.873 Y130.093 E3.93158
;WIDTH:1.04589
G1 X174.03 Y130.257 E3.94996
;WIDTH:1.09178
G1 X174.187 Y130.422 E3.96919
;WIDTH:1.14148
G1 X174.239 Y130.499 E3.97745
;WIDTH:1.19119
G1 X174.29 Y130.577 E3.9861
;WIDTH:1.24089
G1 X174.341 Y130.655 E3.99512
;WIDTH:1.2906
G1 X174.392 Y130.733 E4.00452
;WIDTH:1.3403
G1 X174.444 Y130.811 E4.01431
;WIDTH:1.39001
G1 X174.495 Y130.889 E4.02448
;WIDTH:1.43971
G1 X174.546 Y130.966 E4.03503
G1 X174.928 Y131.285 E4.09133
;WIDTH:1.40414
G1 X175.726 Y132.039 E4.21247
;WIDTH:1.39248
G1 X176.121 Y132.47 E4.27633
;WIDTH:1.44196
G1 X176.565 Y132.984 E4.3534
G1 X176.645 Y133.04 E4.36441
;WIDTH:1.39286
G1 X176.725 Y133.095 E4.37503
;WIDTH:1.34375
G1 X176.804 Y133.151 E4.38525
;WIDTH:1.29464
G1 X176.884 Y133.206 E4.39508
;WIDTH:1.24554
G1 X176.964 Y133.262 E4.40452
;WIDTH:1.19643
G1 X177.043 Y133.317 E4.41356
;WIDTH:1.14732
G1 X177.123 Y133.373 E4.42222
;WIDTH:1.09821
G1 X177.203 Y133.428 E4.43048
;WIDTH:1.04911
G1 X177.282 Y133.483 E4.43835
;WIDTH:1
G1 X177.533 Y133.777 E4.46812
G1 X178.357 Y134.851 E4.57233
G1 X179.033 Y135.829 E4.66389
G1 X179.674 Y136.855 E4.75712
G1 X180.335 Y138.04 E4.8616
G1 X180.861 Y139.103 E4.95293
G1 X181.402 Y140.347 E5.0574
G1 X181.822 Y141.459 E5.14898
G1 X182.197 Y142.614 E5.24248
G1 X182.511 Y143.76 E5.33406
G1 X182.804 Y145.081 E5.43826
G1 X183.028 Y146.416 E5.54248
G1 X183.149 Y147.456 E5.62317
;WIDTH:1.04544
G1 X183.147 Y147.718 E5.64432
;WIDTH:1.09088
G1 X183.146 Y147.98 E5.66646
;WIDTH:1.14025
G1 X183.127 Y148.072 E5.67471
;WIDTH:1.18961
G1 X183.109 Y148.163 E5.68334
;WIDTH:1.23898
G1 X183.09 Y148.254 E5.69235
;WIDTH:1.28835
G1 X183.071 Y148.345 E5.70174
;WIDTH:1.33771
G1 X183.053 Y148.437 E5.7115
;WIDTH:1.38708
G1 X183.034 Y148.528 E5.72165
;WIDTH:1.43645
G1 X183.016 Y148.619 E5.73217
G1 X183.055 Y149.045 E5.78049
;WIDTH:1.40654
G1 X183.08 Y149.653 E5.84766
;WIDTH:1.37702
G1 X183.089 Y150.172 E5.90372
;WIDTH:1.39389
G1 X183.062 Y150.785 E5.97093
;WIDTH:1.41981
G1 X183.035 Y151.137 E6.01026
;WIDTH:1.44572
G1 X183.008 Y151.488 E6.05034
G1 X183.025 Y151.584 E6.06145
;WIDTH:1.3962
G1 X183.043 Y151.68 E6.07215
;WIDTH:1.34667
G1 X183.06 Y151.776 E6.08246
;WIDTH:1.29715
G1 X183.077 Y151.872 E6.09237
;WIDTH:1.24762
G1 X183.095 Y151.969 E6.10188
;WIDTH:1.1981
G1 X183.112 Y152.065 E6.11099
;WIDTH:1.14857
G1 X183.129 Y152.161 E6.11971
;WIDTH:1.09905
G1 X183.146 Y152.257 E6.12802
;WIDTH:1.04952
G1 X183.164 Y152.353 E6.13594
;WIDTH:1
G1 X183.137 Y152.694 E6.16233
G1 X182.96 Y154.036 E6.26654
G1 X182.747 Y155.205 E6.3581
G1 X182.475 Y156.385 E6.45133
G1 X182.104 Y157.69 E6.55582
G1 X181.725 Y158.814 E6.64715
G1 X181.229 Y160.072 E6.75135
G1 X180.668 Y161.303 E6.85555
G1 X180.122 Y162.359 E6.94712
G1 X179.514 Y163.411 E7.04066
G1 X178.873 Y164.412 E7.13222
G1 X178.085 Y165.516 E7.23669
G1 X177.366 Y166.426 E7.32605
;WIDTH:1.04577
G1 X177.259 Y166.514 E7.33721
;WIDTH:1.09153
G1 X177.153 Y166.602 E7.34889
;WIDTH:1.13638
G1 X177.084 Y166.647 E7.35614
;WIDTH:1.18124
G1 X177.015 Y166.692 E7.36369
;WIDTH:1.22609
G1 X176.946 Y166.737 E7.37155
;WIDTH:1.27094
G1 X176.877 Y166.781 E7.37971
;WIDTH:1.3158
G1 X176.808 Y166.826 E7.38817
;WIDTH:1.36065
G1 X176.739 Y166.871 E7.39694
;WIDTH:1.4055
G1 X176.67 Y166.916 E7.406
;WIDTH:1.45036
G1 X176.601 Y166.96 E7.41538
G1 X176.282 Y167.352 E7.47306
;WIDTH:1.41219
G1 X175.83 Y167.846 E7.54734
;WIDTH:1.37703
G1 X175.472 Y168.215 E7.60285
;WIDTH:1.39246
G1 X175.031 Y168.621 E7.66847
;WIDTH:1.44196
G1 X174.516 Y169.065 E7.74556
G1 X174.46 Y169.145 E7.75657
;WIDTH:1.39286
G1 X174.405 Y169.225 E7.76718
;WIDTH:1.34375
G1 X174.349 Y169.304 E7.77741
;WIDTH:1.29464
G1 X174.294 Y169.384 E7.78724
;WIDTH:1.24554
G1 X174.238 Y169.464 E7.79667
;WIDTH:1.19643
G1 X174.183 Y169.543 E7.80572
;WIDTH:1.14732
G1 X174.127 Y169.623 E7.81437
;WIDTH:1.09821
G1 X174.072 Y169.703 E7.82263
;WIDTH:1.04911
G1 X174.017 Y169.782 E7.8305
;WIDTH:1
G1 X173.723 Y170.033 E7.86028
G1 X172.649 Y170.857 E7.96448
G1 X171.671 Y171.533 E8.05604
G1 X170.645 Y172.175 E8.14928
G1 X169.46 Y172.835 E8.25376
G1 X168.397 Y173.361 E8.34509
G1 X167.153 Y173.902 E8.44956
G1 X166.041 Y174.322 E8.54114
G1 X164.886 Y174.697 E8.63465
G1 X163.74 Y175.011 E8.72621
G1 X162.419 Y175.304 E8.83042
G1 X161.084 Y175.528 E8.93463
G1 X160.067 Y175.647 E9.01354
;WIDTH:1.04581
G1 X159.82 Y175.644 E9.03346
;WIDTH:1.09161
G1 X159.574 Y175.642 E9.0543
;WIDTH:1.13539
G1 X159.494 Y175.625 E9.0615
;WIDTH:1.17916
G1 X159.414 Y175.609 E9.069
;WIDTH:1.22293
G1 X159.334 Y175.592 E9.07678
;WIDTH:1.26671
G1 X159.254 Y175.575 E9.08486
;WIDTH:1.31048
G1 X159.174 Y175.559 E9.09324
;WIDTH:1.35425
G1 X159.094 Y175.542 E9.10191
;WIDTH:1.39803
G1 X159.014 Y175.526 E9.11088
;WIDTH:1.4418
G1 X158.934 Y175.509 E9.12013
G1 X158.396 Y175.558 E9.18139
;WIDTH:1.40114
G1 X157.842 Y175.58 E9.24241
;WIDTH:1.37703
G1 X157.328 Y175.588 E9.29789
;WIDTH:1.39456
G1 X156.701 Y175.561 E9.3667
;WIDTH:1.4352
G1 X156.149 Y175.524 E9.42909
G1 X156.056 Y175.542 E9.43976
;WIDTH:1.38531
G1 X155.963 Y175.56 E9.45004
;WIDTH:1.33542
G1 X155.87 Y175.577 E9.45993
;WIDTH:1.28553
G1 X155.778 Y175.595 E9.46943
;WIDTH:1.23564
G1 X155.685 Y175.613 E9.47855
;WIDTH:1.18576
G1 X155.592 Y175.63 E9.48727
;WIDTH:1.13587
G1 X155.444 Y175.642 E9.50039
;WIDTH:1.09058
G1 X155.295 Y175.653 E9.51295
;WIDTH:1.04529
G1 X155.147 Y175.664 E9.52495
;WIDTH:1
G1 X154.806 Y175.637 E9.55133
G1 X153.464 Y175.46 E9.65555
G1 X152.294 Y175.247 E9.74711
G1 X151.115 Y174.975 E9.84034
G1 X149.81 Y174.604 E9.94482
G1 X148.686 Y174.225 E10.03616
G1 X147.428 Y173.729 E10.14036
G1 X146.197 Y173.168 E10.24456
G1 X145.14 Y172.622 E10.33613
G1 X144.089 Y172.014 E10.42966
G1 X143.088 Y171.373 E10.52123
G1 X141.984 Y170.585 E10.62569
G1 X141.073 Y169.865 E10.71506
;WIDTH:1.03937
G1 X141.018 Y169.791 E10.72252
;WIDTH:1.07874
G1 X140.962 Y169.717 E10.73028
;WIDTH:1.11811
G1 X140.906 Y169.643 E10.73834
;WIDTH:1.16558
G1 X140.854 Y169.565 E10.7468
;WIDTH:1.21304
G1 X140.801 Y169.488 E10.75563
;WIDTH:1.2605
G1 X140.749 Y169.411 E10.76482
;WIDTH:1.30797
G1 X140.697 Y169.333 E10.77438
;WIDTH:1.35543
G1 X140.644 Y169.256 E10.78431
;WIDTH:1.40289
G1 X140.592 Y169.179 E10.7946
;WIDTH:1.45036
G1 X140.54 Y169.101 E10.80525
G1 X140.061 Y168.706 E10.87606
;WIDTH:1.40114
G1 X139.654 Y168.33 E10.93707
;WIDTH:1.37703
G1 X139.285 Y167.972 E10.99257
;WIDTH:1.39247
G1 X138.879 Y167.531 E11.05819
;WIDTH:1.43411
G1 X138.496 Y167.093 E11.1237
G1 X138.41 Y167.029 E11.13584
;WIDTH:1.38588
G1 X138.323 Y166.965 E11.14755
;WIDTH:1.33764
G1 X138.237 Y166.901 E11.15883
;WIDTH:1.28941
G1 X138.15 Y166.837 E11.16968
;WIDTH:1.24117
G1 X138.064 Y166.773 E11.18011
;WIDTH:1.19294
G1 X137.977 Y166.709 E11.19011
;WIDTH:1.1447
G1 X137.891 Y166.645 E11.19968
;WIDTH:1.09647
G1 X137.804 Y166.581 E11.20883
;WIDTH:1.04823
G1 X137.718 Y166.517 E11.21754
;WIDTH:1
G1 X137.467 Y166.223 E11.24732
G1 X136.643 Y165.149 E11.35152
G1 X135.967 Y164.171 E11.44308
G1 X135.325 Y163.145 E11.53632
G1 X134.665 Y161.96 E11.6408
G1 X134.139 Y160.897 E11.73213
G1 X133.598 Y159.653 E11.8366
G1 X133.178 Y158.541 E11.92818
G1 X132.803 Y157.386 E12.02169
G1 X132.489 Y156.24 E12.11325
G1 X132.196 Y154.919 E12.21746
G1 X131.972 Y153.584 E12.32167
G1 X131.838 Y152.432 E12.41103
;WIDTH:1.04579
G1 X131.852 Y152.312 E12.42079
;WIDTH:1.09157
G1 X131.867 Y152.192 E12.43101
;WIDTH:1.13736
G1 X131.881 Y152.072 E12.44168
;WIDTH:1.18085
G1 X131.897 Y151.981 E12.45018
;WIDTH:1.22435
G1 X131.912 Y151.89 E12.45901
;WIDTH:1.26784
G1 X131.928 Y151.799 E12.46817
;WIDTH:1.31133
G1 X131.944 Y151.707 E12.47767
;WIDTH:1.35482
G1 X131.959 Y151.616 E12.48749
;WIDTH:1.39831
G1 X131.975 Y151.525 E12.49765
;WIDTH:1.4418
G1 X131.991 Y151.434 E12.50814
G1 X131.942 Y150.896 E12.5694
;WIDTH:1.40114
G1 X131.911 Y149.844 E12.68523
;WIDTH:1.37703
G1 X131.912 Y149.828 E12.68688
;WIDTH:1.39456
G1 X131.939 Y149.201 E12.75568
;WIDTH:1.4352
G1 X131.976 Y148.649 E12.81808
G1 X131.958 Y148.556 E12.82875
;WIDTH:1.38531
G1 X131.94 Y148.463 E12.83903
;WIDTH:1.33543
G1 X131.923 Y148.37 E12.84892
;WIDTH:1.28554
G1 X131.905 Y148.278 E12.85842
;WIDTH:1.23565
G1 X131.887 Y148.185 E12.86753
;WIDTH:1.18576
G1 X131.87 Y148.092 E12.87626
;WIDTH:1.13587
G1 X131.858 Y147.944 E12.88937
;WIDTH:1.09058
G1 X131.847 Y147.795 E12.90193
;WIDTH:1.04529
G1 X131.836 Y147.647 E12.91394
;WIDTH:1
G1 X131.863 Y147.306 E12.94032
G1 X132.04 Y145.964 E13.04453
G1 X132.253 Y144.795 E13.13609
G1 X132.525 Y143.615 E13.22933
G1 X132.896 Y142.31 E13.33382
G1 X133.275 Y141.187 E13.42515
G1 X133.771 Y139.928 E13.52934
G1 X134.332 Y138.697 E13.63355
G1 X134.878 Y137.641 E13.72511
G1 X135.486 Y136.589 E13.81865
G1 X136.127 Y135.588 E13.91021
G1 X136.915 Y134.484 E14.01468
G1 X137.607 Y133.609 E14.10061
;WIDTH:1.04139
G1 X137.701 Y133.53 E14.11047
;WIDTH:1.08278
G1 X137.796 Y133.452 E14.12074
;WIDTH:1.12417
G1 X137.89 Y133.374 E14.13144
;WIDTH:1.16557
G1 X137.985 Y133.296 E14.14255
;WIDTH:1.21205
G1 X138.057 Y133.249 E14.15069
;WIDTH:1.25854
G1 X138.129 Y133.202 E14.15916
;WIDTH:1.30502
G1 X138.201 Y133.155 E14.16797
;WIDTH:1.35151
G1 X138.273 Y133.108 E14.1771
;WIDTH:1.39799
G1 X138.346 Y133.06 E14.18657
;WIDTH:1.44448
G1 X138.418 Y133.013 E14.19636
G1 X138.821 Y132.532 E14.26766
;WIDTH:1.39926
G1 X139.216 Y132.105 E14.33159
;WIDTH:1.37557
G1 X139.627 Y131.691 E14.39457
;WIDTH:1.39679
G1 X140.012 Y131.342 E14.45159
;WIDTH:1.43685
G1 X140.407 Y130.997 E14.51086
G1 X140.454 Y130.929 E14.52021
;WIDTH:1.39303
G1 X140.5 Y130.86 E14.52926
;WIDTH:1.34921
