; generated by PrusaSlicer 2.5.0+linux-x64-GTK3 on 2023-10-08 at 02:58:29 UTC

; 

; external perimeters extrusion width = 1.00mm
; perimeters extrusion width = 1.00mm
; infill extrusion width = 1.00mm
; solid infill extrusion width = 1.00mm
; top infill extrusion width = 1.00mm
; support material extrusion width = 1.00mm
; first layer extrusion width = 1.00mm

M107
;TYPE:Custom
M190 S70 ;Heat up bed
M140 S0 ;Stop bed heater
G28 ;Home
G29 ;Autolevel
G1 X0 Y0 Z5 F6000.000
M140 S70 ;Turn bed back on
M106 S255 ;Turn on fans
M109 S225  ;Set extruder temp
G21 ; set units to millimeters
G90 ; use absolute coordinates
M82 ; use absolute distances for extrusion
G92 E0
; Filament gcode
M106 S255
;LAYER_CHANGE
;Z:0.3
;HEIGHT:0.3
G1 E-2 F1800
G92 E0
G1 Z.1 F9000
G1 X126.955 Y122.077
G1 E2 F1800
;TYPE:Skirt/Brim
;WIDTH:1
G1 F900
G1 X132.019 Y117.013 E2.55156
G1 X135.349 Y114.67 E2.86517
G1 X140.531 Y112.237 E3.30603
G1 X143.176 Y111.157 E3.52609
G1 X144.854 Y110.576 E3.66284
G1 X148.438 Y109.607 E3.94879
G1 X151.128 Y109.092 E4.15976
G1 X154.767 Y108.688 E4.44174
G1 X158.256 Y108.609 E4.71051
G1 X161.671 Y108.808 E4.97399
G1 X165.175 Y109.301 E5.24652
G1 X167.716 Y109.877 E5.44721
G1 X169.85 Y110.485 E5.61809
G1 X173.824 Y111.924 E5.94361
G1 X177.675 Y113.849 E6.2752
G1 X181.025 Y115.926 E6.57882
G1 X184.199 Y118.363 E6.88697
G1 X187.141 Y121.093 E7.19611
G1 X188.404 Y122.448 E7.33879
G1 X189.891 Y124.214 E7.51656
G1 X192.112 Y127.28 E7.80815
G1 X193.094 Y128.851 E7.95084
G1 X194.251 Y130.937 E8.1346
G1 X195.829 Y134.344 E8.42378
G1 X197.031 Y137.702 E8.69847
G1 X197.609 Y139.735 E8.86124
G1 X198.112 Y141.948 E9.03601
G1 X198.413 Y143.672 E9.17082
G1 X198.757 Y146.492 E9.38965
G1 X198.921 Y150.039 E9.66313
G1 X198.825 Y153.138 E9.90195
G1 X198.361 Y158.396 E10.30848
G1 X197.394 Y162.148 E10.6069
G1 X195.009 Y167.501 E11.0582
G1 X193.622 Y170.211 E11.29271
G1 X192.644 Y171.884 E11.44197
G1 X191.517 Y173.598 E11.59995
G1 X189.664 Y176.084 E11.83871
G1 X187.961 Y178.007 E12.0366
G1 X182.902 Y183.066 E12.58759
G1 X179.491 Y185.446 E12.90796
G1 X174.023 Y187.954 E13.37132
G1 X170.146 Y189.424 E13.69063
G1 X166.507 Y190.401 E13.98087
G1 X163.649 Y190.934 E14.20474
G1 X160.183 Y191.316 E14.47335
G1 X156.865 Y191.396 E14.72894
G1 X153.47 Y191.204 E14.99083
G1 X149.799 Y190.693 E15.2763
G1 X147.284 Y190.123 E15.47493
G1 X145.15 Y189.515 E15.64582
G1 X141.178 Y188.05 E15.97191
G1 X139.211 Y187.144 E16.13868
G1 X137.325 Y186.151 E16.30284
G1 X134.179 Y184.21 E16.58753
G1 X132.458 Y182.971 E16.75091
G1 X130.746 Y181.591 E16.92024
G1 X127.859 Y178.907 E17.22388
G1 X126.596 Y177.552 E17.3665
G1 X125.109 Y175.786 E17.5443
G1 X122.969 Y172.844 E17.82452
G1 X121.737 Y170.857 E18.00459
G1 X120.749 Y169.063 E18.16233
G1 X119.659 Y166.797 E18.35598
G1 X119.018 Y165.271 E18.48349
G1 X118.172 Y162.942 E18.67431
G1 X117.669 Y161.275 E18.80843
G1 X116.829 Y157.747 E19.08772
G1 X116.424 Y155.168 E19.28884
G1 X116.242 Y153.454 E19.4216
G1 X116.104 Y149.375 E19.73589
G1 X116.355 Y145.419 E20.04121
G1 X116.96 Y141.593 E20.33952
G1 X118.182 Y136.111 E20.77214
G1 X119.672 Y132.454 E21.07631
G1 X123.088 Y126.979 E21.57331
G1 X124.97 Y124.388 E21.81996
G1 X126.877 Y122.168 E22.04538
G1 X127.585 Y122.775 F9000
G1 F900
G1 X132.681 Y117.674 E22.60067
G1 X135.749 Y115.516 E22.88956
G1 X140.915 Y113.09 E23.32916
G1 X143.527 Y112.024 E23.54643
G1 X145.131 Y111.469 E23.67717
G1 X148.664 Y110.515 E23.95904
G1 X151.27 Y110.017 E24.1634
G1 X154.82 Y109.622 E24.43846
G1 X158.228 Y109.544 E24.70105
G1 X161.585 Y109.74 E24.96003
G1 X164.976 Y110.215 E25.22376
G1 X167.493 Y110.786 E25.42257
G1 X169.582 Y111.381 E25.58983
G1 X173.427 Y112.772 E25.90477
G1 X177.226 Y114.67 E26.23184
G1 X180.505 Y116.704 E26.52902
G1 X183.604 Y119.086 E26.83005
G1 X186.465 Y121.74 E27.13061
G1 X187.712 Y123.077 E27.27141
G1 X189.156 Y124.793 E27.44414
G1 X191.325 Y127.786 E27.72883
G1 X192.294 Y129.336 E27.86963
G1 X193.419 Y131.365 E28.04835
G1 X194.966 Y134.706 E28.33188
G1 X196.133 Y137.966 E28.59853
G1 X196.706 Y139.981 E28.75991
G1 X197.196 Y142.138 E28.93028
G1 X197.487 Y143.802 E29.06036
G1 X197.826 Y146.586 E29.27636
G1 X197.985 Y150.018 E29.541
G1 X197.893 Y153.056 E29.7751
G1 X197.429 Y158.314 E30.18163
G1 X196.539 Y161.77 E30.45653
G1 X194.176 Y167.074 E30.90372
G1 X192.789 Y169.785 E31.13822
G1 X191.859 Y171.375 E31.28015
G1 X190.757 Y173.053 E31.43469
G1 X188.925 Y175.511 E31.67083
G1 X187.299 Y177.345 E31.85962
G1 X182.241 Y182.404 E32.41061
G1 X179.099 Y184.597 E32.70573
G1 X174.085 Y186.911 E33.131
G1 X171.46 Y187.976 E33.34916
G1 X169.869 Y188.531 E33.47897
G1 X166.285 Y189.492 E33.76474
G1 X163.525 Y190.007 E33.98099
G1 X160.113 Y190.383 E34.24535
G1 X156.895 Y190.461 E34.4933
G1 X153.544 Y190.271 E34.75176
G1 X149.998 Y189.779 E35.02756
G1 X147.506 Y189.214 E35.2243
G1 X145.418 Y188.619 E35.39158
G1 X141.555 Y187.193 E35.70872
G1 X139.632 Y186.309 E35.87172
G1 X137.774 Y185.33 E36.03349
G1 X134.699 Y183.432 E36.31176
G1 X133.03 Y182.231 E36.47011
G1 X131.344 Y180.872 E36.6369
G1 X128.535 Y178.26 E36.93239
G1 X127.288 Y176.923 E37.07313
G1 X125.844 Y175.207 E37.24589
G1 X123.75 Y172.329 E37.52002
G1 X122.552 Y170.399 E37.69496
G1 X121.581 Y168.635 E37.8501
G1 X119.893 Y164.939 E38.16299
G1 X119.058 Y162.641 E38.35129
G1 X118.567 Y161.011 E38.48241
G1 X117.749 Y157.581 E38.75402
G1 X117.35 Y155.038 E38.95229
G1 X117.175 Y153.384 E39.08035
G1 X117.039 Y149.406 E39.38697
G1 X117.282 Y145.54 E39.68527
G1 X117.874 Y141.792 E39.97753
G1 X119.095 Y136.315 E40.40972
G1 X120.468 Y132.946 E40.68992
G1 X123.87 Y127.492 E41.18502
G1 X125.7 Y124.973 E41.42475
G1 X127.507 Y122.866 E41.63858
;WIPE_START
G1 F7200
G1 X132.681 Y117.674 E39.89784
G1 X133.229 Y117.288 E39.73858
;WIPE_END
G1 E39.63858 F1800
G92 E0
G1 X140.413 Y125.407 F9000
G1 E2 F1800
;TYPE:Support material interface
G1 F900
G1 X135.212 Y130.625 E2.56747
G1 X134.712 Y131.215 E2.62701
G1 X133.762 Y132.432 E2.74594
G1 X133.016 Y133.487 E2.84549
G1 X132.593 Y134.132 E2.90489
G1 X131.962 Y135.181 E2.99912
G1 X142.688 Y124.455 E4.16741
G1 X143.637 Y123.924 E4.25118
G1 X144.323 Y123.571 E4.31055
G1 X145.406 Y123.06 E4.40281
G1 X129.768 Y138.699 E6.10616
;WIPE_START
G1 F7200
G1 X135.425 Y133.042 E4.20616
;WIPE_END
G1 E4.10616 F1800
G92 E0
G1 X174.508 Y174.672 F9000
G1 E2 F1800
G1 F900
G1 X179.567 Y169.613 E2.551
G1 X180.279 Y168.814 E2.63343
G1 X181.084 Y167.775 E2.73468
G1 X181.874 Y166.674 E2.83901
G1 X182.682 Y165.428 E2.95339
G1 X183.054 Y164.802 E3.00948
G1 X172.311 Y175.545 E4.1796
G1 X171.363 Y176.076 E4.26334
G1 X170.677 Y176.429 E4.32272
G1 X169.593 Y176.94 E4.41499
G1 X184.441 Y162.092 E6.03225
G1 X184.684 Y161.541 E6.0786
G1 X185.327 Y159.883 E6.21555
G1 X167.38 Y177.83 E8.17031
G1 X165.888 Y178.316 E8.29121
G1 X165.446 Y178.441 E8.32652
G1 X170.956 Y172.931 E8.92662
G1 X169.968 Y173.489 E9.01403
G1 X168.756 Y174.093 E9.11827
G1 X168.248 Y174.316 E9.161
G1 X163.697 Y178.867 E9.65671
G1 X163.072 Y179.002 E9.70595
G1 X162.073 Y179.168 E9.78398
G1 X166.078 Y175.163 E10.22018
G1 X165.202 Y175.453 E10.29124
G1 X164.183 Y175.734 E10.37263
G1 X160.545 Y179.372 E10.7689
G1 X159.108 Y179.487 E10.87994
G1 X162.473 Y176.122 E11.24644
G1 X160.901 Y176.37 E11.36894
G1 X157.747 Y179.524 E11.71256
G1 X157.242 Y179.531 E11.75139
G1 X156.442 Y179.506 E11.81305
G1 X159.433 Y176.515 E12.13882
G1 X158.872 Y176.557 E12.18215
G1 X158.046 Y176.579 E12.24582
G1 X155.192 Y179.432 E12.55663
G1 X154.413 Y179.37 E12.61686
G1 X153.986 Y179.316 E12.64999
G1 X156.729 Y176.573 E12.9487
G1 X156.09 Y176.555 E12.9979
G1 X155.471 Y176.507 E13.04571
G1 X152.824 Y179.154 E13.33401
G1 X152.582 Y179.111 E13.35299
G1 X152.318 Y179.092 E13.37336
G1 X151.698 Y178.958 E13.42225
G1 X154.265 Y176.39 E13.70191
G1 X153.721 Y176.323 E13.74414
G1 X153.112 Y176.22 E13.7917
G1 X150.616 Y178.716 E14.0636
G1 X149.565 Y178.444 E14.14721
G1 X151.999 Y176.01 E14.41233
G1 X150.922 Y175.763 E14.49739
G1 X148.546 Y178.14 E14.75624
G1 X147.561 Y177.802 E14.83645
G1 X149.886 Y175.477 E15.08968
G1 X148.888 Y175.152 E15.1705
G1 X146.601 Y177.439 E15.41964
G1 X145.663 Y177.053 E15.49773
G1 X147.916 Y174.8 E15.74314
G1 X146.979 Y174.414 E15.8212
G1 X144.755 Y176.638 E16.06342
G1 X143.871 Y176.199 E16.13944
G1 X146.066 Y174.004 E16.37851
G1 X145.183 Y173.564 E16.4545
G1 X143.015 Y175.732 E16.69061
G1 X142.179 Y175.244 E16.76513
G1 X144.331 Y173.093 E16.99944
G1 X143.499 Y172.601 E17.07384
G1 X141.366 Y174.735 E17.3062
G1 X140.579 Y174.199 E17.37954
G1 X142.69 Y172.087 E17.60953
G1 X141.912 Y171.543 E17.68271
G1 X139.809 Y173.645 E17.91169
G1 X139.725 Y173.584 E17.91966
G1 X139.062 Y173.069 E17.98435
G1 X141.161 Y170.97 E18.2129
G1 X140.427 Y170.38 E18.28538
G1 X138.34 Y172.468 E18.51272
G1 X137.636 Y171.848 E18.58493
G1 X139.715 Y169.77 E18.81131
G1 X139.035 Y169.126 E18.88339
G1 X136.958 Y171.204 E19.10968
G1 X136.291 Y170.548 E19.18174
G1 X138.374 Y168.465 E19.4086
G1 X137.73 Y167.785 E19.48069
G1 X135.651 Y169.865 E19.70717
G1 X135.034 Y169.158 E19.7794
G1 X137.12 Y167.072 E20.00656
G1 X136.53 Y166.339 E20.07904
G1 X134.432 Y168.437 E20.3075
G1 X133.855 Y167.69 E20.38016
G1 X135.957 Y165.588 E20.6091
G1 X135.413 Y164.81 E20.68228
G1 X133.29 Y166.932 E20.91346
G1 X132.768 Y166.131 E20.9871
G1 X134.899 Y164.001 E21.21915
G1 X134.407 Y163.169 E21.29355
G1 X132.259 Y165.318 E21.52754
G1 X131.771 Y164.482 E21.60206
G1 X133.936 Y162.317 E21.83783
G1 X133.496 Y161.434 E21.91382
G1 X131.302 Y163.627 E22.15271
G1 X131.071 Y163.177 E22.19171
G1 X130.862 Y162.745 E22.2287
G1 X133.085 Y160.521 E22.47089
G1 X132.7 Y159.584 E22.54895
G1 X130.445 Y161.838 E22.7945
G1 X130.119 Y161.065 E22.85915
G1 X130.058 Y160.903 E22.8725
G1 X132.348 Y158.612 E23.12202
G1 X132.023 Y157.614 E23.20285
G1 X129.694 Y159.943 E23.45652
G1 X129.36 Y158.954 E23.53692
G1 X131.736 Y156.578 E23.79579
G1 X131.49 Y155.501 E23.88085
G1 X129.06 Y157.931 E24.14557
G1 X128.784 Y156.884 E24.22898
G1 X131.28 Y154.388 E24.50087
G1 X131.177 Y153.779 E24.54843
G1 X131.11 Y153.235 E24.59066
G1 X128.545 Y155.8 E24.87006
G1 X128.343 Y154.679 E24.9578
G1 X130.993 Y152.029 E25.24644
G1 X130.945 Y151.41 E25.29424
G1 X130.927 Y150.771 E25.34345
G1 X128.18 Y153.518 E25.64266
G1 X128.061 Y152.314 E25.73585
G1 X130.921 Y149.454 E26.04739
G1 X130.943 Y148.628 E26.11105
G1 X130.985 Y148.067 E26.15439
G1 X127.987 Y151.065 E26.48093
G1 X127.969 Y149.76 E26.58145
G1 X131.13 Y146.598 E26.92575
G1 X131.378 Y145.027 E27.04826
G1 X128.013 Y148.392 E27.41476
G1 X128.126 Y146.956 E27.52568
G1 X131.766 Y143.317 E27.92212
G1 X132.047 Y142.298 E28.00349
G1 X132.337 Y141.422 E28.07457
G1 X128.325 Y145.434 E28.5116
G1 X128.416 Y144.872 E28.5555
G1 X128.626 Y143.81 E28.63888
G1 X133.185 Y139.251 E29.13538
G1 X133.407 Y138.744 E29.17808
G1 X134.011 Y137.532 E29.28233
G1 X134.569 Y136.544 E29.36976
G1 X129.059 Y142.054 E29.96995
G1 X129.334 Y141.122 E30.04478
G1 X129.682 Y140.108 E30.12739
G1 X147.629 Y122.161 E32.08219
G1 X149.11 Y121.685 E32.20205
G1 X149.548 Y121.565 E32.23695
G1 X144.044 Y127.069 E32.83643
G1 X145.032 Y126.511 E32.92387
G1 X146.244 Y125.907 E33.02811
G1 X146.751 Y125.685 E33.07082
G1 X151.31 Y121.126 E33.56738
G1 X151.865 Y121.01 E33.61101
G1 X152.934 Y120.825 E33.69456
G1 X148.922 Y124.837 E34.13152
G1 X149.798 Y124.547 E34.20259
G1 X150.817 Y124.266 E34.28397
G1 X154.453 Y120.629 E34.68004
G1 X155.892 Y120.514 E34.79119
G1 X152.527 Y123.878 E35.15763
G1 X154.097 Y123.631 E35.28006
G1 X157.272 Y120.456 E35.62587
G1 X158.558 Y120.494 E35.72492
G1 X155.567 Y123.485 E36.05073
G1 X156.492 Y123.427 E36.12212
G1 X156.957 Y123.418 E36.15799
G1 X159.816 Y120.559 E36.46938
G1 X161.014 Y120.684 E36.56215
G1 X158.272 Y123.426 E36.86086
G1 X158.91 Y123.445 E36.91005
G1 X159.529 Y123.493 E36.95782
G1 X162.178 Y120.843 E37.24642
G1 X162.656 Y120.902 E37.28348
G1 X163.302 Y121.042 E37.33443
G1 X160.732 Y123.613 E37.6144
G1 X161.891 Y123.776 E37.70458
G1 X164.384 Y121.284 E37.9761
G1 X165.435 Y121.556 E38.05971
G1 X163.002 Y123.989 E38.32476
G1 X164.077 Y124.237 E38.40977
G1 X166.454 Y121.86 E38.66863
G1 X167.439 Y122.198 E38.74884
G1 X165.113 Y124.524 E39.00217
G1 X166.112 Y124.849 E39.08303
G1 X168.399 Y122.561 E39.33219
G1 X168.798 Y122.68 E39.36425
G1 X169.347 Y122.937 E39.41091
G1 X167.082 Y125.202 E39.6576
G1 X168.025 Y125.582 E39.7359
G1 X170.249 Y123.357 E39.97819
G1 X171.129 Y123.801 E40.05407
G1 X168.935 Y125.995 E40.29306
G1 X169.816 Y126.437 E40.369
G1 X171.985 Y124.268 E40.60521
G1 X172.821 Y124.756 E40.67973
G1 X170.67 Y126.906 E40.914
G1 X171.501 Y127.399 E40.98838
G1 X173.634 Y125.265 E41.22076
G1 X174.427 Y125.795 E41.29423
G1 X172.309 Y127.914 E41.52496
G1 X173.084 Y128.461 E41.59809
G1 X175.19 Y126.355 E41.82745
G1 X175.933 Y126.936 E41.90005
G1 X173.842 Y129.027 E42.12785
G1 X174.572 Y129.62 E42.2003
G1 X176.659 Y127.533 E42.4276
G1 X177.362 Y128.153 E42.4998
G1 X175.285 Y130.23 E42.72598
G1 X175.965 Y130.874 E42.79807
G1 X178.043 Y128.795 E43.02448
G1 X178.565 Y129.302 E43.08054
G1 X178.709 Y129.452 E43.09655
G1 X176.626 Y131.535 E43.32341
G1 X177.27 Y132.215 E43.39549
G1 X179.349 Y130.135 E43.62198
G1 X179.617 Y130.43 E43.65262
G1 X179.966 Y130.842 E43.69421
G1 X177.88 Y132.927 E43.92137
G1 X178.47 Y133.661 E43.99385
G1 X180.568 Y131.563 E44.22232
G1 X180.93 Y132.022 E44.26732
G1 X181.144 Y132.31 E44.29498
G1 X179.043 Y134.412 E44.52392
G1 X179.587 Y135.19 E44.5971
G1 X181.697 Y133.081 E44.82689
G1 X182.234 Y133.867 E44.90021
G1 X180.101 Y135.999 E45.13247
G1 X180.593 Y136.831 E45.20687
G1 X182.744 Y134.679 E45.44119
G1 X183.229 Y135.518 E45.51578
G1 X181.064 Y137.683 E45.75162
G1 X181.504 Y138.566 E45.82761
G1 X183.698 Y136.372 E46.0665
G1 X184.138 Y137.255 E46.14248
G1 X181.914 Y139.479 E46.38467
G1 X182.3 Y140.416 E46.46273
G1 X184.555 Y138.162 E46.70828
G1 X184.942 Y139.097 E46.78627
G1 X182.652 Y141.388 E47.03579
G1 X182.977 Y142.386 E47.11662
G1 X185.306 Y140.057 E47.37029
G1 X185.587 Y140.874 E47.43686
G1 X185.64 Y141.046 E47.45069
G1 X183.264 Y143.422 E47.70956
G1 X183.51 Y144.499 E47.79463
G1 X185.94 Y142.069 E48.05934
G1 X186.216 Y143.116 E48.14275
G1 X183.72 Y145.612 E48.41464
G1 X183.823 Y146.221 E48.46221
G1 X183.89 Y146.765 E48.50443
G1 X186.455 Y144.2 E48.78383
G1 X186.657 Y145.321 E48.87157
G1 X184.007 Y147.971 E49.16021
G1 X184.055 Y148.59 E49.20802
G1 X184.073 Y149.229 E49.25722
G1 X186.82 Y146.482 E49.55643
G1 X186.945 Y147.679 E49.64919
G1 X184.079 Y150.546 E49.9614
G1 X184.057 Y151.372 E50.02508
G1 X184.015 Y151.933 E50.06841
G1 X187.013 Y148.935 E50.39494
G1 X187.053 Y149.771 E50.45934
G1 X187.036 Y150.235 E50.49516
G1 X183.87 Y153.401 E50.84001
G1 X183.622 Y154.973 E50.96252
G1 X186.986 Y151.608 E51.32897
G1 X187 Y152.094 E51.36637
G1 X186.876 Y153.041 E51.43997
G1 X183.234 Y156.683 E51.83665
G1 X182.953 Y157.702 E51.91804
G1 X182.663 Y158.578 E51.98911
G1 X186.677 Y154.564 E52.42632
G1 X186.374 Y156.19 E52.55375
G1 X181.816 Y160.748 E53.05024
G1 X181.593 Y161.256 E53.09296
G1 X180.989 Y162.468 E53.19721
G1 X180.431 Y163.456 E53.28461
G1 X186.536 Y157.351 E53.94952
;WIPE_START
G1 F7200
G1 X180.879 Y163.008 E52.04952
;WIPE_END
G1 E51.94952 F1800
G92 E0
G1 X177.565 Y140.613 F9000
G1 E2 F1800
;TYPE:Perimeter
;WIDTH:1
G1 F750
G1 X177.999 Y141.601 E2.08307
G1 X178.413 Y142.692 E2.17299
G1 X178.715 Y143.623 E2.24833
G1 X178.994 Y144.638 E2.32944
G1 X179.246 Y145.773 E2.41897
G1 X179.438 Y146.92 E2.5085
G1 X179.559 Y147.966 E2.58962
G1 X179.628 Y148.945 E2.6652
G1 X179.653 Y150 E2.7465
G1 X179.628 Y151.055 E2.82781
G1 X179.559 Y152.034 E2.90339
G1 X179.438 Y153.08 E2.98451
G1 X179.246 Y154.227 E3.07404
G1 X178.994 Y155.362 E3.16357
G1 X178.715 Y156.377 E3.24467
G1 X178.413 Y157.308 E3.32002
G1 X177.999 Y158.399 E3.40994
G1 X177.579 Y159.36 E3.4907
G1 X177.06 Y160.4 E3.58022
G1 X176.487 Y161.412 E3.66976
G1 X175.924 Y162.301 E3.75086
G1 X175.362 Y163.103 E3.82621
G1 X174.647 Y164.025 E3.91613
G1 X173.965 Y164.821 E3.99689
G1 X173.165 Y165.665 E4.08641
G1 X172.321 Y166.465 E4.17594
G1 X171.526 Y167.147 E4.2567
G1 X170.603 Y167.862 E4.34661
G1 X169.801 Y168.424 E4.42196
G1 X168.912 Y168.987 E4.50307
