; generated by PrusaSlicer 2.5.0+linux-x64-GTK3 on 2023-10-04 at 01:41:41 UTC

; 

; external perimeters extrusion width = 1.00mm
; perimeters extrusion width = 1.00mm
; infill extrusion width = 1.00mm
; solid infill extrusion width = 1.00mm
; top infill extrusion width = 1.00mm
; support material extrusion width = 1.00mm
; first layer extrusion width = 1.00mm

M107
;TYPE:Custom
M190 S70 ;Heat up bed
M140 S0 ;Stop bed heater
G28 ;Home
G29 ;Autolevel
G1 X0 Y0 Z5 F6000.000
M140 S70 ;Turn bed back on
M106 S255 ;Turn on fans
M109 S225  ;Set extruder temp
G21 ; set units to millimeters
G90 ; use absolute coordinates
M82 ; use absolute distances for extrusion
G92 E0
; Filament gcode
M106 S255
;LAYER_CHANGE
;Z:0.3
;HEIGHT:0.3
G1 E-2 F1800
G92 E0
G1 Z.1 F9000
G1 X129.57 Y121.34
G1 E2 F1800
;TYPE:Skirt/Brim
;WIDTH:1
G1 F900
G1 X132.558 Y118.705 E2.30685
G1 X135.734 Y116.418 E2.60832
G1 X139.169 Y114.426 E2.91412
G1 X142.766 Y112.792 E3.21837
G1 X146.294 Y111.582 E3.50564
G1 X150.169 Y110.659 E3.81248
G1 X154.08 Y110.128 E4.1164
G1 X158.016 Y109.985 E4.41978
G1 X161.992 Y110.235 E4.72661
G1 X165.856 Y110.863 E5.02811
G1 X169.693 Y111.884 E5.33391
G1 X173.422 Y113.285 E5.64076
G1 X176.933 Y115.016 E5.94225
G1 X180.135 Y116.998 E6.23227
G1 X183.275 Y119.388 E6.53619
G1 X186.16 Y122.07 E6.83956
G1 X188.795 Y125.058 E7.1464
G1 X191.082 Y128.234 E7.44788
G1 X193.074 Y131.669 E7.75367
G1 X194.708 Y135.266 E8.05792
G1 X195.918 Y138.794 E8.34519
G1 X196.841 Y142.669 E8.65204
G1 X197.372 Y146.579 E8.95595
G1 X197.515 Y150.516 E9.25934
G1 X197.265 Y154.492 E9.56617
G1 X196.637 Y158.356 E9.86766
G1 X195.616 Y162.193 E10.17347
G1 X194.215 Y165.922 E10.48031
G1 X192.484 Y169.433 E10.7818
G1 X190.502 Y172.635 E11.07182
G1 X188.112 Y175.775 E11.37574
G1 X185.43 Y178.66 E11.67911
G1 X182.442 Y181.295 E11.98596
G1 X179.266 Y183.582 E12.28743
G1 X175.831 Y185.574 E12.59323
G1 X172.234 Y187.208 E12.89748
G1 X168.706 Y188.418 E13.18475
G1 X164.831 Y189.341 E13.4916
G1 X160.92 Y189.872 E13.79551
G1 X156.984 Y190.015 E14.09889
G1 X153.008 Y189.765 E14.40572
G1 X149.144 Y189.137 E14.70722
G1 X145.307 Y188.116 E15.01302
G1 X141.578 Y186.715 E15.31987
G1 X138.067 Y184.984 E15.62136
G1 X134.865 Y183.002 E15.91138
G1 X131.725 Y180.612 E16.2153
G1 X128.84 Y177.93 E16.51867
G1 X126.205 Y174.942 E16.82551
G1 X123.918 Y171.766 E17.12699
G1 X121.926 Y168.331 E17.43279
G1 X120.292 Y164.734 E17.73703
G1 X119.082 Y161.206 E18.0243
G1 X118.159 Y157.331 E18.33115
G1 X117.628 Y153.42 E18.63507
G1 X117.485 Y149.484 E18.93845
G1 X117.735 Y145.508 E19.24528
G1 X118.363 Y141.644 E19.54677
G1 X119.384 Y137.807 E19.85258
G1 X120.785 Y134.078 E20.15942
G1 X122.516 Y130.567 E20.46091
G1 X124.498 Y127.365 E20.75093
G1 X126.888 Y124.225 E21.05486
G1 X129.488 Y121.428 E21.34898
G1 X130.172 Y122.063 F9000
G1 F900
G1 X133.128 Y119.447 E21.65296
G1 X136.23 Y117.211 E21.94752
G1 X139.584 Y115.265 E22.2462
G1 X143.096 Y113.668 E22.54332
G1 X146.541 Y112.485 E22.82389
G1 X150.324 Y111.582 E23.1234
G1 X154.142 Y111.062 E23.42021
G1 X157.989 Y110.92 E23.71667
G1 X161.87 Y111.162 E24.01616
G1 X165.645 Y111.775 E24.31074
G1 X169.393 Y112.77 E24.60943
G1 X173.034 Y114.137 E24.90894
G1 X176.465 Y115.827 E25.20352
G1 X179.592 Y117.76 E25.48662
G1 X182.659 Y120.092 E25.78344
G1 X185.479 Y122.712 E26.07987
G1 X188.053 Y125.628 E26.37938
G1 X190.289 Y128.73 E26.67395
G1 X192.235 Y132.084 E26.97262
G1 X193.832 Y135.596 E27.26974
G1 X195.015 Y139.041 E27.55031
G1 X195.918 Y142.824 E27.84983
G1 X196.438 Y146.642 E28.14663
G1 X196.58 Y150.489 E28.44309
G1 X196.338 Y154.37 E28.74259
G1 X195.725 Y158.145 E29.03716
G1 X194.73 Y161.893 E29.33585
G1 X193.363 Y165.534 E29.63536
G1 X191.673 Y168.965 E29.92993
G1 X189.74 Y172.092 E30.21305
G1 X187.408 Y175.159 E30.50986
G1 X184.788 Y177.979 E30.8063
G1 X181.872 Y180.553 E31.10581
G1 X178.77 Y182.789 E31.40038
G1 X175.416 Y184.735 E31.69905
G1 X171.904 Y186.332 E31.99617
G1 X168.459 Y187.515 E32.27674
G1 X164.676 Y188.418 E32.57625
G1 X160.858 Y188.938 E32.87307
G1 X157.011 Y189.08 E33.16952
G1 X153.13 Y188.838 E33.46901
G1 X149.355 Y188.225 E33.76359
G1 X145.607 Y187.23 E34.06228
G1 X141.966 Y185.863 E34.36179
G1 X138.535 Y184.173 E34.65637
G1 X135.408 Y182.24 E34.93947
G1 X132.341 Y179.908 E35.23629
G1 X129.521 Y177.288 E35.53273
G1 X126.947 Y174.372 E35.83224
G1 X124.711 Y171.27 E36.1268
G1 X122.765 Y167.916 E36.42548
G1 X121.168 Y164.404 E36.7226
G1 X119.985 Y160.959 E37.00317
G1 X119.082 Y157.176 E37.30268
G1 X118.562 Y153.358 E37.59949
G1 X118.42 Y149.511 E37.89594
G1 X118.662 Y145.63 E38.19544
G1 X119.275 Y141.855 E38.49001
G1 X120.27 Y138.107 E38.78871
G1 X121.637 Y134.466 E39.08821
G1 X123.327 Y131.035 E39.38278
G1 X125.26 Y127.908 E39.6659
G1 X127.592 Y124.841 E39.96272
G1 X130.09 Y122.151 E40.24542
;WIPE_START
G1 F7200
G1 X133.128 Y119.447 E39.27968
G1 X136.23 Y117.211 E38.37134
G1 X136.325 Y117.157 E38.34542
;WIPE_END
G1 E38.24542 F1800
G92 E0
G1 X152.581 Y124.696 F9000
G1 E2 F1800
;TYPE:Perimeter
;WIDTH:1
G1 F750
G1 X153.916 Y124.472 E2.10421
G1 X155.094 Y124.335 E2.19554
G1 X156.447 Y124.244 E2.30001
G1 X157.657 Y124.223 E2.39325
G1 X158.846 Y124.257 E2.48483
G1 X160.194 Y124.363 E2.58902
G1 X161.536 Y124.54 E2.69323
G1 X162.706 Y124.753 E2.78479
G1 X163.885 Y125.025 E2.87802
G1 X165.19 Y125.396 E2.98251
G1 X166.314 Y125.775 E3.07384
G1 X167.572 Y126.271 E3.17804
G1 X168.803 Y126.832 E3.28224
G1 X169.86 Y127.378 E3.37381
G1 X170.911 Y127.986 E3.46735
G1 X171.912 Y128.627 E3.55891
G1 X173.016 Y129.415 E3.66338
G1 X173.947 Y130.15 E3.75471
G1 X174.968 Y131.043 E3.85919
G1 X175.839 Y131.884 E3.95242
G1 X176.655 Y132.749 E4.04398
G1 X177.533 Y133.777 E4.14819
G1 X178.357 Y134.851 E4.25239
G1 X179.033 Y135.829 E4.34395
G1 X179.674 Y136.855 E4.43719
G1 X180.335 Y138.04 E4.54167
G1 X180.861 Y139.103 E4.633
G1 X181.402 Y140.347 E4.73747
G1 X181.822 Y141.459 E4.82905
G1 X182.197 Y142.614 E4.92255
G1 X182.511 Y143.76 E5.01413
G1 X182.804 Y145.081 E5.11833
G1 X183.028 Y146.416 E5.22254
G1 X183.165 Y147.593 E5.31386
G1 X183.256 Y148.947 E5.41834
G1 X183.277 Y150.157 E5.51158
G1 X183.243 Y151.346 E5.60316
G1 X183.137 Y152.694 E5.70735
G1 X182.96 Y154.036 E5.81156
G1 X182.747 Y155.205 E5.90312
G1 X182.475 Y156.385 E5.99635
G1 X182.104 Y157.69 E6.10084
G1 X181.725 Y158.814 E6.19217
G1 X181.229 Y160.072 E6.29637
G1 X180.668 Y161.303 E6.40057
G1 X180.122 Y162.359 E6.49214
G1 X179.514 Y163.411 E6.58568
G1 X178.873 Y164.412 E6.67724
G1 X178.085 Y165.516 E6.78171
G1 X177.35 Y166.446 E6.87304
G1 X176.457 Y167.468 E6.97752
G1 X175.616 Y168.339 E7.07075
G1 X174.751 Y169.155 E7.16231
G1 X173.723 Y170.033 E7.26652
G1 X172.649 Y170.857 E7.37073
G1 X171.671 Y171.533 E7.46229
G1 X170.645 Y172.175 E7.55552
G1 X169.46 Y172.835 E7.66
G1 X168.397 Y173.361 E7.75133
G1 X167.153 Y173.902 E7.8558
G1 X166.041 Y174.322 E7.94738
G1 X164.886 Y174.697 E8.04089
G1 X163.74 Y175.011 E8.13246
G1 X162.419 Y175.304 E8.23666
G1 X161.084 Y175.528 E8.34088
G1 X159.906 Y175.665 E8.4322
G1 X158.553 Y175.756 E8.53667
G1 X157.343 Y175.777 E8.62992
G1 X156.154 Y175.743 E8.72149
G1 X154.806 Y175.637 E8.82568
G1 X153.464 Y175.46 E8.92989
G1 X152.294 Y175.247 E9.02145
G1 X151.115 Y174.975 E9.11468
G1 X149.81 Y174.604 E9.21917
G1 X148.686 Y174.225 E9.3105
G1 X147.428 Y173.729 E9.4147
G1 X146.197 Y173.168 E9.5189
G1 X145.14 Y172.622 E9.61048
G1 X144.089 Y172.014 E9.70401
G1 X143.088 Y171.373 E9.79557
G1 X141.984 Y170.585 E9.90004
G1 X141.053 Y169.85 E9.99137
G1 X140.032 Y168.957 E10.09585
G1 X139.161 Y168.116 E10.18908
G1 X138.345 Y167.251 E10.28064
G1 X137.467 Y166.223 E10.38485
G1 X136.643 Y165.149 E10.48906
G1 X135.967 Y164.171 E10.58062
G1 X135.325 Y163.145 E10.67385
G1 X134.665 Y161.96 E10.77833
G1 X134.139 Y160.897 E10.86966
G1 X133.598 Y159.653 E10.97413
G1 X133.178 Y158.541 E11.06571
G1 X132.803 Y157.386 E11.15922
G1 X132.489 Y156.24 E11.25079
G1 X132.196 Y154.919 E11.35499
G1 X131.972 Y153.584 E11.45921
G1 X131.835 Y152.406 E11.55053
G1 X131.744 Y151.053 E11.65501
G1 X131.723 Y149.843 E11.74825
G1 X131.757 Y148.654 E11.83982
G1 X131.863 Y147.306 E11.94401
G1 X132.04 Y145.964 E12.04822
G1 X132.253 Y144.795 E12.13978
G1 X132.525 Y143.615 E12.23301
G1 X132.896 Y142.31 E12.3375
G1 X133.275 Y141.187 E12.42883
G1 X133.771 Y139.928 E12.53303
G1 X134.332 Y138.697 E12.63723
G1 X134.878 Y137.641 E12.7288
G1 X135.486 Y136.589 E12.82234
G1 X136.127 Y135.588 E12.9139
G1 X136.915 Y134.484 E13.01837
G1 X137.65 Y133.553 E13.10971
G1 X138.543 Y132.532 E13.21418
G1 X139.384 Y131.661 E13.30741
G1 X140.249 Y130.845 E13.39897
G1 X141.277 Y129.967 E13.50318
G1 X142.351 Y129.143 E13.60739
G1 X143.329 Y128.467 E13.69895
G1 X144.355 Y127.825 E13.79218
G1 X145.54 Y127.165 E13.89666
G1 X146.603 Y126.639 E13.98799
G1 X147.847 Y126.098 E14.09246
G1 X148.959 Y125.678 E14.18404
G1 X150.114 Y125.303 E14.27755
G1 X151.26 Y124.989 E14.36912
G1 X152.464 Y124.722 E14.46408
G1 X152.403 Y123.777 F9000
G1 F750
G1 X153.784 Y123.546 E14.57196
G1 X155.008 Y123.403 E14.66684
G1 X156.407 Y123.309 E14.77488
G1 X157.663 Y123.287 E14.87159
G1 X158.896 Y123.323 E14.96662
G1 X160.292 Y123.432 E15.07448
G1 X161.681 Y123.615 E15.18236
G1 X162.895 Y123.837 E15.27739
G1 X164.118 Y124.119 E15.37409
G1 X165.468 Y124.502 E15.48213
G1 X166.635 Y124.896 E15.57702
G1 X167.938 Y125.41 E15.68489
G1 X169.212 Y125.991 E15.79276
G1 X170.309 Y126.557 E15.88779
G1 X171.398 Y127.186 E15.98468
G1 X172.437 Y127.852 E16.0797
G1 X173.578 Y128.667 E16.18773
G1 X174.545 Y129.431 E16.28263
G1 X175.601 Y130.354 E16.39066
G1 X176.504 Y131.226 E16.48736
G1 X177.351 Y132.123 E16.58238
G1 X178.261 Y133.188 E16.69026
G1 X179.113 Y134.3 E16.79814
G1 X179.815 Y135.314 E16.89316
G1 X180.48 Y136.379 E16.98985
G1 X181.164 Y137.604 E17.0979
G1 X181.71 Y138.708 E17.19278
G1 X182.27 Y139.995 E17.30082
G1 X182.705 Y141.149 E17.39586
G1 X183.094 Y142.345 E17.49272
G1 X183.42 Y143.535 E17.58775
G1 X183.723 Y144.903 E17.69562
G1 X183.954 Y146.284 E17.80351
G1 X184.097 Y147.508 E17.89838
G1 X184.191 Y148.907 E18.00642
G1 X184.213 Y150.163 E18.10313
G1 X184.177 Y151.396 E18.19816
G1 X184.068 Y152.792 E18.30603
G1 X183.885 Y154.181 E18.41391
G1 X183.663 Y155.395 E18.50893
G1 X183.381 Y156.618 E18.60563
G1 X182.998 Y157.968 E18.71368
G1 X182.604 Y159.135 E18.80857
G1 X182.09 Y160.438 E18.91644
G1 X181.509 Y161.712 E19.02431
G1 X180.943 Y162.808 E19.11933
G1 X180.314 Y163.898 E19.21622
G1 X179.648 Y164.937 E19.31125
G1 X178.833 Y166.078 E19.41928
G1 X178.069 Y167.045 E19.51417
G1 X177.146 Y168.101 E19.62221
G1 X176.274 Y169.004 E19.71891
G1 X175.377 Y169.851 E19.81393
G1 X174.312 Y170.761 E19.92181
G1 X173.2 Y171.613 E20.02968
G1 X172.186 Y172.315 E20.1247
G1 X171.121 Y172.98 E20.22141
G1 X169.896 Y173.664 E20.32945
G1 X168.792 Y174.21 E20.42433
G1 X167.505 Y174.77 E20.53237
G1 X166.351 Y175.205 E20.62741
G1 X165.155 Y175.594 E20.72427
G1 X163.965 Y175.92 E20.81929
G1 X162.597 Y176.223 E20.92717
G1 X161.216 Y176.454 E21.03506
G1 X159.992 Y176.597 E21.12993
G1 X158.593 Y176.691 E21.23797
G1 X157.337 Y176.713 E21.33468
G1 X156.104 Y176.677 E21.42971
G1 X154.708 Y176.568 E21.53757
G1 X153.319 Y176.385 E21.64545
G1 X152.105 Y176.163 E21.74048
G1 X150.882 Y175.881 E21.83718
G1 X149.532 Y175.498 E21.94522
G1 X148.365 Y175.104 E22.04011
G1 X147.062 Y174.59 E22.14798
G1 X145.788 Y174.009 E22.25585
G1 X144.691 Y173.443 E22.35088
G1 X143.602 Y172.814 E22.44777
G1 X142.563 Y172.148 E22.54279
G1 X141.422 Y171.333 E22.65082
G1 X140.455 Y170.569 E22.74572
G1 X139.399 Y169.646 E22.85375
G1 X138.496 Y168.774 E22.95045
G1 X137.649 Y167.877 E23.04547
G1 X136.739 Y166.812 E23.15335
G1 X135.887 Y165.7 E23.26123
G1 X135.185 Y164.686 E23.35625
G1 X134.52 Y163.621 E23.45295
G1 X133.836 Y162.396 E23.56099
G1 X133.29 Y161.292 E23.65587
G1 X132.73 Y160.005 E23.76391
G1 X132.295 Y158.851 E23.85895
G1 X131.906 Y157.655 E23.95581
G1 X131.58 Y156.465 E24.05084
G1 X131.277 Y155.097 E24.15872
G1 X131.046 Y153.716 E24.2666
G1 X130.903 Y152.492 E24.36148
G1 X130.809 Y151.093 E24.46952
G1 X130.787 Y149.837 E24.56623
G1 X130.823 Y148.604 E24.66126
G1 X130.932 Y147.208 E24.76912
G1 X131.115 Y145.819 E24.877
G1 X131.337 Y144.605 E24.97202
G1 X131.619 Y143.382 E25.06872
G1 X132.002 Y142.032 E25.17677
G1 X132.396 Y140.865 E25.27166
G1 X132.91 Y139.562 E25.37953
G1 X133.491 Y138.288 E25.4874
G1 X134.057 Y137.192 E25.58242
G1 X134.686 Y136.102 E25.67931
G1 X135.352 Y135.063 E25.77434
G1 X136.167 Y133.922 E25.88237
G1 X136.931 Y132.955 E25.97726
G1 X137.854 Y131.899 E26.0853
G1 X138.726 Y130.996 E26.182
G1 X139.623 Y130.149 E26.27702
G1 X140.688 Y129.239 E26.3849
G1 X141.8 Y128.387 E26.49277
G1 X142.814 Y127.685 E26.58779
G1 X143.879 Y127.02 E26.6845
G1 X145.104 Y126.336 E26.79254
G1 X146.208 Y125.79 E26.88742
G1 X147.495 Y125.23 E26.99546
G1 X148.649 Y124.795 E27.0905
G1 X149.845 Y124.406 E27.18736
G1 X151.035 Y124.08 E27.28239
G1 X152.286 Y123.803 E27.38102
G1 X152.224 Y122.858 F9000
;TYPE:External perimeter
G1 F375
G1 X153.653 Y122.619 E27.49258
G1 X154.922 Y122.471 E27.59101
G1 X156.368 Y122.374 E27.70261
G1 X157.668 Y122.351 E27.80278
G1 X158.946 Y122.388 E27.90127
G1 X160.39 Y122.502 E28.01281
G1 X161.826 Y122.691 E28.12436
G1 X163.084 Y122.92 E28.22284
G1 X164.351 Y123.213 E28.32301
G1 X165.745 Y123.608 E28.43462
G1 X166.956 Y124.017 E28.53306
G1 X168.304 Y124.548 E28.6446
G1 X169.622 Y125.149 E28.75614
G1 X170.757 Y125.736 E28.85463
G1 X171.885 Y126.387 E28.95487
G1 X172.961 Y127.077 E29.05335
G1 X174.141 Y127.918 E29.16495
G1 X175.143 Y128.711 E29.2634
G1 X176.234 Y129.665 E29.375
G1 X177.17 Y130.568 E29.47516
G1 X178.047 Y131.498 E29.57365
G1 X178.988 Y132.599 E29.6852
G1 X179.87 Y133.748 E29.79674
G1 X180.597 Y134.8 E29.89522
G1 X181.286 Y135.903 E29.99538
G1 X181.992 Y137.168 E30.10699
G1 X182.559 Y138.314 E30.20543
G1 X183.137 Y139.643 E30.31704
G1 X183.588 Y140.839 E30.41554
G1 X183.99 Y142.077 E30.51574
G1 X184.328 Y143.31 E30.61423
G1 X184.642 Y144.724 E30.72578
G1 X184.881 Y146.153 E30.83734
G1 X185.029 Y147.422 E30.93576
G1 X185.126 Y148.868 E31.04737
G1 X185.149 Y150.168 E31.14755
G1 X185.112 Y151.446 E31.24603
G1 X184.998 Y152.89 E31.35757
G1 X184.809 Y154.326 E31.46912
G1 X184.58 Y155.584 E31.5676
G1 X184.287 Y156.851 E31.66777
G1 X183.892 Y158.245 E31.77938
G1 X183.483 Y159.456 E31.87782
G1 X182.952 Y160.804 E31.98936
G1 X182.351 Y162.122 E32.1009
G1 X181.764 Y163.257 E32.19939
G1 X181.113 Y164.385 E32.29963
G1 X180.423 Y165.461 E32.39811
G1 X179.582 Y166.641 E32.50971
G1 X178.789 Y167.643 E32.60816
G1 X177.835 Y168.734 E32.71976
G1 X176.932 Y169.67 E32.81993
G1 X176.002 Y170.547 E32.91841
G1 X174.901 Y171.488 E33.02996
G1 X173.752 Y172.37 E33.1415
G1 X172.7 Y173.097 E33.23998
G1 X171.597 Y173.786 E33.34015
G1 X170.331 Y174.492 E33.45176
G1 X169.186 Y175.059 E33.55019
G1 X167.857 Y175.637 E33.6618
G1 X166.661 Y176.088 E33.7603
G1 X165.423 Y176.49 E33.86051
G1 X164.19 Y176.828 E33.95899
G1 X162.776 Y177.142 E34.07054
G1 X161.347 Y177.381 E34.1821
G1 X160.078 Y177.529 E34.28053
G1 X158.632 Y177.626 E34.39213
G1 X157.332 Y177.649 E34.49231
G1 X156.054 Y177.612 E34.5908
G1 X154.61 Y177.498 E34.70233
G1 X153.174 Y177.309 E34.81388
G1 X151.916 Y177.08 E34.91236
G1 X150.649 Y176.787 E35.01253
G1 X149.255 Y176.392 E35.12414
G1 X148.044 Y175.983 E35.22258
G1 X146.696 Y175.452 E35.33412
G1 X145.378 Y174.851 E35.44567
G1 X144.243 Y174.264 E35.54416
G1 X143.115 Y173.613 E35.64439
G1 X142.039 Y172.923 E35.74287
G1 X140.859 Y172.082 E35.85447
G1 X139.857 Y171.289 E35.95292
G1 X138.766 Y170.335 E36.06452
G1 X137.83 Y169.432 E36.16469
G1 X136.953 Y168.502 E36.26317
G1 X136.012 Y167.401 E36.37472
G1 X135.13 Y166.252 E36.48626
G1 X134.403 Y165.2 E36.58474
G1 X133.714 Y164.097 E36.68491
G1 X133.008 Y162.831 E36.79652
G1 X132.441 Y161.686 E36.89495
G1 X131.863 Y160.357 E37.00656
G1 X131.412 Y159.161 E37.10506
G1 X131.01 Y157.923 E37.20527
G1 X130.672 Y156.69 E37.30375
G1 X130.358 Y155.276 E37.4153
G1 X130.119 Y153.847 E37.52686
G1 X129.971 Y152.578 E37.62529
G1 X129.874 Y151.132 E37.73689
G1 X129.851 Y149.832 E37.83707
G1 X129.888 Y148.554 E37.93556
G1 X130.002 Y147.11 E38.04709
